verayannn/SpotDMouse/P2-Terrain_Challenge/mp2/misc/openloop_scheduled_yaw_left_0.2.csv
step,time,obs_0,obs_1,obs_2,obs_3,obs_4,obs_5,obs_6,obs_7,obs_8,obs_9,obs_10,obs_11,obs_12,obs_13,obs_14,obs_15,obs_16,obs_17,obs_18,obs_19,obs_20,obs_21,obs_22,obs_23,obs_24,obs_25,obs_26,obs_27,obs_28,obs_29,obs_30,obs_31,obs_32,obs_33,obs_34,obs_35,obs_36,obs_37,obs_38,obs_39,obs_40,obs_41,obs_42,obs_43,obs_44,obs_45,obs_46,obs_47,obs_48,obs_49,obs_50,obs_51,obs_52,obs_53,obs_54,obs_55,obs_56,obs_57,obs_58,obs_59,action_0,delayed_action_0,joint_pos_0,joint_pos_rel_0,action_1,delayed_action_1,joint_pos_1,joint_pos_rel_1,action_2,delayed_action_2,joint_pos_2,joint_pos_rel_2,action_3,delayed_action_3,joint_pos_3,joint_pos_rel_3,action_4,delayed_action_4,joint_pos_4,joint_pos_rel_4,action_5,delayed_action_5,joint_pos_5,joint_pos_rel_5,action_6,delayed_action_6,joint_pos_6,joint_pos_rel_6,action_7,delayed_action_7,joint_pos_7,joint_pos_rel_7,action_8,delayed_action_8,joint_pos_8,joint_pos_rel_8,action_9,delayed_action_9,joint_pos_9,joint_pos_rel_9,action_10,delayed_action_10,joint_pos_10,joint_pos_rel_10,action_11,delayed_action_11,joint_pos_11,joint_pos_rel_11
0,0.0,0.0,0.0,0.14,0.0,0.0,0.0,0.0,0.0,-1.0,0.0,0.0,0.2,0.0,0.0,0.0,0.0,0.0,0.0,0.0,0.0,0.0,0.0,0.0,0.0,0.0,0.0,0.0,0.0,0.0,0.0,0.0,0.0,0.0,0.0,0.0,0.0,0.0,0.0,0.0,0.0,0.0,0.0,0.0,0.0,0.0,0.0,0.0,0.0,0.0,0.0,0.0,0.0,0.0,0.0,0.0,0.0,0.0,0.0,0.0,0.0,0.06605549,0.0,0.0,0.0,-0.052322112,0.0,0.785,0.0,-0.015614763,0.0,-1.57,0.0,-0.03828239,0.0,0.0,0.0,-0.038410164,0.0,0.785,0.0,-0.09305828,0.0,-1.57,0.0,-0.03618387,0.0,0.0,0.0,0.0220367,0.0,0.785,0.0,0.029469607,0.0,-1.57,0.0,0.023785982,0.0,0.0,0.0,0.08851905,0.0,0.785,0.0,-0.004364615,0.0,-1.57,0.0
1,0.02,0.0,0.0,0.14,0.0,0.0,0.0,0.0,0.0,-1.0,0.0,0.0,0.2,0.0,0.0,0.0,0.0,0.0,0.0,0.0,0.0,0.0,0.0,0.0,0.0,0.0,0.0,0.0,0.0,0.0,0.0,0.0,0.0,0.0,0.0,0.0,0.0,0.0,0.0,0.0,0.0,0.0,0.0,0.0,0.0,0.0,0.0,0.0,0.0,0.0,0.0,0.0,0.0,0.0,0.0,0.0,0.0,0.0,0.0,0.0,0.0,0.06605549,0.0,0.0,0.0,-0.052322112,0.0,0.785,0.0,-0.015614763,0.0,-1.57,0.0,-0.03828239,0.0,0.0,0.0,-0.038410164,0.0,0.785,0.0,-0.09305828,0.0,-1.57,0.0,-0.03618387,0.0,0.0,0.0,0.0220367,0.0,0.785,0.0,0.029469607,0.0,-1.57,0.0,0.023785982,0.0,0.0,0.0,0.08851905,0.0,0.785,0.0,-0.004364615,0.0,-1.57,0.0
2,0.04,0.0,0.0,0.14,0.0,0.0,0.0,0.0,0.0,-1.0,0.0,0.0,0.2,0.0,0.0,0.0,0.0,0.0,0.0,0.0,0.0,0.0,0.0,0.0,0.0,0.0,0.0,0.0,0.0,0.0,0.0,0.0,0.0,0.0,0.0,0.0,0.0,0.0,0.0,0.0,0.0,0.0,0.0,0.0,0.0,0.0,0.0,0.0,0.0,0.0,0.0,0.0,0.0,0.0,0.0,0.0,0.0,0.0,0.0,0.0,0.0,0.06605549,0.0,0.0,0.0,-0.052322112,0.0,0.785,0.0,-0.015614763,0.0,-1.57,0.0,-0.03828239,0.0,0.0,0.0,-0.038410164,0.0,0.785,0.0,-0.09305828,0.0,-1.57,0.0,-0.03618387,0.0,0.0,0.0,0.0220367,0.0,0.785,0.0,0.029469607,0.0,-1.57,0.0,0.023785982,0.0,0.0,0.0,0.08851905,0.0,0.785,0.0,-0.004364615,0.0,-1.57,0.0
3,0.06,0.0,0.0,0.14,0.0,0.0,0.0,0.0,0.0,-1.0,0.0,0.0,0.2,0.0,0.0,0.0,0.0,0.0,0.0,0.0,0.0,0.0,0.0,0.0,0.0,0.0,0.0,0.0,0.0,0.0,0.0,0.0,0.0,0.0,0.0,0.0,0.0,0.0,0.0,0.0,0.0,0.0,0.0,0.0,0.0,0.0,0.0,0.0,0.0,0.0,0.0,0.0,0.0,0.0,0.0,0.0,0.0,0.0,0.0,0.0,0.0,0.06605549,0.06605549,0.0010568878,0.0010568878,-0.052322112,-0.052322112,0.7841629,-0.00083714724,-0.015614763,-0.015614763,-1.5702499,-0.00024986267,-0.03828239,-0.03828239,-0.0006125182,-0.0006125182,-0.038410164,-0.038410164,0.78438544,-0.0006145835,-0.09305828,-0.09305828,-1.571489,-0.001488924,-0.03618387,-0.03618387,-0.0005789419,-0.0005789419,0.0220367,0.0220367,0.7853526,0.00035256147,0.029469607,0.029469607,-1.5695286,0.00047147274,0.023785982,0.023785982,0.0003805757,0.0003805757,0.08851905,0.08851905,0.78641635,0.0014163256,-0.004364615,-0.004364615,-1.5700699,-6.9856644e-05
4,0.08,0.0,0.0,0.14,0.0,0.0,0.0,0.0,0.0,-1.0,0.0,0.0,0.2,0.0010568878,-0.00083714724,-0.00024986267,-0.0006125182,-0.0006145835,-0.001488924,-0.0005789419,0.00035256147,0.00047147274,0.0003805757,0.0014163256,-6.9856644e-05,0.05284439,-0.04185772,-0.012491798,-0.030625913,-0.030728148,-0.07444668,-0.028947094,0.017629337,0.02357559,0.019028785,0.07081527,-0.003491783,0.48511153,-0.38425398,-0.114674285,-0.28114587,-0.28208408,-0.68342066,-0.26573434,0.16183773,0.21642455,0.17468426,0.6500839,-0.032054234,0.06605549,-0.052322112,-0.015614763,-0.03828239,-0.038410164,-0.09305828,-0.03618387,0.0220367,0.029469607,0.023785982,0.08851905,-0.004364615,0.0691419,0.06605549,0.0030839983,0.0030839983,-0.054605387,-0.052322112,0.7825572,-0.0024428368,-0.04646688,-0.015614763,-1.5707291,-0.000729084,-0.058638256,-0.03828239,-0.0017873282,-0.0017873282,-0.03642279,-0.038410164,0.7832067,-0.001793325,-0.066856615,-0.09305828,-1.5743448,-0.0043447018,-0.03011952,-0.03618387,-0.0016893524,-0.0016893524,-0.023759259,0.0220367,0.78602886,0.0010288358,0.02489671,0.029469607,-1.5686243,0.0013757944,0.018402416,0.023785982,0.0011105199,0.0011105199,0.12822211,0.08851905,0.78913283,0.0041328073,0.013436073,-0.004364615,-1.5702039,-0.00020384789
5,0.1,0.0,0.0,0.14,0.0,0.0,0.0,0.0,0.0,-1.0,0.0,0.0,0.2,0.0030839983,-0.0024428368,-0.000729084,-0.0017873282,-0.001793325,-0.0043447018,-0.0016893524,0.0010288358,0.0013757944,0.0011105199,0.0041328073,-0.00020384789,0.10135554,-0.08028312,-0.023959227,-0.0587405,-0.05893656,-0.14278874,-0.055520527,0.033813108,0.045218047,0.03649721,0.13582367,-0.0066972063,0.42842215,-0.33935025,-0.10127302,-0.24829158,-0.24912003,-0.6035572,-0.23468108,0.14292546,0.19113418,0.15427093,0.57411605,-0.028307661,0.06605549,-0.052322112,-0.015614763,-0.03828239,-0.038410164,-0.09305828,-0.03618387,0.0220367,0.029469607,0.023785982,0.08851905,-0.004364615,0.07212334,0.06605549,0.0059679532,0.0059679532,-0.058045067,-0.052322112,0.78027284,-0.004727185,-0.047568984,-0.015614763,-1.5714109,-0.001410842,-0.057311792,-0.03828239,-0.0034587213,-0.0034587213,-0.03376639,-0.038410164,0.7815297,-0.0034703016,-0.06394565,-0.09305828,-1.5784076,-0.008407593,-0.031111434,-0.03618387,-0.0032691252,-0.0032691252,-0.023760887,0.0220367,0.786991,0.001990974,0.026222741,0.029469607,-1.5673376,0.0026624203,0.018333398,0.023785982,0.002149006,0.002149006,0.12919523,0.08851905,0.79299754,0.007997513,0.011311138,-0.004364615,-1.5703945,-0.00039446354
6,0.12,0.0,0.0,0.14,0.0,0.0,0.0,0.0,0.0,-1.0,0.0,0.0,0.2,0.0059679532,-0.004727185,-0.001410842,-0.0034587213,-0.0034703016,-0.008407593,-0.0032691252,0.001990974,0.0026624203,0.002149006,0.007997513,-0.00039446354,0.14419776,-0.114218146,-0.03408653,-0.08356966,-0.08384856,-0.20314446,-0.078988634,0.048105653,0.064331464,0.051924303,0.19323528,-0.009527972,0.3608578,-0.28583318,-0.08530125,-0.20913474,-0.20983239,-0.5083731,-0.19767065,0.12038497,0.16099146,0.12994161,0.48357493,-0.023842428,0.06605549,-0.052322112,-0.015614763,-0.03828239,-0.038410164,-0.09305828,-0.03618387,0.0220367,0.029469607,0.023785982,0.08851905,-0.004364615,0.07513614,0.06605549,0.009573624,0.009573624,-0.06223271,-0.052322112,0.7774168,-0.007583201,-0.048306353,-0.015614763,-1.5722632,-0.0022631884,-0.056119088,-0.03828239,-0.005548384,-0.005548384,-0.030382011,-0.038410164,0.7794331,-0.0055669546,-0.061202057,-0.09305828,-1.5834873,-0.01348722,-0.031582072,-0.03618387,-0.0052442392,-0.0052442392,-0.023389393,0.0220367,0.7881939,0.0031938553,0.027892044,0.029469607,-1.565729,0.0042710304,0.018699195,0.023785982,0.0034473753,0.0034473753,0.12967888,0.08851905,0.7978294,0.012829363,0.008474166,-0.004364615,-1.5706328,-0.0006327629
7,0.14,0.0,0.0,0.14,0.0,0.0,0.0,0.0,0.0,-1.0,0.0,0.0,0.2,0.009573624,-0.007583201,-0.0022631884,-0.005548384,-0.0055669546,-0.01348722,-0.0052442392,0.0031938553,0.0042710304,0.0034473753,0.012829363,-0.0006327629,0.18028355,-0.14280146,-0.042616654,-0.104483135,-0.1048318,-0.25398177,-0.0987557,0.06014415,0.08043061,0.064918466,0.24159276,-0.011912215,0.28512418,-0.22584525,-0.067398645,-0.16524342,-0.16579433,-0.40168038,-0.1561853,0.09511961,0.12720414,0.102670625,0.38208658,-0.018837517,0.06605549,-0.052322112,-0.015614763,-0.03828239,-0.038410164,-0.09305828,-0.03618387,0.0220367,0.029469607,0.023785982,0.08851905,-0.004364615,0.07809064,0.0691419,0.013798925,0.013798925,-0.06695341,-0.054605387,0.7740726,-0.010927439,-0.04868754,-0.04646688,-1.573744,-0.0037440062,-0.0551317,-0.058638256,-0.0082942275,-0.0082942275,-0.026444767,-0.03642279,0.77703667,-0.007963359,-0.058679886,-0.066856615,-1.588951,-0.01895094,-0.031530265,-0.03011952,-0.007434694,-0.007434694,-0.022602746,-0.023759259,0.78885424,0.0038542151,0.029852858,0.02489671,-1.5639392,0.0060608387,0.019444335,0.018402416,0.004864949,0.004864949,0.12962854,0.12822211,0.80406064,0.019060612,0.004992778,0.013436073,-1.5706239,-0.0006238222
8,0.16,0.0,0.0,0.14,0.0,0.0,0.0,0.0,0.0,-1.0,0.0,0.0,0.2,0.013798925,-0.010927439,-0.0037440062,-0.0082942275,-0.007963359,-0.01895094,-0.007434694,0.0038542151,0.0060608387,0.004864949,0.019060612,-0.0006238222,0.21126509,-0.16721256,-0.07403818,-0.13729218,-0.11982136,-0.2731884,-0.10952275,0.03301938,0.08949273,0.07087868,0.31156382,0.00044467952,0.22671986,-0.17839763,-0.27481145,-0.26775232,-0.10405836,-0.095043756,-0.06723968,-0.26825112,0.057453193,0.033940814,0.56502515,0.11724745,0.0691419,-0.054605387,-0.04646688,-0.058638256,-0.03642279,-0.066856615,-0.03011952,-0.023759259,0.02489671,0.018402416,0.12822211,0.013436073,0.09798169,0.07212334,0.01852537,0.01852537,-0.07001258,-0.058045067,0.7703165,-0.014683545,-0.069902815,-0.047568984,-1.5757921,-0.0057920218,-0.04442085,-0.057311792,-0.011554353,-0.011554353,-0.017089978,-0.03376639,0.7744746,-0.010525405,-0.031681255,-0.06394565,-1.5945582,-0.024558187,-0.038496107,-0.031111434,-0.009775499,-0.009775499,-0.016159704,-0.023760887,0.7889781,0.0039780736,0.058734726,0.026222741,-1.5620133,0.007986784,0.019094117,0.018333398,0.0063492996,0.0063492996,0.13740923,0.12919523,0.81143755,0.026437521,-0.01886936,0.011311138,-1.5704145,-0.0004144907
9,0.18,0.0,0.0,0.14,0.0,0.0,0.0,0.0,0.0,-1.0,0.0,0.0,0.2,0.01852537,-0.014683545,-0.0057920218,-0.011554353,-0.010525405,-0.024558187,-0.009775499,0.0039780736,0.007986784,0.0063492996,0.026437521,-0.0004144907,0.23632222,-0.18780406,-0.102401085,-0.16300625,-0.12810203,-0.28036392,-0.117040254,0.006192934,0.09629892,0.07421754,0.3688448,0.010469404,0.1624197,-0.1355215,-0.2366794,-0.19212155,-0.037673604,0.021548688,-0.033963364,-0.25683296,0.033843644,0.007969618,0.42613897,0.09188558,0.07212334,-0.058045067,-0.047568984,-0.057311792,-0.03376639,-0.06394565,-0.031111434,-0.023760887,0.026222741,0.018333398,0.12919523,0.011311138,0.09997691,0.07513614,0.023624858,0.023624858,-0.07427455,-0.06223271,0.76622236,-0.018777668,-0.06991007,-0.048306353,-1.5783253,-0.008325219,-0.044589397,-0.056119088,-0.015179638,-0.015179638,-0.012942493,-0.030382011,0.77189136,-0.013108671,-0.03135425,-0.061202057,-1.6000786,-0.03007853,-0.035766445,-0.031582072,-0.012191761,-0.012191761,-0.013407456,-0.023389393,0.78859425,0.0035942197,0.062238116,0.027892044,-1.5599929,0.010007143,0.021085154,0.018699195,0.007855442,0.007855442,0.13497512,0.12967888,0.81967443,0.034674406,-0.022635167,0.008474166,-1.5700668,-6.67572e-05
10,0.2,0.0,0.0,0.14,0.0,0.0,0.0,0.0,0.0,-1.0,0.0,0.0,0.2,0.023624858,-0.018777668,-0.008325219,-0.015179638,-0.013108671,-0.03007853,-0.012191761,0.0035942197,0.010007143,0.007855442,0.034674406,-6.67572e-05,0.25497442,-0.20470637,-0.12665898,-0.18126424,-0.12916191,-0.27601427,-0.1208131,-0.019193102,0.10101881,0.075307146,0.41184562,0.017388407,0.09560418,-0.09506597,-0.18991873,-0.11544639,0.03126339,0.12964723,0.0028181553,-0.23502569,0.012513208,-0.013747087,0.27671745,0.060166806,0.07513614,-0.06223271,-0.048306353,-0.056119088,-0.030382011,-0.061202057,-0.031582072,-0.023389393,0.027892044,0.018699195,0.12967888,0.008474166,0.10123035,0.07809064,0.028962826,0.028962826,-0.07829805,-0.06695341,0.7618626,-0.02313745,-0.069181256,-0.04868754,-1.5812443,-0.011244297,-0.045219753,-0.0551317,-0.019020017,-0.019020017,-0.009056736,-0.026444767,0.7694336,-0.015566409,-0.032031395,-0.058679886,-1.6052992,-0.035299182,-0.032224216,-0.031530265,-0.014601558,-0.014601558,-0.010222567,-0.022602746,0.7877529,0.0027529001,0.065495856,0.029852858,-1.5579162,0.012083888,0.023352534,0.019444335,0.009346014,0.009346014,0.1316878,0.12962854,0.828464,0.043463945,-0.02578499,0.004992778,-1.5696545,0.00034558773
11,0.22,0.0,0.0,0.14,0.0,0.0,0.0,0.0,0.0,-1.0,0.0,0.0,0.2,0.028962826,-0.02313745,-0.011244297,-0.019020017,-0.015566409,-0.035299182,-0.014601558,0.0027529001,0.012083888,0.009346014,0.043463945,0.00034558773,0.26689845,-0.21798952,-0.14595564,-0.19201896,-0.12288578,-0.26103175,-0.12048984,-0.042066436,0.103838734,0.07452855,0.43947712,0.020619977,0.027870655,-0.056433402,-0.1366131,-0.040723838,0.098947085,0.22586422,0.041627742,-0.20383556,-0.0064386367,-0.031245816,0.12186663,0.024102395,0.07809064,-0.06695341,-0.04868754,-0.0551317,-0.026444767,-0.058679886,-0.031530265,-0.022602746,0.029852858,0.019444335,0.12962854,0.004992778,0.101823546,0.09798169,0.034674793,0.034674793,-0.082005315,-0.07001258,0.75734097,-0.027659059,-0.067853905,-0.069902815,-1.5847762,-0.014776111,-0.046269905,-0.04442085,-0.02277047,-0.02277047,-0.005564183,-0.017089978,0.7673235,-0.017676532,-0.033611692,-0.031681255,-1.6096362,-0.039636135,-0.027987853,-0.038496107,-0.017039552,-0.017039552,-0.006783208,-0.016159704,0.786607,0.0016070008,0.0685818,0.058734726,-1.5553901,0.014609933,0.02582018,0.019094117,0.01076849,0.01076849,0.12778744,0.13740923,0.83762175,0.052621722,-0.028326904,-0.01886936,-1.5695757,0.00042438507
12,0.24,0.0,0.0,0.14,0.0,0.0,0.0,0.0,0.0,-1.0,0.0,0.0,0.2,0.034674793,-0.027659059,-0.014776111,-0.02277047,-0.017676532,-0.039636135,-0.017039552,0.0016070008,0.014609933,0.01076849,0.052621722,0.00042438507,0.28559837,-0.22608018,-0.1765893,-0.18752266,-0.10550721,-0.21684651,-0.12189975,-0.05729548,0.1263003,0.07112379,0.4578883,0.003940519,0.08625765,-0.0045155287,-0.23451075,0.10272205,0.19885841,0.489151,0.025613856,-0.1263415,0.17296816,-0.0551048,0.028381968,-0.15971562,0.09798169,-0.07001258,-0.069902815,-0.04442085,-0.017089978,-0.031681255,-0.038496107,-0.016159704,0.058734726,0.019094117,0.13740923,-0.01886936,0.10856074,0.09997691,0.0405912,0.0405912,-0.07674428,-0.07427455,0.7527422,-0.032257855,-0.06353062,-0.06991007,-1.5887771,-0.018777013,-0.04779285,-0.044589397,-0.026318176,-0.026318176,-0.00077727437,-0.012942493,0.76567745,-0.019322574,-0.049262293,-0.03135425,-1.6129895,-0.042989492,-0.018171556,-0.035766445,-0.019382644,-0.019382644,-0.008667257,-0.013407456,0.78525245,0.00025242567,0.08634222,0.062238116,-1.5524621,0.017537951,0.029630292,0.021085154,0.012112613,0.012112613,0.13366175,0.13497512,0.84679735,0.06179732,-0.025844915,-0.022635167,-1.5698766,0.00012350082
13,0.26,0.0,0.0,0.14,0.0,0.0,0.0,0.0,0.0,-1.0,0.0,0.0,0.2,0.0405912,-0.032257855,-0.018777013,-0.026318176,-0.019322574,-0.042989492,-0.019382644,0.00025242567,0.017537951,0.012112613,0.06179732,0.00012350082,0.2958203,-0.22994131,-0.20004609,-0.1773853,-0.082303345,-0.16766973,-0.11715463,-0.06772788,0.14639997,0.067206144,0.4587792,-0.0150437,0.002445972,0.03690002,-0.15882514,0.15306829,0.24677339,0.5208332,0.082568064,-0.07743462,0.14409852,-0.05872364,-0.13834612,-0.17553595,0.09997691,-0.07427455,-0.06991007,-0.044589397,-0.012942493,-0.03135425,-0.035766445,-0.013407456,0.062238116,0.021085154,0.13497512,-0.022635167,0.1071288,0.10123035,0.046532553,0.046532553,-0.07954226,-0.07829805,0.7481528,-0.036847234,-0.060811646,-0.069181256,-1.593084,-0.023083925,-0.049164463,-0.045219753,-0.02956983,-0.02956983,0.0022350736,-0.009056736,0.7645871,-0.020412922,-0.052301742,-0.032031395,-1.6153121,-0.045312047,-0.011920258,-0.032224216,-0.021503925,-0.021503925,-0.004444031,-0.010222567,0.783794,-0.0012060404,0.08798046,0.065495856,-1.5491937,0.020806313,0.03231757,0.023352534,0.013375566,0.013375566,0.12683623,0.1316878,0.85564363,0.070643604,-0.027305504,-0.02578499,-1.5705789,-0.0005788803
14,0.28,0.0,0.0,0.14,0.0,0.0,0.0,0.0,0.0,-1.0,0.0,0.0,0.2,0.046532553,-0.036847234,-0.023083925,-0.02956983,-0.020412922,-0.045312047,-0.021503925,-0.0012060404,0.020806313,0.013375566,0.070643604,-0.0005788803,0.29706764,-0.22947015,-0.21534553,-0.16258276,-0.05451741,-0.116128094,-0.10606404,-0.07292341,0.16341603,0.06314769,0.4423147,-0.03511709,-0.08321184,0.07790609,-0.07643406,0.19265065,0.28141195,0.5268064,0.13930109,-0.026022082,0.10935873,-0.058762632,-0.29795295,-0.17945912,0.10123035,-0.07829805,-0.069181256,-0.045219753,-0.009056736,-0.032031395,-0.032224216,-0.010222567,0.065495856,0.023352534,0.1316878,-0.02578499,0.10517407,0.101823546,0.05231697,0.05231697,-0.082053974,-0.082005315,0.7436599,-0.041340113,-0.05790992,-0.067853905,-1.5975225,-0.027522445,-0.05077405,-0.046269905,-0.032452986,-0.032452986,0.0047898404,-0.005564183,0.76411545,-0.020884573,-0.055436857,-0.033611692,-1.6166064,-0.046606302,-0.0053319186,-0.027987853,-0.023278821,-0.023278821,5.6736055e-05,-0.006783208,0.7823385,-0.0026615262,0.089000665,0.0685818,-1.5456573,0.024342775,0.0347926,0.02582018,0.014560477,0.014560477,0.119328,0.12778744,0.86383164,0.07883161,-0.028632654,-0.028326904,-1.5716809,-0.001680851
15,0.3,0.0,0.0,0.14,0.0,0.0,0.0,0.0,0.0,-1.0,0.0,0.0,0.2,0.05231697,-0.041340113,-0.027522445,-0.032452986,-0.020884573,-0.046606302,-0.023278821,-0.0026615262,0.024342775,0.014560477,0.07883161,-0.001680851,0.28922102,-0.22464527,-0.22192712,-0.14415781,-0.023582237,-0.06471184,-0.088744834,-0.07277417,0.17682058,0.05924554,0.40939918,-0.05509662,-0.16709368,0.11772235,0.0084912535,0.22116742,0.30143058,0.50916255,0.19293073,0.02470553,0.07075986,-0.05602895,-0.44370565,-0.17217398,0.101823546,-0.082005315,-0.067853905,-0.046269905,-0.005564183,-0.033611692,-0.027987853,-0.006783208,0.0685818,0.02582018,0.12778744,-0.028326904,0.102800585,0.10856074,0.057875,0.057875,-0.08416288,-0.07674428,0.73948663,-0.04551339,-0.055036716,-0.06353062,-1.6018748,-0.031874776,-0.05253568,-0.04779285,-0.034918174,-0.034918174,0.0068129636,-0.00077727437,0.76432323,-0.020676792,-0.0586225,-0.049262293,-1.6171327,-0.04713261,0.0013796836,-0.018171556,-0.024510795,-0.024510795,0.0047225114,-0.008667257,0.78090227,-0.0040977597,0.089649044,0.08634222,-1.5416951,0.028304935,0.036959898,0.029630292,0.015694292,0.015694292,0.111671664,0.13366175,0.8712262,0.086226165,-0.029800495,-0.025844915,-1.5730875,-0.0030874014
16,0.32,0.0,0.0,0.14,0.0,0.0,0.0,0.0,0.0,-1.0,0.0,0.0,0.2,0.057875,-0.04551339,-0.031874776,-0.034918174,-0.020676792,-0.04713261,-0.024510795,-0.0040977597,0.028304935,0.015694292,0.086226165,-0.0030874014,0.2779014,-0.20866428,-0.2176194,-0.123259425,0.010390395,-0.02631599,-0.061598726,-0.071810804,0.19810498,0.056690734,0.36972803,-0.07032827,-0.19646478,0.21859185,0.11056064,0.2379777,0.3194155,0.3731815,0.27759963,0.032131713,0.13880724,-0.042411707,-0.4951887,-0.12219594,0.10856074,-0.07674428,-0.06353062,-0.04779285,-0.00077727437,-0.049262293,-0.018171556,-0.008667257,0.08634222,0.029630292,0.13366175,-0.025844915,0.101764575,0.1071288,0.06301719,0.06301719,-0.081251256,-0.07954226,0.7357058,-0.049294233,-0.0532559,-0.060811646,-1.6059626,-0.03596258,-0.053324778,-0.049164463,-0.036929354,-0.036929354,0.007889431,0.0022350736,0.7652181,-0.019781947,-0.062554695,-0.052301742,-1.6169612,-0.04696119,0.009913966,-0.011920258,-0.02508755,-0.02508755,0.004859144,-0.004444031,0.7795979,-0.005402148,0.09251599,0.08798046,-1.5374292,0.03257084,0.03793759,0.03231757,0.01678628,0.01678628,0.11404037,0.12683623,0.87752116,0.09252113,-0.027287697,-0.027305504,-1.5747617,-0.004761696
17,0.34,0.0,0.0,0.14,0.0,0.0,0.0,0.0,0.0,-1.0,0.0,0.0,0.2,0.06301719,-0.049294233,-0.03596258,-0.036929354,-0.019781947,-0.04696119,-0.02508755,-0.005402148,0.03257084,0.01678628,0.09252113,-0.004761696,0.25710937,-0.18904346,-0.2043882,-0.100558944,0.044741787,0.008570667,-0.028837726,-0.06521905,0.21329623,0.054599386,0.3147487,-0.0837165,-0.2797993,0.24689123,0.19110134,0.24783345,0.31202072,0.32868052,0.3204576,0.08349186,0.07606254,-0.03733959,-0.62302303,-0.10039945,0.1071288,-0.07954226,-0.060811646,-0.049164463,0.0022350736,-0.052301742,-0.011920258,-0.004444031,0.08798046,0.03231757,0.12683623,-0.027305504,0.09831965,0.10517407,0.0675685,0.0675685,-0.08263602,-0.082053974,0.73237854,-0.052621484,-0.05097743,-0.05790992,-1.6096218,-0.03962171,-0.055124488,-0.05077405,-0.03847062,-0.03847062,0.009218868,0.0047898404,0.7667778,-0.018222213,-0.06534086,-0.055436857,-1.6161827,-0.046182632,0.015309975,-0.0053319186,-0.024917977,-0.024917977,0.0100628715,5.6736055e-05,0.7785325,-0.006467521,0.092283994,0.089000665,-1.5329949,0.037005186,0.039783273,0.0347926,0.017843189,0.017843189,0.10608005,0.119328,0.88245,0.09744996,-0.028101271,-0.028632654,-1.5766581,-0.0066580772
18,0.36,0.0,0.0,0.14,0.0,0.0,0.0,0.0,0.0,-1.0,0.0,0.0,0.2,0.0675685,-0.052621484,-0.03962171,-0.03847062,-0.018222213,-0.046182632,-0.024917977,-0.006467521,0.037005186,0.017843189,0.09744996,-0.0066580772,0.22756566,-0.16636373,-0.18295664,-0.07706327,0.07798767,0.038930554,0.008478705,-0.053269267,0.22171864,0.05284545,0.24643987,-0.09481807,-0.3534863,0.26869345,0.26214597,0.24786913,0.2908802,0.27596205,0.35179293,0.13056892,0.009063316,-0.033572957,-0.7277951,-0.075122856,0.10517407,-0.082053974,-0.05790992,-0.05077405,0.0047898404,-0.055436857,-0.0053319186,5.6736055e-05,0.089000665,0.0347926,0.119328,-0.028632654,0.09459185,0.102800585,0.07137487,0.07137487,-0.08348662,-0.08416288,0.7295549,-0.055445135,-0.04929723,-0.055036716,-1.6127106,-0.042710543,-0.056901913,-0.05253568,-0.039544333,-0.039544333,0.010147598,0.0068129636,0.7689517,-0.016048312,-0.0682051,-0.0586225,-1.6149031,-0.04490304,0.019968107,0.0013796836,-0.023937432,-0.023937432,0.015311405,0.0047225114,0.7778029,-0.0071971416,0.09192102,0.089649044,-1.528532,0.041468024,0.041502092,0.036959898,0.018867629,0.018867629,0.09877725,0.111671664,0.8858007,0.10080069,-0.028510114,-0.029800495,-1.5787234,-0.008723378
19,0.38,0.0,0.0,0.14,0.0,0.0,0.0,0.0,0.0,-1.0,0.0,0.0,0.2,0.07137487,-0.055445135,-0.042710543,-0.039544333,-0.016048312,-0.04490304,-0.023937432,-0.0071971416,0.041468024,0.018867629,0.10080069,-0.008723378,0.19031824,-0.14118144,-0.15444349,-0.05368566,0.10869417,0.06397816,0.049027275,-0.03647979,0.22314358,0.051221993,0.1675353,-0.10326458,-0.41475233,0.28441024,0.32029617,0.23926672,0.25692934,0.21747878,0.36952275,0.17117396,-0.05786848,-0.03181387,-0.8032053,-0.047196977,0.102800585,-0.08416288,-0.055036716,-0.05253568,0.0068129636,-0.0586225,0.0013796836,0.0047225114,0.089649044,0.036959898,0.111671664,-0.029800495,0.09063852,0.101764575,0.07433516,0.07433516,-0.083838046,-0.081251256,0.72734666,-0.057653368,-0.04823053,-0.0532559,-1.6151304,-0.045130372,-0.058568757,-0.053324778,-0.04015214,-0.04015214,0.010856155,0.007889431,0.7716567,-0.013343334,-0.071098424,-0.062554695,-1.6132514,-0.043251395,0.023783408,0.009913966,-0.022081293,-0.022081293,0.020384826,0.004859144,0.77741784,-0.0075821877,0.0915234,0.09251599,-1.524139,0.045861006,0.043109138,0.03793759,0.019844083,0.019844083,0.09237158,0.11404037,0.8875829,0.10258287,-0.028544335,-0.027287697,-1.580843,-0.010842919
20,0.4,0.0,0.0,0.14,0.0,0.0,0.0,0.0,0.0,-1.0,0.0,0.0,0.2,0.07433516,-0.057653368,-0.045130372,-0.04015214,-0.013343334,-0.043251395,-0.022081293,-0.0075821877,0.045861006,0.019844083,0.10258287,-0.010842919,0.1480142,-0.11041116,-0.120989084,-0.030390268,0.13524827,0.08258043,0.09280698,-0.019253103,0.21965031,0.04882276,0.08910973,-0.10597412,-0.44925302,0.32764935,0.35653412,0.23103115,0.20898433,0.15029533,0.38620892,0.16981427,-0.103473686,-0.038416,-0.7735578,0.008172,0.101764575,-0.081251256,-0.0532559,-0.053324778,0.007889431,-0.062554695,0.009913966,0.004859144,0.09251599,0.03793759,0.11404037,-0.027287697,0.088072434,0.09831965,0.076341815,0.076341815,-0.08302237,-0.08263602,0.7257716,-0.05922842,-0.049439482,-0.05097743,-1.6168007,-0.046800613,-0.059530076,-0.055124488,-0.040326677,-0.040326677,0.012969118,0.009218868,0.7748009,-0.01019913,-0.071882285,-0.06534086,-1.6113439,-0.04134381,0.02672416,0.015309975,-0.0193664,-0.0193664,0.024590919,0.0100628715,0.7774557,-0.0075443387,0.09420346,0.092283994,-1.5199567,0.050043344,0.04364967,0.039783273,0.020773238,0.020773238,0.089944154,0.10608005,0.8876906,0.10269058,-0.029537207,-0.028101271,-1.5829592,-0.012959123
21,0.42,0.0,0.0,0.14,0.0,0.0,0.0,0.0,0.0,-1.0,0.0,0.0,0.2,0.076341815,-0.05922842,-0.046800613,-0.040326677,-0.01019913,-0.04134381,-0.0193664,-0.0075443387,0.050043344,0.020773238,0.10269058,-0.012959123,0.10033296,-0.07875401,-0.08351301,-0.008726923,0.15721025,0.09538104,0.13574468,0.0018913038,0.20911735,0.046457708,0.005385697,-0.10580771,-0.48507828,0.32594374,0.38274658,0.2085944,0.15833144,0.09108435,0.36446986,0.20026627,-0.16698048,-0.037334472,-0.7971016,0.03544017,0.09831965,-0.08263602,-0.05097743,-0.055124488,0.009218868,-0.06534086,0.015309975,0.0100628715,0.092283994,0.039783273,0.10608005,-0.028101271,0.08338275,0.09459185,0.077318676,0.077318676,-0.08273172,-0.08348662,0.7248348,-0.060165226,-0.048993945,-0.04929723,-1.6176785,-0.04767847,-0.061169248,-0.056901913,-0.040112466,-0.040112466,0.013655823,0.010147598,0.7782766,-0.006723404,-0.07480981,-0.0682051,-1.6092999,-0.039299846,0.028622136,0.019968107,-0.015848037,-0.015848037,0.028858466,0.015311405,0.777978,-0.007022023,0.09321512,0.09192102,-1.5161141,0.053885937,0.045129206,0.041502092,0.021655224,0.021655224,0.08456074,0.09877725,0.8860873,0.10108727,-0.029089844,-0.028510114,-1.585011,-0.015010953
22,0.44,0.0,0.0,0.14,0.0,0.0,0.0,0.0,0.0,-1.0,0.0,0.0,0.2,0.077318676,-0.060165226,-0.04767847,-0.040112466,-0.006723404,-0.039299846,-0.015848037,-0.007022023,0.053885937,0.021655224,0.10108727,-0.015010953,0.04884289,-0.046840176,-0.043894242,0.010710577,0.1737864,0.10219798,0.17591816,0.026116768,0.192129,0.044099316,-0.08016668,-0.1025908,-0.5047855,0.3181703,0.39042398,0.18122885,0.101861835,0.032057595,0.32535437,0.22178487,-0.22287075,-0.03651651,-0.78709465,0.0633899,0.09459185,-0.08348662,-0.04929723,-0.056901913,0.010147598,-0.0682051,0.019968107,0.015311405,0.09192102,0.041502092,0.09877725,-0.028510114,0.07868317,0.09063852,0.07722271,0.07722271,-0.082026206,-0.083838046,0.72452873,-0.060471296,-0.0488498,-0.04823053,-1.6177585,-0.04775846,-0.06277396,-0.058568757,-0.039562467,-0.039562467,0.014310267,0.010856155,0.7819674,-0.0030326247,-0.07762131,-0.071098424,-1.6072382,-0.03723812,0.029559225,0.023783408,-0.01161792,-0.01161792,0.03236039,0.020384826,0.7790251,-0.0059749484,0.09207915,0.0915234,-1.5127237,0.05727637,0.04632968,0.043109138,0.02248989,0.02248989,0.08026144,0.09237158,0.88280725,0.09780723,-0.028451188,-0.028544335,-1.5869366,-0.01693654
23,0.46,0.0,0.0,0.14,0.0,0.0,0.0,0.0,0.0,-1.0,0.0,0.0,0.2,0.07722271,-0.060471296,-0.04775846,-0.039562467,-0.0030326247,-0.03723812,-0.01161792,-0.0059749484,0.05727637,0.02248989,0.09780723,-0.01693654,-0.004798319,-0.01530429,-0.0039983056,0.027499987,0.18453945,0.103089176,0.21150583,0.052353997,0.16952378,0.041733302,-0.16400072,-0.09627928,-0.50805604,0.30448803,0.38029125,0.15069944,0.043101482,-0.024521273,0.27040106,0.23250048,-0.2689965,-0.035831798,-0.7439426,0.09076888,0.09063852,-0.083838046,-0.04823053,-0.058568757,0.010856155,-0.071098424,0.023783408,0.020384826,0.0915234,0.043109138,0.09237158,-0.028544335,0.074133046,0.088072434,0.07606958,0.07606958,-0.080944724,-0.08302237,0.7248447,-0.060155332,-0.048935406,-0.049439482,-1.6170973,-0.047097206,-0.064367235,-0.059530076,-0.03872645,-0.03872645,0.014835324,0.012969118,0.7857782,0.00077819824,-0.08019454,-0.071882285,-1.605238,-0.03523791,0.02945064,0.02672416,-0.00679995,-0.00679995,0.034961175,0.024590919,0.7806045,-0.0043955445,0.09081739,0.09420346,-1.5098283,0.060171723,0.047190383,0.04364967,0.023261542,0.023261542,0.0771673,0.089944154,0.8780005,0.09300047,-0.027663445,-0.029537207,-1.5886965,-0.018696427
24,0.48,0.0,0.0,0.14,0.0,0.0,0.0,0.0,0.0,-1.0,0.0,0.0,0.2,0.07606958,-0.060155332,-0.047097206,-0.03872645,0.00077819824,-0.03523791,-0.00679995,-0.0043955445,0.060171723,0.023261542,0.09300047,-0.018696427,-0.057656795,0.015797112,0.0330636,0.041800875,0.19053999,0.10000991,0.24089853,0.07896899,0.14476818,0.03858255,-0.24033695,-0.08799661,-0.48370537,0.29040793,0.34150806,0.122482136,-0.003968072,-0.0612564,0.20214319,0.22757196,-0.2815039,-0.04227858,-0.64828604,0.10684353,0.088072434,-0.08302237,-0.049439482,-0.059530076,0.012969118,-0.071882285,0.02672416,0.024590919,0.09420346,0.04364967,0.089944154,-0.029537207,0.07074047,0.08338275,0.073874,0.073874,-0.07888058,-0.08273172,0.7257461,-0.05925393,-0.049214847,-0.048993945,-1.6157458,-0.04574573,-0.06569326,-0.061169248,-0.037671693,-0.037671693,0.015474316,0.013655823,0.7895921,0.004592061,-0.08256457,-0.07480981,-1.6034071,-0.033407092,0.028282434,0.028622136,-0.0015473249,-0.0015473249,0.035880648,0.028858466,0.7827073,-0.0022927523,0.09150772,0.09321512,-1.5075117,0.062488317,0.048107263,0.045129206,0.023972308,0.023972308,0.07659386,0.08456074,0.87181103,0.086811006,-0.026699973,-0.029089844,-1.5902356,-0.020235538
25,0.5,0.0,0.0,0.14,0.0,0.0,0.0,0.0,0.0,-1.0,0.0,0.0,0.2,0.073874,-0.05925393,-0.04574573,-0.037671693,0.004592061,-0.033407092,-0.0015473249,-0.0022927523,0.062488317,0.023972308,0.086811006,-0.020235538,-0.10977908,0.04507041,0.067570895,0.05273775,0.1906925,0.09154224,0.26263124,0.10514015,0.115827195,0.03553832,-0.30947226,-0.07695444,-0.4600324,0.2636739,0.30619565,0.08702422,-0.059572972,-0.109735966,0.12241869,0.21498135,-0.31200486,-0.04029244,-0.5577539,0.1295264,0.08338275,-0.08273172,-0.048993945,-0.061169248,0.013655823,-0.07480981,0.028622136,0.028858466,0.09321512,0.045129206,0.08456074,-0.029089844,0.06664625,0.07868317,0.07068316,0.07068316,-0.07732726,-0.082026206,0.72718614,-0.057813883,-0.04955826,-0.0488498,-1.6137797,-0.04377961,-0.067441896,-0.06277396,-0.036468565,-0.036468565,0.0152028985,0.014310267,0.7932973,0.008297265,-0.08449911,-0.07762131,-1.6018407,-0.031840682,0.025938459,0.029559225,0.0039651305,0.0039651305,0.036795292,0.03236039,0.7852961,0.00029605627,0.089498505,0.09207915,-1.5058373,0.06416273,0.04819526,0.04632968,0.024621697,0.024621697,0.07567115,0.08026144,0.8644373,0.079437256,-0.025635472,-0.028451188,-1.5915054,-0.021505356
26,0.52,0.0,0.0,0.14,0.0,0.0,0.0,0.0,0.0,-1.0,0.0,0.0,0.2,0.07068316,-0.057813883,-0.04377961,-0.036468565,0.008297265,-0.031840682,0.0039651305,0.00029605627,0.06416273,0.024621697,0.079437256,-0.021505356,-0.159542,0.07200219,0.098305665,0.060156405,0.18525878,0.0783195,0.27562279,0.12943989,0.08371786,0.032469455,-0.3686871,-0.06349082,-0.42169422,0.2328111,0.2605224,0.051227182,-0.110903695,-0.1506786,0.035220314,0.18942663,-0.33182934,-0.039544433,-0.44456083,0.14822146,0.07868317,-0.082026206,-0.0488498,-0.06277396,0.014310267,-0.07762131,0.029559225,0.03236039,0.09207915,0.04632968,0.08026144,-0.028451188,0.06310691,0.074133046,0.06657613,0.06657613,-0.07545877,-0.080944724,0.7291091,-0.055890918,-0.050089575,-0.048935406,-1.6112939,-0.04129386,-0.0692606,-0.064367235,-0.035188474,-0.035188474,0.01441909,0.014835324,0.79678905,0.011789024,-0.085931055,-0.08019454,-1.6006169,-0.03061688,0.022673965,0.02945064,0.009546289,0.009546289,0.03667221,0.034961175,0.78830534,0.003305316,0.0873175,0.09081739,-1.5048468,0.06515324,0.04769248,0.047190383,0.025205769,0.025205769,0.07636393,0.0771673,0.85612494,0.07112491,-0.024511946,-0.027663445,-1.5924662,-0.022466183
27,0.54,0.0,0.0,0.14,0.0,0.0,0.0,0.0,0.0,-1.0,0.0,0.0,0.2,0.06657613,-0.055890918,-0.04129386,-0.035188474,0.011789024,-0.03061688,0.009546289,0.003305316,0.06515324,0.025205769,0.07112491,-0.022466183,-0.2053515,0.09614847,0.12428943,0.0640045,0.1745885,0.061193034,0.27905795,0.15046318,0.04952556,0.029203573,-0.41561854,-0.04803849,-0.36947796,0.19862224,0.20707373,0.01607545,-0.15723577,-0.18228224,-0.056664485,0.15157315,-0.34067503,-0.04037102,-0.31285113,0.16217041,0.074133046,-0.080944724,-0.048935406,-0.064367235,0.014835324,-0.08019454,0.02945064,0.034961175,0.09081739,0.047190383,0.0771673,-0.027663445,0.060268775,0.07074047,0.061675865,0.061675865,-0.07328819,-0.07888058,0.73146236,-0.053537667,-0.05083371,-0.049214847,-1.6083984,-0.038398385,-0.07114671,-0.06569326,-0.03389745,-0.03389745,0.013038006,0.015474316,0.7999766,0.014976561,-0.08680781,-0.08256457,-1.5997956,-0.029795527,0.018662348,0.028282434,0.014995428,0.014995428,0.03550418,0.035880648,0.7916325,0.0066324472,0.085040346,0.09150772,-1.5045266,0.06547344,0.04651848,0.048107263,0.025723768,0.025723768,0.078805454,0.07659386,0.8471777,0.062177658,-0.02336291,-0.026699973,-1.5930872,-0.023087144
28,0.56,0.0,0.0,0.14,0.0,0.0,0.0,0.0,0.0,-1.0,0.0,0.0,0.2,0.061675865,-0.053537667,-0.038398385,-0.03389745,0.014976561,-0.029795527,0.014995428,0.0066324472,0.06547344,0.025723768,0.062177658,-0.023087144,-0.24501336,0.11766207,0.14477326,0.06455123,0.1593761,0.041068718,0.27245694,0.16635606,0.016010236,0.025899975,-0.44736236,-0.03105069,-0.2983834,0.16672724,0.14826882,-0.015462515,-0.19551846,-0.20432265,-0.14989583,0.097748294,-0.32351872,-0.039672177,-0.15841034,0.17131948,0.07074047,-0.07888058,-0.049214847,-0.06569326,0.015474316,-0.08256457,0.028282434,0.035880648,0.09150772,0.048107263,0.07659386,-0.026699973,0.058673512,0.06664625,0.056113325,0.056113325,-0.07039057,-0.07732726,0.7341739,-0.050826132,-0.05180248,-0.04955826,-1.605212,-0.03521192,-0.0730093,-0.067441896,-0.032665327,-0.032665327,0.010883216,0.0152028985,0.8027687,0.017768681,-0.08733814,-0.08449911,-1.5994138,-0.0294137,0.014297254,0.025938459,0.020107271,0.020107271,0.03293991,0.036795292,0.7951697,0.010169685,0.08322394,0.089498505,-1.5048856,0.0651145,0.044630338,0.04819526,0.026163831,0.026163831,0.08395581,0.07567115,0.83789885,0.052898824,-0.022028094,-0.025635472,-1.5933485,-0.02334845
29,0.58,0.0,0.0,0.14,0.0,0.0,0.0,0.0,0.0,-1.0,0.0,0.0,0.2,0.056113325,-0.050826132,-0.03521192,-0.032665327,0.017768681,-0.0294137,0.020107271,0.010169685,0.0651145,0.026163831,0.052898824,-0.02334845,-0.27812707,0.13557744,0.15932548,0.061606064,0.1396071,0.01908883,0.25559217,0.17686254,-0.017948959,0.022003155,-0.46394154,-0.0130671095,-0.2255797,0.12681139,0.08726269,-0.047692962,-0.23247941,-0.21491818,-0.24200475,0.04321584,-0.31686932,-0.04406079,-0.009040857,0.17502491,0.06664625,-0.07732726,-0.04955826,-0.067441896,0.0152028985,-0.08449911,0.025938459,0.036795292,0.089498505,0.04819526,0.07567115,-0.025635472,0.057402886,0.06310691,0.050042994,0.050042994,-0.0679047,-0.07545877,0.73716897,-0.04783106,-0.053127892,-0.050089575,-1.6018595,-0.031859398,-0.07487038,-0.0692606,-0.03155769,-0.03155769,0.008182157,0.01441909,0.80508333,0.020083308,-0.08693952,-0.085931055,-1.5994847,-0.02948463,0.00944078,0.022673965,0.024682872,0.024682872,0.030093176,0.03667221,0.7987914,0.013791382,0.08093257,0.0873175,-1.5059131,0.064086914,0.04220658,0.04769248,0.026507728,0.026507728,0.08950466,0.07636393,0.82861304,0.043613017,-0.021052217,-0.024511946,-1.5932418,-0.023241758
30,0.6,0.0,0.0,0.14,0.0,0.0,0.0,0.0,0.0,-1.0,0.0,0.0,0.2,0.050042994,-0.04783106,-0.031859398,-0.03155769,0.020083308,-0.02948463,0.024682872,0.013791382,0.064086914,0.026507728,0.043613017,-0.023241758,-0.3035165,0.14975336,0.1676266,0.05538181,0.11573212,-0.0035485402,0.22878009,0.1810857,-0.051380735,0.017194852,-0.46429145,0.005334124,-0.14407438,0.086750135,0.02522028,-0.076852635,-0.26384634,-0.21392016,-0.32792428,-0.017827094,-0.3011605,-0.05118122,0.14524885,0.17310466,0.06310691,-0.07545877,-0.050089575,-0.0692606,0.01441909,-0.085931055,0.022673965,0.03667221,0.0873175,0.04769248,0.07636393,-0.024511946,0.057217084,0.060268775,0.043639105,0.043639105,-0.06545615,-0.07328819,0.74037224,-0.044627786,-0.054869793,-0.05083371,-1.5984684,-0.02846837,-0.07656543,-0.07114671,-0.030633938,-0.030633938,0.00486714,0.013038006,0.80684817,0.021848142,-0.08573722,-0.08680781,-1.5999975,-0.029997468,0.004298702,0.018662348,0.02853844,0.02853844,0.02648147,0.03550418,0.8023588,0.01735878,0.07908711,0.085040346,-1.5075796,0.062420487,0.039307043,0.04651848,0.026730478,0.026730478,0.09661638,0.078805454,0.8196568,0.034656763,-0.02023018,-0.02336291,-1.5927706,-0.022770524
31,0.62,0.0,0.0,0.14,0.0,0.0,0.0,0.0,0.0,-1.0,0.0,0.0,0.2,0.043639105,-0.044627786,-0.02846837,-0.030633938,0.021848142,-0.029997468,0.02853844,0.01735878,0.062420487,0.026730478,0.034656763,-0.022770524,-0.32019445,0.16016483,0.16955335,0.046187654,0.08824265,-0.025641888,0.19277838,0.17836858,-0.083318494,0.011137528,-0.44781336,0.02356393,-0.05597824,0.047656536,-0.035952367,-0.10212453,-0.2893873,-0.2016814,-0.40370545,-0.082890995,-0.2767459,-0.06110858,0.29984206,0.16564342,0.060268775,-0.07328819,-0.05083371,-0.07114671,0.013038006,-0.08680781,0.018662348,0.03550418,0.085040346,0.04651848,0.078805454,-0.02336291,0.058259778,0.058673512,0.037097737,0.037097737,-0.06333768,-0.07039057,0.7437172,-0.041282833,-0.05709055,-0.05180248,-1.5951648,-0.025164723,-0.077965945,-0.0730093,-0.029944235,-0.029944235,0.0010942034,0.010883216,0.8079998,0.022999763,-0.083622895,-0.08733814,-1.6009222,-0.030922174,-0.0010663569,0.014297254,0.031516753,0.031516753,0.022259105,0.03293991,0.8057194,0.02071935,0.077967055,0.08322394,-1.5098284,0.060171604,0.03618728,0.044630338,0.0268008,0.0268008,0.104974866,0.08395581,0.8113826,0.026382565,-0.019624194,-0.022028094,-1.5919466,-0.02194655
32,0.64,0.0,0.0,0.14,0.0,0.0,0.0,0.0,0.0,-1.0,0.0,0.0,0.2,0.037097737,-0.041282833,-0.025164723,-0.029944235,0.022999763,-0.030922174,0.031516753,0.02071935,0.060171604,0.0268008,0.026382565,-0.02194655,-0.32706848,0.16724858,0.16518316,0.03448513,0.05758006,-0.046234414,0.14891577,0.16802804,-0.1124461,0.0035161572,-0.4137089,0.041196004,0.039358545,0.013776374,-0.09437518,-0.12220918,-0.30972055,-0.18083367,-0.4643479,-0.15200433,-0.24073014,-0.073528185,0.4563795,0.15432112,0.058673512,-0.07039057,-0.05180248,-0.0730093,0.010883216,-0.08733814,0.014297254,0.03293991,0.08322394,0.044630338,0.08395581,-0.022028094,0.06092903,0.057402886,0.030614754,0.030614754,-0.061766796,-0.0679047,0.7471295,-0.037870526,-0.05992096,-0.053127892,-1.592071,-0.022071004,-0.07895668,-0.07487038,-0.029528728,-0.029528728,-0.0028741583,0.008182157,0.8084887,0.0234887,-0.08046131,-0.08693952,-1.6022022,-0.032202125,-0.0065916404,0.00944078,0.03348867,0.03348867,0.017471118,0.030093176,0.80873036,0.023730338,0.07796113,0.08093257,-1.5125955,0.057404518,0.033025566,0.04220658,0.026685286,0.026685286,0.11462412,0.08950466,0.80410993,0.019109905,-0.019256195,-0.021052217,-1.5907984,-0.020798326
33,0.66,0.0,0.0,0.14,0.0,0.0,0.0,0.0,0.0,-1.0,0.0,0.0,0.2,0.030614754,-0.037870526,-0.022071004,-0.029528728,0.0234887,-0.032202125,0.03348867,0.023730338,0.057404518,0.026685286,0.019109905,-0.020798326,-0.32414913,0.17061491,0.15468515,0.02077535,0.024447173,-0.06399887,0.0985958,0.15055023,-0.13835226,-0.005775666,-0.36363187,0.057408985,0.13146159,-0.02261672,-0.14923055,-0.13689104,-0.32258543,-0.14828315,-0.5095903,-0.21421497,-0.20183523,-0.0864241,0.59209424,0.13565174,0.057402886,-0.0679047,-0.053127892,-0.07487038,0.008182157,-0.08693952,0.00944078,0.030093176,0.08093257,0.04220658,0.08950466,-0.021052217,0.06452681,0.057217084,0.024391722,0.024391722,-0.06109395,-0.06545615,0.7505357,-0.0344643,-0.06297638,-0.054869793,-1.5893037,-0.01930368,-0.0792699,-0.07656543,-0.029414123,-0.029414123,-0.0069040693,0.00486714,0.80827945,0.023279428,-0.076530784,-0.08573722,-1.6037595,-0.033759475,-0.012123451,0.004298702,0.03435913,0.03435913,0.012873756,0.02648147,0.81125516,0.02625513,0.07850053,0.07908711,-1.5157958,0.054204226,0.030150544,0.039307043,0.026350532,0.026350532,0.123875715,0.09661638,0.7981353,0.013135254,-0.018999083,-0.02023018,-1.5893657,-0.019365668
34,0.68,0.0,0.0,0.14,0.0,0.0,0.0,0.0,0.0,-1.0,0.0,0.0,0.2,0.024391722,-0.0344643,-0.01930368,-0.029414123,0.023279428,-0.033759475,0.03435913,0.02625513,0.054204226,0.026350532,0.013135254,-0.019365668,-0.31115162,0.17031209,0.13836859,0.0057302043,-0.0104633495,-0.07786531,0.0435231,0.12623939,-0.16001226,-0.016737707,-0.29873303,0.071631625,0.22304492,-0.057376467,-0.19928455,-0.14476256,-0.3283016,-0.10681357,-0.5371181,-0.27134973,-0.15456533,-0.09878331,0.7121335,0.112192534,0.057217084,-0.06545615,-0.054869793,-0.07656543,0.00486714,-0.08573722,0.004298702,0.02648147,0.07908711,0.039307043,0.09661638,-0.02023018,0.06946129,0.058259778,0.018631462,0.018631462,-0.061153702,-0.06333768,0.7538611,-0.031138897,-0.06632477,-0.05709055,-1.5869704,-0.016970396,-0.07896446,-0.077965945,-0.029611452,-0.029611452,-0.010654334,0.0010942034,0.8073532,0.022353172,-0.071830876,-0.083622895,-1.6054966,-0.035496593,-0.017629951,-0.0010663569,0.034069516,0.034069516,0.008271406,0.022259105,0.81316966,0.028169632,0.07991243,0.077967055,-1.5193231,0.050676942,0.027621064,0.03618728,0.025768295,0.025768295,0.13300012,0.104974866,0.79371864,0.00871861,-0.018956853,-0.019624194,-1.587699,-0.017699003
35,0.7000000000000001,0.0,0.0,0.14,0.0,0.0,0.0,0.0,0.0,-1.0,0.0,0.0,0.2,0.018631462,-0.031138897,-0.016970396,-0.029611452,0.022353172,-0.035496593,0.034069516,0.028169632,0.050676942,0.025768295,0.00871861,-0.017699003,-0.28801298,0.16626921,0.116663635,-0.009866464,-0.04631189,-0.08685523,-0.014480751,0.095726505,-0.17636468,-0.029111847,-0.22083288,0.08333573,0.31198132,-0.091613725,-0.24352965,-0.1450111,-0.32574102,-0.057610363,-0.54640275,-0.32050443,-0.0989114,-0.10823856,0.8107176,0.08452232,0.058259778,-0.06333768,-0.05709055,-0.077965945,0.0010942034,-0.083622895,-0.0010663569,0.022259105,0.077967055,0.03618728,0.104974866,-0.019624194,0.07554756,0.06092903,0.0135378735,0.0135378735,-0.061874658,-0.061766796,0.7570284,-0.027971625,-0.06980138,-0.05992096,-1.5851696,-0.015169501,-0.078012854,-0.07895668,-0.030114654,-0.030114654,-0.013942357,-0.0028741583,0.805712,0.020711958,-0.066649966,-0.08046131,-1.6072984,-0.03729832,-0.02293384,-0.0065916404,0.03259869,0.03259869,0.0038725538,0.017471118,0.8143666,0.029366553,0.08205668,0.07796113,-1.5230483,0.04695177,0.025596414,0.033025566,0.024918994,0.024918994,0.14154842,0.11462412,0.7910778,0.0060777664,-0.01906955,-0.019256195,-1.5858574,-0.015857339
36,0.72,0.0,0.0,0.14,0.0,0.0,0.0,0.0,0.0,-1.0,0.0,0.0,0.2,0.0135378735,-0.027971625,-0.015169501,-0.030114654,0.020711958,-0.03729832,0.03259869,0.029366553,0.04695177,0.024918994,0.0060777664,-0.015857339,-0.25467944,0.1583646,0.090046264,-0.02516016,-0.08206068,-0.09008694,-0.07354125,0.05984563,-0.18626058,-0.042465076,-0.13204171,0.092082456,0.398166,-0.12577024,-0.28167933,-0.13723888,-0.31335407,-0.0018734932,-0.5375415,-0.36001906,-0.03440839,-0.11326684,0.8857697,0.053627275,0.06092903,-0.061766796,-0.05992096,-0.07895668,-0.0028741583,-0.08046131,-0.0065916404,0.017471118,0.07796113,0.033025566,0.11462412,-0.019256195,0.08265132,0.06452681,0.009298181,0.009298181,-0.063085444,-0.06109395,0.7599549,-0.025045097,-0.07329754,-0.06297638,-1.5839809,-0.0139808655,-0.07644795,-0.0792699,-0.030897347,-0.030897347,-0.01658928,-0.0069040693,0.8033796,0.018379569,-0.061363727,-0.076530784,-1.609041,-0.039040923,-0.02780046,-0.012123451,0.029964272,0.029964272,-0.00017460634,0.012873756,0.8147699,0.029769897,0.08494563,0.07850053,-1.5268337,0.0431664,0.024234213,0.030150544,0.023797158,0.023797158,0.14930214,0.123875715,0.7903565,0.0053564906,-0.019268623,-0.018999083,-1.5839044,-0.013904333
37,0.74,0.0,0.0,0.14,0.0,0.0,0.0,0.0,0.0,-1.0,0.0,0.0,0.2,0.009298181,-0.025045097,-0.0139808655,-0.030897347,0.018379569,-0.039040923,0.029964272,0.029769897,0.0431664,0.023797158,0.0053564906,-0.013904333,-0.21198462,0.14632583,0.059434064,-0.039134625,-0.11662008,-0.08712983,-0.13172084,0.02016588,-0.18926997,-0.056091778,-0.036063462,0.097650796,0.47343588,-0.16119277,-0.30983406,-0.12023433,-0.29099607,0.055974126,-0.51055557,-0.38341114,0.031976677,-0.111504294,0.92333376,0.021651134,0.06452681,-0.06109395,-0.06297638,-0.0792699,-0.0069040693,-0.076530784,-0.012123451,0.012873756,0.07850053,0.030150544,0.123875715,-0.018999083,0.08974367,0.06946129,0.0060843127,0.0060843127,-0.0647105,-0.061153702,0.7625581,-0.022441924,-0.07617254,-0.06632477,-1.5834655,-0.0134654045,-0.07434529,-0.07896446,-0.03191562,-0.03191562,-0.01835889,-0.010654334,0.8004052,0.015405178,-0.056590617,-0.071830876,-1.6105964,-0.040596366,-0.03176113,-0.017629951,0.02622064,0.02622064,-0.0033457074,0.008271406,0.8143328,0.029332757,0.087694004,0.07991243,-1.5305325,0.039467573,0.023545463,0.027621064,0.022411842,0.022411842,0.15508492,0.13300012,0.7916279,0.0066278577,-0.019450491,-0.018956853,-1.5819074,-0.011907339
38,0.76,0.0,0.0,0.14,0.0,0.0,0.0,0.0,0.0,-1.0,0.0,0.0,0.2,0.0060843127,-0.022441924,-0.0134654045,-0.03191562,0.015405178,-0.040596366,0.02622064,0.029332757,0.039467573,0.022411842,0.0066278577,-0.011907339,-0.16069344,0.13015877,0.025771976,-0.050913703,-0.14871985,-0.077772655,-0.18718159,-0.021857087,-0.18494278,-0.06926579,0.06356943,0.09984967,0.53868806,-0.1952378,-0.3280372,-0.09560888,-0.25735757,0.11378028,-0.4669791,-0.39222392,0.100289606,-0.10298805,0.92617065,-0.011062607,0.06946129,-0.061153702,-0.06632477,-0.07896446,-0.010654334,-0.071830876,-0.017629951,0.008271406,0.07991243,0.027621064,0.13300012,-0.018956853,0.09661476,0.07554756,0.0040452005,0.0040452005,-0.06635622,-0.061874658,0.76475924,-0.020240784,-0.07836602,-0.06980138,-1.5836617,-0.013661623,-0.07189813,-0.078012854,-0.033109885,-0.033109885,-0.019161839,-0.013942357,0.7968635,0.01186347,-0.052682184,-0.066649966,-1.6118414,-0.041841388,-0.034602426,-0.02293384,0.021458188,0.021458188,-0.0057529043,0.0038725538,0.8130408,0.028040767,0.09033139,0.08205668,-1.5339965,0.03600359,0.023508184,0.025596414,0.020788155,0.020788155,0.15904063,0.14154842,0.7948884,0.009888351,-0.01948726,-0.01906955,-1.5799344,-0.009934306
39,0.78,0.0,0.0,0.14,0.0,0.0,0.0,0.0,0.0,-1.0,0.0,0.0,0.2,0.0040452005,-0.020240784,-0.013661623,-0.033109885,0.01186347,-0.041841388,0.021458188,0.028040767,0.03600359,0.020788155,0.009888351,-0.009934306,-0.101955615,0.1100582,-0.0098130405,-0.059713308,-0.17708603,-0.06224977,-0.23812261,-0.064598635,-0.17319836,-0.08118431,0.1630251,0.09865338,0.5906351,-0.2261736,-0.33491817,-0.064488016,-0.2128114,0.16738777,-0.4077404,-0.38537282,0.16699584,-0.08724703,0.892661,-0.04293326,0.07554756,-0.061874658,-0.06980138,-0.078012854,-0.013942357,-0.066649966,-0.02293384,0.0038725538,0.08205668,0.025596414,0.14154842,-0.01906955,0.10273428,0.08265132,0.0033010186,0.0033010186,-0.06771738,-0.063085444,0.7664887,-0.018511355,-0.07964972,-0.07329754,-1.5845838,-0.014583707,-0.06925185,-0.07644795,-0.03440809,-0.03440809,-0.018944297,-0.01658928,0.79285383,0.007853806,-0.049938336,-0.061363727,-1.6126671,-0.04266703,-0.036019087,-0.02780046,0.015802389,0.015802389,-0.0073902775,-0.00017460634,0.8109133,0.025913298,0.09252443,0.08494563,-1.5370802,0.032919884,0.024043214,0.024234213,0.01896818,0.01896818,0.16092908,0.14930214,0.80005825,0.015058219,-0.019311352,-0.019268623,-1.5780504,-0.0080503225
40,0.8,0.0,0.0,0.14,0.0,0.0,0.0,0.0,0.0,-1.0,0.0,0.0,0.2,0.0033010186,-0.018511355,-0.014583707,-0.03440809,0.007853806,-0.04266703,0.015802389,0.025913298,0.032919884,0.01896818,0.015058219,-0.0080503225,-0.0372091,0.0864722,-0.046101794,-0.06491019,-0.20048471,-0.04128202,-0.28278995,-0.10637364,-0.15418763,-0.090998776,0.25849417,0.0942008,0.6269988,-0.25173792,-0.3299898,-0.028599078,-0.15813282,0.21240394,-0.33384693,-0.36282307,0.2299411,-0.06411779,0.8242384,-0.07244334,0.08265132,-0.063085444,-0.07329754,-0.07644795,-0.01658928,-0.061363727,-0.02780046,-0.00017460634,0.08494563,0.024234213,0.14930214,-0.019268623,0.10777695,0.08974367,0.003924312,0.003924312,-0.068551086,-0.0647105,0.76768863,-0.017311394,-0.079896376,-0.07617254,-1.5862118,-0.016211748,-0.06652661,-0.07434529,-0.035729848,-0.035729848,-0.01771735,-0.01835889,0.78849953,0.003499508,-0.04846456,-0.056590617,-1.6129916,-0.04299152,-0.035801027,-0.03176113,0.009415526,0.009415526,-0.0084587075,-0.0033457074,0.80800945,0.02300942,0.094114296,0.087694004,-1.5396601,0.030339956,0.025090083,0.023545463,0.01700895,0.01700895,0.16077127,0.15508492,0.8069691,0.02196908,-0.018884024,-0.019450491,-1.5763142,-0.0063141584
41,0.8200000000000001,0.0,0.0,0.14,0.0,0.0,0.0,0.0,0.0,-1.0,0.0,0.0,0.2,0.003924312,-0.017311394,-0.016211748,-0.035729848,0.003499508,-0.04299152,0.009415526,0.02300942,0.030339956,0.01700895,0.02196908,-0.0063141584,0.031164661,0.059998356,-0.08140084,-0.06608797,-0.21771371,-0.016223116,-0.31934318,-0.14519282,-0.12899493,-0.09796155,0.34554428,0.08681093,0.639578,-0.27070087,-0.30929235,0.009959224,-0.09400684,0.2432514,-0.24506584,-0.32232013,0.2806096,-0.034798708,0.71640235,-0.09798234,0.08974367,-0.0647105,-0.07617254,-0.07434529,-0.01835889,-0.056590617,-0.03176113,-0.0033457074,0.087694004,0.023545463,0.15508492,-0.019450491,0.11107643,0.09661476,0.005936699,0.005936699,-0.068961635,-0.06635622,0.76832086,-0.016679168,-0.07881717,-0.07836602,-1.5884935,-0.018493414,-0.063736096,-0.07189813,-0.036992535,-0.036992535,-0.015588604,-0.019161839,0.7839444,-0.0010555983,-0.04813362,-0.052682184,-1.612767,-0.04276693,-0.033913784,-0.034602426,0.00249307,0.00249307,-0.008855963,-0.0057529043,0.80442244,0.019422412,0.09456785,0.09033139,-1.5416366,0.028363466,0.026654966,0.023508184,0.014979525,0.014979525,0.15799832,0.15904063,0.8153761,0.030376077,-0.018237432,-0.01948726,-1.5747745,-0.0047744513
42,0.84,0.0,0.0,0.14,0.0,0.0,0.0,0.0,0.0,-1.0,0.0,0.0,0.2,0.005936699,-0.016679168,-0.018493414,-0.036992535,-0.0010555983,-0.04276693,0.00249307,0.019422412,0.028363466,0.014979525,0.030376077,-0.0047744513,0.100619346,0.031611726,-0.11408484,-0.06313432,-0.2277567,0.01122874,-0.3461228,-0.17935058,-0.098824054,-0.101471245,0.420349,0.076983325,0.6276213,-0.27978864,-0.2739913,0.04826266,-0.022526646,0.2571992,-0.14364715,-0.26710668,0.3182471,-0.0008713007,0.57613283,-0.11799759,0.09661476,-0.06635622,-0.07836602,-0.07189813,-0.019161839,-0.052682184,-0.034602426,-0.0057529043,0.09033139,0.023508184,0.15904063,-0.01948726,0.11273252,0.10273428,0.009302241,0.009302241,-0.06886596,-0.06771738,0.76837176,-0.016628265,-0.07649326,-0.07964972,-1.5913436,-0.021343589,-0.060974043,-0.06925185,-0.038116354,-0.038116354,-0.012757074,-0.018944297,0.7793477,-0.0056523085,-0.048840076,-0.049938336,-1.6119841,-0.04198408,-0.03044957,-0.036019087,-0.004739347,-0.004739347,-0.008788841,-0.0073902775,0.800275,0.0152750015,0.09414807,0.09252443,-1.5429415,0.027058601,0.02872216,0.024043214,0.012956917,0.012956917,0.15302154,0.16092908,0.82496554,0.03996551,-0.01746959,-0.019311352,-1.573468,-0.0034679174
43,0.86,0.0,0.0,0.14,0.0,0.0,0.0,0.0,0.0,-1.0,0.0,0.0,0.2,0.009302241,-0.016628265,-0.021343589,-0.038116354,-0.0056523085,-0.04198408,-0.004739347,0.0152750015,0.027058601,0.012956917,0.03996551,-0.0034679174,0.16827708,0.002543861,-0.14251089,-0.056191027,-0.22983532,0.039143637,-0.36162084,-0.20737112,-0.06524478,-0.10113035,0.47947308,0.065324135,0.5888999,-0.27695915,-0.22444463,0.08394238,0.053800486,0.25266594,-0.031512715,-0.19983655,0.339881,0.035600208,0.40824795,-0.13166681,0.10273428,-0.06771738,-0.07964972,-0.06925185,-0.018944297,-0.049938336,-0.036019087,-0.0073902775,0.09252443,0.024043214,0.16092908,-0.019311352,0.11279681,0.10777695,0.013926265,0.013926265,-0.068301015,-0.068551086,0.7678554,-0.01714462,-0.07309722,-0.079896376,-1.5946467,-0.02464664,-0.058322143,-0.06652661,-0.039028686,-0.039028686,-0.009516809,-0.01771735,0.77487826,-0.010121763,-0.05040417,-0.04846456,-1.6106724,-0.040672302,-0.025771137,-0.035801027,-0.0120313,-0.0120313,-0.008324999,-0.0084587075,0.79571086,0.010710835,0.093044996,0.094114296,-1.5435412,0.02645886,0.031301558,0.025090083,0.01102226,0.01102226,0.14618008,0.16077127,0.835369,0.050368965,-0.016688084,-0.018884024,-1.572418,-0.002417922
44,0.88,0.0,0.0,0.14,0.0,0.0,0.0,0.0,0.0,-1.0,0.0,0.0,0.2,0.013926265,-0.01714462,-0.02464664,-0.039028686,-0.010121763,-0.040672302,-0.0120313,0.010710835,0.02645886,0.01102226,0.050368965,-0.002417922,0.2312012,-0.025818959,-0.16515276,-0.045616593,-0.22347374,0.06558935,-0.36459768,-0.22820956,-0.029984862,-0.09673283,0.52017164,0.052499443,0.5237948,-0.2611851,-0.16224898,0.11505441,0.13194618,0.23024587,0.08839142,-0.124938466,0.3445651,0.072730914,0.22018075,-0.13863452,0.10777695,-0.068551086,-0.079896376,-0.06652661,-0.01771735,-0.04846456,-0.035801027,-0.0084587075,0.094114296,0.025090083,0.16077127,-0.018884024,0.11152017,0.11107643,0.01965067,0.01965067,-0.06735177,-0.068961635,0.76681006,-0.018189967,-0.06889675,-0.07881717,-1.598257,-0.028256893,-0.055809405,-0.063736096,-0.03966626,-0.03966626,-0.006189447,-0.015588604,0.7707067,-0.014293313,-0.052634455,-0.04813362,-1.6088948,-0.038894773,-0.020251572,-0.033913784,-0.019116275,-0.019116275,-0.007424088,-0.008855963,0.79089046,0.005890429,0.091520585,0.09456785,-1.5434445,0.026555538,0.03429996,0.026654966,0.009258104,0.009258104,0.13794257,0.15799832,0.8461684,0.061168373,-0.015964529,-0.018237432,-1.5716349,-0.0016348362
45,0.9,0.0,0.0,0.14,0.0,0.0,0.0,0.0,0.0,-1.0,0.0,0.0,0.2,0.01965067,-0.018189967,-0.028256893,-0.03966626,-0.014293313,-0.038894773,-0.019116275,0.005890429,0.026555538,0.009258104,0.061168373,-0.0016348362,0.28622025,-0.052265912,-0.1805142,-0.031878743,-0.20857614,0.08887868,-0.35424873,-0.24102117,0.0048344247,-0.08820783,0.53997135,0.039153263,0.4310906,-0.23452052,-0.08816964,0.14071079,0.20827195,0.19280812,0.2116745,-0.044583786,0.3292364,0.10921399,0.01530695,-0.13931808,0.11107643,-0.068961635,-0.07881717,-0.063736096,-0.015588604,-0.04813362,-0.033913784,-0.008855963,0.09456785,0.026654966,0.15799832,-0.018237432,0.10906639,0.11273252,0.026263753,0.026263753,-0.066396095,-0.06886596,0.76529723,-0.019702792,-0.06406786,-0.07649326,-1.6020064,-0.032006383,-0.05345961,-0.060974043,-0.03997822,-0.03997822,-0.0031199642,-0.012757074,0.76699704,-0.018002987,-0.055360876,-0.048840076,-1.606743,-0.036742926,-0.0142028555,-0.03044957,-0.025722474,-0.025722474,-0.005824387,-0.008788841,0.78598195,0.0009819269,0.0895104,0.09414807,-1.5426961,0.027303934,0.037524108,0.02872216,0.00774545,0.00774545,0.12835595,0.15302154,0.8569188,0.071918786,-0.015360607,-0.01746959,-1.5711182,-0.0011181831
46,0.92,0.0,0.0,0.14,0.0,0.0,0.0,0.0,0.0,-1.0,0.0,0.0,0.2,0.026263753,-0.019702792,-0.032006383,-0.03997822,-0.018002987,-0.036742926,-0.025722474,0.0009819269,0.027303934,0.00774545,0.071918786,-0.0011181831,0.33065417,-0.07564148,-0.18747208,-0.015598021,-0.18548368,0.10759434,-0.3303099,-0.24542585,0.03742237,-0.07563268,0.53752065,0.025835622,0.3163131,-0.1978627,-0.0061079385,0.1596582,0.27873313,0.14336927,0.33311796,0.036691498,0.29761115,0.14366642,-0.1952883,-0.13478403,0.11273252,-0.06886596,-0.07649326,-0.060974043,-0.012757074,-0.048840076,-0.03044957,-0.008788841,0.09414807,0.02872216,0.15302154,-0.01746959,0.106021896,0.11279681,0.03351049,0.03351049,-0.06560326,-0.068301015,0.7633977,-0.021602333,-0.059108496,-0.07309722,-1.6057137,-0.035713673,-0.051209997,-0.058322143,-0.039928436,-0.039928436,-0.0004739277,-0.009516809,0.7638967,-0.021103323,-0.058352567,-0.05040417,-1.6043293,-0.034329295,-0.007895589,-0.025771137,-0.031587582,-0.031587582,-0.0035873204,-0.008324999,0.7811542,-0.003845811,0.08741691,0.093044996,-1.5413702,0.028629899,0.04067987,0.031301558,0.0065613994,0.0065613994,0.11824447,0.14618008,0.8671692,0.082169175,-0.014860889,-0.016688084,-1.5708586,-0.0008585453
47,0.9400000000000001,0.0,0.0,0.14,0.0,0.0,0.0,0.0,0.0,-1.0,0.0,0.0,0.2,0.03351049,-0.021602333,-0.035713673,-0.039928436,-0.021103323,-0.034329295,-0.031587582,-0.003845811,0.028629899,0.0065613994,0.082169175,-0.0008585453,0.3623369,-0.09497571,-0.18536603,0.0024893172,-0.15501818,0.12068005,-0.29325536,-0.24138562,0.06630095,-0.05920252,0.5125186,0.012982449,0.1850382,-0.15328252,0.07932395,0.17103317,0.33902758,0.08569612,0.4458599,0.11562594,0.2531311,0.17503133,-0.40152583,-0.12625936,0.11279681,-0.068301015,-0.07309722,-0.058322143,-0.009516809,-0.05040417,-0.025771137,-0.008324999,0.093044996,0.031301558,0.14618008,-0.016688084,0.102686524,0.11152017,0.04110688,0.04110688,-0.06517693,-0.06735177,0.7612068,-0.02379322,-0.054397173,-0.06889675,-1.6091952,-0.03919518,-0.049115505,-0.055809405,-0.03949638,-0.03949638,0.0016795062,-0.006189447,0.76152766,-0.023472369,-0.06152802,-0.052634455,-1.60178,-0.031780005,-0.0015849248,-0.020251572,-0.036472656,-0.036472656,-0.000620084,-0.007424088,0.77657217,-0.008427858,0.085432515,0.091520585,-1.5395622,0.030437827,0.0434972,0.03429996,0.005775386,0.005775386,0.10813905,0.13794257,0.87648475,0.091484725,-0.014482109,-0.015964529,-1.5708399,-0.00083982944
48,0.96,0.0,0.0,0.14,0.0,0.0,0.0,0.0,0.0,-1.0,0.0,0.0,0.2,0.04110688,-0.02379322,-0.03919518,-0.03949638,-0.023472369,-0.031780005,-0.036472656,-0.008427858,0.030437827,0.005775386,0.091484725,-0.00083982944,0.37981942,-0.10954465,-0.17407328,0.021602824,-0.11845353,0.12746534,-0.24425372,-0.22910234,0.090394504,-0.039300665,0.46577603,0.00093539245,0.044541586,-0.103350684,0.16298535,0.17466545,0.38526893,0.023671579,0.54367673,0.19000398,0.1999619,0.20164382,-0.59310323,-0.11474649,0.11152017,-0.06735177,-0.06889675,-0.055809405,-0.006189447,-0.052634455,-0.020251572,-0.007424088,0.091520585,0.03429996,0.13794257,-0.015964529,0.09912953,0.10906639,0.04875309,0.04875309,-0.0648801,-0.066396095,0.7588245,-0.026175499,-0.05027733,-0.06406786,-1.6122735,-0.042273402,-0.04739261,-0.05345961,-0.038677398,-0.038677398,0.003036555,-0.0031199642,0.75997823,-0.025021791,-0.06515543,-0.055360876,-1.5992271,-0.029227018,0.0044984967,-0.0142028555,-0.040173598,-0.040173598,0.003121905,-0.005824387,0.77239573,-0.012604296,0.08364349,0.0895104,-1.5373865,0.032613516,0.04582851,0.037524108,0.005444247,0.005444247,0.09894793,0.12835595,0.8844607,0.09946066,-0.013958616,-0.015360607,-1.571041,-0.0010409355
49,0.98,0.0,0.0,0.14,0.0,0.0,0.0,0.0,0.0,-1.0,0.0,0.0,0.2,0.04875309,-0.026175499,-0.042273402,-0.038677398,-0.025021791,-0.029227018,-0.040173598,-0.012604296,0.032613516,0.005444247,0.09946066,-0.0010409355,0.38231057,-0.11911516,-0.1539116,0.040949203,-0.077471025,0.12765144,-0.18504708,-0.2088222,0.108782604,-0.016556963,0.39879644,-0.010056125,-0.09867362,-0.052803375,0.2407875,0.17068689,0.41412464,-0.039079778,0.62167823,0.25948426,0.13987598,0.2213634,-0.76392096,-0.10120173,0.10906639,-0.066396095,-0.06406786,-0.05345961,-0.0031199642,-0.055360876,-0.0142028555,-0.005824387,0.0895104,0.037524108,0.12835595,-0.015360607,0.09526235,0.106021896,0.05615324,0.05615324,-0.06474773,-0.06560326,0.7563493,-0.028650701,-0.04684431,-0.059108496,-1.6147908,-0.044790745,-0.046161573,-0.051209997,-0.037481047,-0.037481047,0.0036047958,-0.0004739277,0.7592994,-0.025700629,-0.06928344,-0.058352567,-1.5968001,-0.026800036,0.0101457685,-0.007895589,-0.042530265,-0.042530265,0.0075034928,-0.0035873204,0.76877403,-0.016225994,0.0818552,0.08741691,-1.5349647,0.03503537,0.047679953,0.04067987,0.0056063263,0.0056063263,0.090943314,0.11824447,0.890747,0.105746984,-0.013176611,-0.014860889,-1.5714365,-0.0014364719
50,1.0,0.0,0.0,0.14,0.0,0.0,0.0,0.0,0.0,-1.0,0.0,0.0,0.2,0.05615324,-0.028650701,-0.044790745,-0.037481047,-0.025700629,-0.026800036,-0.042530265,-0.016225994,0.03503537,0.0056063263,0.105746984,-0.0014364719,0.3700076,-0.12376121,-0.12586538,0.059817582,-0.033941787,0.12135012,-0.11783344,-0.18108411,0.12109536,0.0081039835,0.3143152,-0.019776516,-0.23528051,-0.0045342324,0.30671662,0.16010799,0.42438912,-0.09869424,0.6762363,0.32145903,0.07822147,0.23168573,-0.9031531,-0.08601514,0.106021896,-0.06560326,-0.059108496,-0.051209997,-0.0004739277,-0.058352567,-0.007895589,-0.0035873204,0.08741691,0.04067987,0.11824447,-0.014860889,0.09126744,0.102686524,0.06302947,0.06302947,-0.064792804,-0.06517693,0.75387186,-0.031128168,-0.044250324,-0.054397173,-1.6166193,-0.046619296,-0.045420665,-0.049115505,-0.03593097,-0.03593097,0.0038394295,0.0016795062,0.7595038,-0.025496244,-0.073592804,-0.06152802,-1.5946213,-0.024621248,0.015408114,-0.0015849248,-0.04343349,-0.04343349,0.012079829,-0.000620084,0.76584274,-0.01915729,0.080177076,0.085432515,-1.5324181,0.03758192,0.04894965,0.0434972,0.006276855,0.006276855,0.084506124,0.10813905,0.8950653,0.11006528,-0.012252023,-0.014482109,-1.571998,-0.0019979477
51,1.02,0.0,0.0,0.14,0.0,0.0,0.0,0.0,0.0,-1.0,0.0,0.0,0.2,0.06302947,-0.031128168,-0.046619296,-0.03593097,-0.025496244,-0.024621248,-0.04343349,-0.01915729,0.03758192,0.006276855,0.11006528,-0.0019979477,0.34381127,-0.1238736,-0.091424614,0.07750397,0.010219939,0.108940296,-0.045161292,-0.14656442,0.12733002,0.033526424,0.2159155,-0.028074952,-0.35888493,0.038571782,0.35644418,0.14321947,0.41626626,-0.15275392,0.7048371,0.37483785,0.018484497,0.2307847,-1.0038899,-0.06985153,0.102686524,-0.06517693,-0.054397173,-0.049115505,0.0016795062,-0.06152802,-0.0015849248,-0.000620084,0.085432515,0.0434972,0.10813905,-0.014482109,0.087138966,0.09912953,0.06913101,0.06913101,-0.06510043,-0.0648801,0.7514763,-0.03352374,-0.042426027,-0.05027733,-1.617669,-0.047668934,-0.04511107,-0.04739261,-0.034066886,-0.034066886,0.0041725226,0.003036555,0.7605624,-0.024437606,-0.07772059,-0.06515543,-1.5928061,-0.022806048,0.02023755,0.0044984967,-0.042829707,-0.042829707,0.016525257,0.003121905,0.763721,-0.021279037,0.078562334,0.08364349,-1.5298632,0.040136814,0.04967076,0.04582851,0.0074462537,0.0074462537,0.07951428,0.09894793,0.8972288,0.11222875,-0.011312773,-0.013958616,-1.5726908,-0.002690792
52,1.04,0.0,0.0,0.14,0.0,0.0,0.0,0.0,0.0,-1.0,0.0,0.0,0.2,0.06913101,-0.03352374,-0.047668934,-0.034066886,-0.024437606,-0.022806048,-0.042829707,-0.021279037,0.040136814,0.0074462537,0.11222875,-0.002690792,0.3050772,-0.11977895,-0.052484296,0.09320424,0.052932132,0.090762876,0.030189157,-0.10608706,0.1277472,0.058469944,0.10817359,-0.03464144,-0.46559852,0.07722823,0.38672724,0.11932717,0.38882762,-0.20172873,0.7061688,0.41848296,-0.03691513,0.21825305,-1.0581638,-0.051296145,0.09912953,-0.0648801,-0.05027733,-0.04739261,0.003036555,-0.06515543,0.0044984967,0.003121905,0.08364349,0.04582851,0.09894793,-0.013958616,0.08284975,0.09526235,0.07423948,0.07423948,-0.06577697,-0.06474773,0.7492373,-0.035762727,-0.04130792,-0.04684431,-1.6178902,-0.047890186,-0.04518598,-0.046161573,-0.03194445,-0.03194445,0.005091902,0.0036047958,0.76240784,-0.022592187,-0.08129551,-0.06928344,-1.5914603,-0.021460295,0.024477318,0.0101457685,-0.04072323,-0.04072323,0.020572994,0.0075034928,0.7625063,-0.02249372,0.07707681,0.0818552,-1.5274107,0.042589307,0.049977694,0.047679953,0.009081782,0.009081782,0.07569762,0.090943314,0.89714783,0.11214781,-0.01059722,-0.013176611,-1.5734738,-0.0034737587
53,1.06,0.0,0.0,0.14,0.0,0.0,0.0,0.0,0.0,-1.0,0.0,0.0,0.2,0.07423948,-0.035762727,-0.047890186,-0.03194445,-0.022592187,-0.021460295,-0.04072323,-0.02249372,0.042589307,0.009081782,0.11214781,-0.0034737587,0.2554236,-0.111950174,-0.011065181,0.106121786,0.09226951,0.067287624,0.10532384,-0.060733438,0.12262517,0.0817764,-0.004046425,-0.039145444,-0.5534447,0.11019719,0.39702162,0.08875772,0.34417838,-0.24454698,0.68007594,0.45029432,-0.08789912,0.19524291,-1.064795,-0.030260574,0.09526235,-0.06474773,-0.04684431,-0.046161573,0.0036047958,-0.06928344,0.0101457685,0.0075034928,0.0818552,0.047679953,0.090943314,-0.013176611,0.07840363,0.09126744,0.07817714,0.07817714,-0.06684186,-0.064792804,0.74721795,-0.037782073,-0.040789895,-0.044250324,-1.617276,-0.0472759,-0.04555395,-0.045420665,-0.029632645,-0.029632645,0.0066835247,0.0038394295,0.7649453,-0.020054698,-0.0840553,-0.073592804,-1.5906726,-0.02067256,0.027823038,0.015408114,-0.037172403,-0.037172403,0.023975166,0.012079829,0.76226544,-0.022734582,0.07569516,0.080177076,-1.5251609,0.044839144,0.050017454,0.04894965,0.011128111,0.011128111,0.07284279,0.084506124,0.89483434,0.10983431,-0.010276115,-0.012252023,-1.5743024,-0.0043023825
54,1.08,0.0,0.0,0.14,0.0,0.0,0.0,0.0,0.0,-1.0,0.0,0.0,0.2,0.07817714,-0.037782073,-0.0472759,-0.029632645,-0.020054698,-0.02067256,-0.037172403,-0.022734582,0.044839144,0.011128111,0.10983431,-0.0043023825,0.19688322,-0.100966506,0.030712176,0.11559028,0.12687503,0.039385393,0.17754132,-0.012042947,0.11249268,0.102316454,-0.11567567,-0.041431833,-0.61913633,0.1366544,0.38705632,0.05296185,0.28815264,-0.27767497,0.6292527,0.46641344,-0.13225609,0.16238922,-1.0234619,-0.008462703,0.09126744,-0.064792804,-0.044250324,-0.045420665,0.0038394295,-0.073592804,0.015408114,0.012079829,0.080177076,0.04894965,0.084506124,-0.012252023,0.07393727,0.087138966,0.08081047,0.08081047,-0.06816075,-0.06510043,0.745467,-0.03953302,-0.040740356,-0.042426027,-1.6158584,-0.045858383,-0.046098802,-0.04511107,-0.027209962,-0.027209962,0.008789789,0.0041725226,0.76806444,-0.016935587,-0.08586096,-0.07772059,-1.5905063,-0.020506263,0.029975295,0.02023755,-0.032285802,-0.032285802,0.026521653,0.016525257,0.76302856,-0.021971464,0.07461408,0.078562334,-1.5232013,0.046798706,0.049949866,0.04967076,0.013510756,0.013510756,0.07100552,0.07951428,0.89039403,0.105394006,-0.010423264,-0.011312773,-1.575133,-0.0051329136
55,1.1,0.0,0.0,0.14,0.0,0.0,0.0,0.0,0.0,-1.0,0.0,0.0,0.2,0.08081047,-0.03953302,-0.045858383,-0.027209962,-0.016935587,-0.020506263,-0.032285802,-0.021971464,0.046798706,0.013510756,0.105394006,-0.0051329136,0.13166681,-0.08754721,0.07087712,0.12113414,0.15595685,0.008315705,0.24433014,0.038154744,0.097975224,0.11913226,-0.22201538,-0.04152661,-0.66168916,0.15549846,0.3588867,0.013903749,0.22637148,-0.29782277,0.55630815,0.46466818,-0.16926883,0.121627845,-0.9391823,0.012388137,0.087138966,-0.06510043,-0.042426027,-0.04511107,0.0041725226,-0.07772059,0.02023755,0.016525257,0.078562334,0.04967076,0.07951428,-0.011312773,0.069538295,0.08284975,0.082051806,0.082051806,-0.06966337,-0.06577697,0.74401623,-0.040983796,-0.040920034,-0.04130792,-1.6137053,-0.043705225,-0.046897154,-0.04518598,-0.024760671,-0.024760671,0.011077058,0.005091902,0.771651,-0.013348997,-0.08676977,-0.08129551,-1.5909928,-0.020992756,0.03073208,0.024477318,-0.026218746,-0.026218746,0.028203689,0.020572994,0.76478577,-0.02021426,0.073740125,0.07707681,-1.5216042,0.048395872,0.04978946,0.049977694,0.016141567,0.016141567,0.0701175,0.07569762,0.8840143,0.09901428,-0.011014244,-0.01059722,-1.5759273,-0.005927205
56,1.12,0.0,0.0,0.14,0.0,0.0,0.0,0.0,0.0,-1.0,0.0,0.0,0.2,0.082051806,-0.040983796,-0.043705225,-0.024760671,-0.013348997,-0.020992756,-0.026218746,-0.02021426,0.048395872,0.016141567,0.09901428,-0.005927205,0.062066518,-0.07253858,0.10766034,0.12246459,0.17932947,-0.024326451,0.30335277,0.087859765,0.07986006,0.1315406,-0.3189869,-0.039715398,-0.6810642,0.16579446,0.31499,-0.026549393,0.16465446,-0.3023166,0.46364212,0.44408244,-0.19764869,0.07578618,-0.8191538,0.029915148,0.08284975,-0.06577697,-0.04130792,-0.04518598,0.005091902,-0.08129551,0.024477318,0.020572994,0.07707681,0.049977694,0.07569762,-0.01059722,0.065276876,0.07840363,0.08185987,0.08185987,-0.071246915,-0.06684186,0.74288,-0.04212004,-0.041146897,-0.040789895,-1.6109138,-0.0409137,-0.048041027,-0.04555395,-0.022370365,-0.022370365,0.01312783,0.0066835247,0.7755924,-0.0094076395,-0.086929165,-0.0840553,-1.5921282,-0.022128105,0.02996064,0.027823038,-0.019170875,-0.019170875,0.028997334,0.023975166,0.76748556,-0.017514467,0.07294352,0.07569516,-1.5204244,0.049575686,0.04952869,0.050017454,0.018924588,0.018924588,0.07019012,0.07284279,0.8759506,0.09095055,-0.011904409,-0.010276115,-1.5766566,-0.0066565275
57,1.1400000000000001,0.0,0.0,0.14,0.0,0.0,0.0,0.0,0.0,-1.0,0.0,0.0,0.2,0.08185987,-0.04212004,-0.0409137,-0.022370365,-0.0094076395,-0.022128105,-0.019170875,-0.017514467,0.049575686,0.018924588,0.09095055,-0.0066565275,-0.009596795,-0.05681105,0.13957381,0.11951528,0.19706817,-0.056765866,0.35239357,0.13498971,0.058989882,0.13915102,-0.40318614,-0.036466964,-0.6777305,0.16759142,0.25851357,-0.06626339,0.1054559,-0.29000887,0.35312155,0.40453768,-0.21714373,0.027770704,-0.67087305,0.04252929,0.07840363,-0.06684186,-0.040789895,-0.04555395,0.0066835247,-0.0840553,0.027823038,0.023975166,0.07569516,0.050017454,0.07284279,-0.010276115,0.061323516,0.07393727,0.08024101,0.08024101,-0.07279078,-0.06816075,0.74205786,-0.042942166,-0.041375346,-0.040740356,-1.6076045,-0.03760445,-0.049604397,-0.046098802,-0.020121302,-0.020121302,0.01457436,0.008789789,0.77977836,-0.005221665,-0.08643877,-0.08586096,-1.5938724,-0.023872375,0.027680904,0.029975295,-0.011382325,-0.011382325,0.028860204,0.026521653,0.7710352,-0.013964832,0.07206611,0.07461408,-1.5196961,0.050303936,0.048933707,0.049949866,0.02176207,0.02176207,0.0714284,0.07100552,0.8665157,0.08151567,-0.012936665,-0.010423264,-1.5773032,-0.0073031187
58,1.16,0.0,0.0,0.14,0.0,0.0,0.0,0.0,0.0,-1.0,0.0,0.0,0.2,0.08024101,-0.042942166,-0.03760445,-0.020121302,-0.005221665,-0.023872375,-0.011382325,-0.013964832,0.050303936,0.02176207,0.08151567,-0.0073031187,-0.080942936,-0.04110705,0.16546485,0.11245306,0.2092988,-0.08721138,0.3894275,0.17748071,0.036410525,0.14187402,-0.47174335,-0.03233172,-0.6518866,0.16234201,0.19301678,-0.1030761,0.04921546,-0.26132405,0.22720578,0.34687042,-0.22615585,-0.01953119,-0.50033534,0.04963029,0.07393727,-0.06816075,-0.040740356,-0.046098802,0.008789789,-0.08586096,0.029975295,0.026521653,0.07461408,0.049949866,0.07100552,-0.010423264,0.0579018,0.069538295,0.07724799,0.07724799,-0.07404684,-0.06966337,0.7415364,-0.043463647,-0.04166522,-0.040920034,-1.603912,-0.033911943,-0.051640164,-0.046897154,-0.018091166,-0.018091166,0.01512925,0.011077058,0.78409934,-0.0009006858,-0.085441075,-0.08676977,-1.5961539,-0.026153803,0.024001136,0.03073208,-0.0031272545,-0.0031272545,0.027761238,0.028203689,0.77530545,-0.009694576,0.07101967,0.073740125,-1.5194342,0.05056584,0.04775385,0.04978946,0.02455792,0.02455792,0.07412086,0.0701175,0.8560659,0.0710659,-0.013970261,-0.011014244,-1.57786,-0.007859945
59,1.18,0.0,0.0,0.14,0.0,0.0,0.0,0.0,0.0,-1.0,0.0,0.0,0.2,0.07724799,-0.043463647,-0.033911943,-0.018091166,-0.0009006858,-0.026153803,-0.0031272545,-0.009694576,0.05056584,0.02455792,0.0710659,-0.007859945,-0.14965077,-0.026074957,0.1846227,0.10150677,0.21605016,-0.11407086,0.41275352,0.21351339,0.013095897,0.13979258,-0.5224873,-0.027841523,-0.6048361,0.15114859,0.12291958,-0.13647196,-0.0049977424,-0.21866226,0.08951595,0.27398634,-0.22567943,-0.06450734,-0.314871,0.0515661,0.069538295,-0.06966337,-0.040920034,-0.046897154,0.011077058,-0.08676977,0.03073208,0.028203689,0.073740125,0.04978946,0.0701175,-0.011014244,0.05518412,0.065276876,0.072977126,0.072977126,-0.074893,-0.071246915,0.7412918,-0.043708205,-0.042197324,-0.041146897,-1.5999774,-0.029977322,-0.05415787,-0.048041027,-0.016352277,-0.016352277,0.014589813,0.01312783,0.78844315,0.003443122,-0.08406184,-0.086929165,-1.5988752,-0.028875113,0.019132674,0.02996064,0.0052945046,0.0052945046,0.025779305,0.028997334,0.7801364,-0.00486362,0.06980306,0.07294352,-1.5196364,0.05036366,0.045881346,0.04952869,0.027220584,0.027220584,0.0784916,0.07019012,0.84498763,0.059987605,-0.0148632135,-0.011904409,-1.5783279,-0.008327842
60,1.2,0.0,0.0,0.14,0.0,0.0,0.0,0.0,0.0,-1.0,0.0,0.0,0.2,0.072977126,-0.043708205,-0.029977322,-0.016352277,0.003443122,-0.028875113,0.0052945046,-0.00486362,0.05036366,0.027220584,0.059987605,-0.008327842,-0.2135435,-0.012226864,0.19673309,0.086944476,0.217191,-0.1360645,0.42108798,0.24154688,-0.0101094805,0.13313323,-0.55391634,-0.023397118,-0.5386473,0.13546982,0.05209465,-0.16616401,-0.05866302,-0.16539861,-0.05557095,0.18902288,-0.21721622,-0.105866455,-0.121322915,0.049708202,0.065276876,-0.071246915,-0.041146897,-0.048041027,0.01312783,-0.086929165,0.02996064,0.028997334,0.07294352,0.04952869,0.07019012,-0.011904409,0.05331106,0.061323516,0.06756571,0.06756571,-0.0752218,-0.07279078,0.74129355,-0.043706477,-0.043206207,-0.041375346,-1.5959421,-0.025942087,-0.057037856,-0.049604397,-0.01497073,-0.01497073,0.0128985755,0.01457436,0.7926928,0.0076927543,-0.082352705,-0.08643877,-1.6019194,-0.03191936,0.013310373,0.027680904,0.013568646,0.013568646,0.023042737,0.028860204,0.78534317,0.00034314394,0.06861333,0.07206611,-1.520287,0.049713016,0.043292973,0.048933707,0.029661996,0.029661996,0.084701166,0.0714284,0.8336865,0.048686445,-0.015606007,-0.012936665,-1.5787129,-0.008712888
61,1.22,0.0,0.0,0.14,0.0,0.0,0.0,0.0,0.0,-1.0,0.0,0.0,0.2,0.06756571,-0.043706477,-0.025942087,-0.01497073,0.0076927543,-0.03191936,0.013568646,0.00034314394,0.049713016,0.029661996,0.048686445,-0.008712888,-0.2705709,8.501392e-05,0.20175983,0.06907738,0.21248198,-0.15221202,0.4137071,0.2603395,-0.032533005,0.1220706,-0.56505793,-0.01925199,-0.45517778,0.11693518,-0.016809713,-0.19184218,-0.11272979,-0.10469347,-0.20250466,0.09522164,-0.20261319,-0.14415757,0.0749732,0.04553946,0.061323516,-0.07279078,-0.041375346,-0.049604397,0.01457436,-0.08643877,0.027680904,0.028860204,0.07206611,0.048933707,0.0714284,-0.012936665,0.052357897,0.0579018,0.06118919,0.06118919,-0.07501256,-0.07404684,0.741509,-0.043491006,-0.04495115,-0.04166522,-1.5919452,-0.021945119,-0.060059343,-0.051640164,-0.014005439,-0.014005439,0.009939667,0.01512925,0.7967258,0.011725783,-0.080343254,-0.085441075,-1.6051571,-0.035157084,0.006700173,0.024001136,0.021378903,0.021378903,0.019802753,0.027761238,0.79072285,0.0057228208,0.0679284,0.07101967,-1.5213597,0.04864037,0.040248208,0.04775385,0.031796217,0.031796217,0.09278019,0.07412086,0.8225783,0.037578285,-0.0162983,-0.013970261,-1.5790235,-0.009023428
62,1.24,0.0,0.0,0.14,0.0,0.0,0.0,0.0,0.0,-1.0,0.0,0.0,0.2,0.06118919,-0.043491006,-0.021945119,-0.014005439,0.011725783,-0.035157084,0.021378903,0.0057228208,0.04864037,0.031796217,0.037578285,-0.009023428,-0.31882605,0.010773645,0.19984692,0.04826455,0.20165284,-0.16188334,0.39051282,0.26898247,-0.05363146,0.10671096,-0.55540663,-0.015525069,-0.3563996,0.09809447,-0.082124084,-0.21316655,-0.16740528,-0.04007388,-0.3453098,-0.0039665936,-0.183273,-0.18006413,0.2694178,0.04037438,0.0579018,-0.07404684,-0.04166522,-0.051640164,0.01512925,-0.085441075,0.024001136,0.027761238,0.07101967,0.04775385,0.07412086,-0.013970261,0.052592456,0.05518412,0.054056387,0.054056387,-0.074399136,-0.074893,0.7419071,-0.043092906,-0.047614194,-0.042197324,-1.5881209,-0.018120885,-0.063077986,-0.05415787,-0.013506765,-0.013506765,0.0056836866,0.014589813,0.8004154,0.01541537,-0.07805375,-0.08406184,-1.6084529,-0.038452864,-0.0004619211,0.019132674,0.028420644,0.028420644,0.01612616,0.025779305,0.7960628,0.011062801,0.068251975,0.06980306,-1.5228183,0.047181726,0.03702533,0.045881346,0.03354035,0.03354035,0.1028228,0.0784916,0.81207895,0.027078927,-0.017068824,-0.0148632135,-1.5792675,-0.009267449
63,1.26,0.0,0.0,0.14,0.0,0.0,0.0,0.0,0.0,-1.0,0.0,0.0,0.2,0.054056387,-0.043092906,-0.018120885,-0.013506765,0.01541537,-0.038452864,0.028420644,0.011062801,0.047181726,0.03354035,0.027078927,-0.009267449,-0.35664016,0.019906174,0.19120899,0.024933727,0.18448077,-0.16478732,0.35208708,0.26700023,-0.07293208,0.08720654,-0.5249683,-0.012201933,-0.24510917,0.08038943,-0.14324816,-0.2296216,-0.22216801,0.025144588,-0.47771245,-0.10427095,-0.16001758,-0.2131981,0.4571539,0.035474136,0.05518412,-0.074893,-0.042197324,-0.05415787,0.014589813,-0.08406184,0.019132674,0.025779305,0.06980306,0.045881346,0.0784916,-0.0148632135,0.05432362,0.05331106,0.046403397,0.046403397,-0.07379361,-0.0752218,0.7424608,-0.04253924,-0.051337875,-0.043206207,-1.5845994,-0.014599323,-0.06576885,-0.057037856,-0.013513413,-0.013513413,0.00045459718,0.0128985755,0.80363363,0.018633604,-0.07536764,-0.082352705,-1.611671,-0.04167092,-0.007872254,0.013310373,0.034413803,0.034413803,0.012220785,0.023042737,0.8011505,0.016150475,0.069896154,0.06861333,-1.524616,0.04538405,0.03397652,0.043292973,0.03481667,0.03481667,0.114392444,0.084701166,0.80259323,0.017593205,-0.017905956,-0.015606007,-1.5794525,-0.009452462
64,1.28,0.0,0.0,0.14,0.0,0.0,0.0,0.0,0.0,-1.0,0.0,0.0,0.2,0.046403397,-0.04253924,-0.014599323,-0.013513413,0.018633604,-0.04167092,0.034413803,0.016150475,0.04538405,0.03481667,0.017593205,-0.009452462,-0.3826495,0.027682094,0.17607698,-0.00033241883,0.160911,-0.16090548,0.299658,0.2543839,-0.08988561,0.06381603,-0.47428524,-0.009248659,-0.124641106,0.06501256,-0.20009904,-0.23992205,-0.27540463,0.08836633,-0.59396684,-0.20125811,-0.13229565,-0.24263096,0.6332608,0.031016314,0.05331106,-0.0752218,-0.043206207,-0.057037856,0.0128985755,-0.082352705,0.013310373,0.023042737,0.06861333,0.043292973,0.084701166,-0.015606007,0.057870965,0.052357897,0.038485873,0.038485873,-0.07352773,-0.07501256,0.7431478,-0.041852236,-0.05603961,-0.04495115,-1.5815059,-0.011505842,-0.06793003,-0.060059343,-0.014048249,-0.014048249,-0.005092304,0.009939667,0.8062537,0.021253645,-0.07203769,-0.080343254,-1.6146802,-0.04468012,-0.015257373,0.006700173,0.03911327,0.03911327,0.008255946,0.019802753,0.8057838,0.020783782,0.07297955,0.0679284,-1.5266893,0.04331076,0.03125922,0.040248208,0.035559013,0.035559013,0.12666464,0.09278019,0.79450333,0.009503305,-0.01902373,-0.0162983,-1.5795865,-0.009586453
65,1.3,0.0,0.0,0.14,0.0,0.0,0.0,0.0,0.0,-1.0,0.0,0.0,0.2,0.038485873,-0.041852236,-0.011505842,-0.014048249,0.021253645,-0.04468012,0.03911327,0.020783782,0.04331076,0.035559013,0.009503305,-0.009586453,-0.39587614,0.03435072,0.15467109,-0.026741808,0.13100341,-0.15046133,0.23497316,0.23166618,-0.103663154,0.037117124,-0.40449592,-0.006700922,0.0010272742,0.052359898,-0.25285167,-0.24233183,-0.32604265,0.1473666,-0.68969744,-0.28995115,-0.09771409,-0.2655171,0.79243696,0.026347363,0.052357897,-0.07501256,-0.04495115,-0.060059343,0.009939667,-0.080343254,0.006700173,0.019802753,0.0679284,0.040248208,0.09278019,-0.0162983,0.063362926,0.052592456,0.030574158,0.030574158,-0.07369635,-0.074399136,0.74394935,-0.041050673,-0.061413415,-0.047614194,-1.5789608,-0.008960724,-0.06960246,-0.063077986,-0.015116047,-0.015116047,-0.0104567595,0.0056836866,0.80815357,0.023153543,-0.06820196,-0.07805375,-1.6173581,-0.047358036,-0.02241996,-0.0004619211,0.042318743,0.042318743,0.0043615494,0.01612616,0.8097784,0.024778366,0.077365264,0.068251975,-1.5289528,0.041047215,0.028956294,0.03702533,0.035718754,0.035718754,0.13898887,0.1028228,0.78815895,0.003158927,-0.020494474,-0.017068824,-1.5796802,-0.009680152
66,1.32,0.0,0.0,0.14,0.0,0.0,0.0,0.0,0.0,-1.0,0.0,0.0,0.2,0.030574158,-0.041050673,-0.008960724,-0.015116047,0.023153543,-0.047358036,0.042318743,0.024778366,0.041047215,0.035718754,0.003158927,-0.009680152,-0.39558578,0.04007747,0.1272556,-0.053389907,0.09499434,-0.13389304,0.16027375,0.19972974,-0.11317554,0.007987108,-0.31721818,-0.0046826405,0.12934601,0.041579116,-0.301169,-0.23607215,-0.3724846,0.20024538,-0.7609321,-0.36730948,-0.054150987,-0.27929097,0.9306485,0.020672848,0.052592456,-0.074399136,-0.047614194,-0.063077986,0.0056836866,-0.07805375,-0.0004619211,0.01612616,0.068251975,0.03702533,0.1028228,-0.017068824,0.0707455,0.05432362,0.022948833,0.022948833,-0.07431529,-0.07379361,0.7448437,-0.040156305,-0.06715132,-0.051337875,-1.5770776,-0.0070775747,-0.07090546,-0.06576885,-0.016699044,-0.016699044,-0.01533353,0.00045459718,0.80922484,0.024224818,-0.06409885,-0.07536764,-1.6195924,-0.049592376,-0.029138282,-0.007872254,0.04388379,0.04388379,0.00068449497,0.012220785,0.8129759,0.027975857,0.08284517,0.069896154,-1.5312984,0.038701653,0.027129862,0.03397652,0.035271134,0.035271134,0.15093757,0.114392444,0.783861,-0.0011390448,-0.022179654,-0.017905956,-1.5797459,-0.009745836
67,1.34,0.0,0.0,0.14,0.0,0.0,0.0,0.0,0.0,-1.0,0.0,0.0,0.2,0.022948833,-0.040156305,-0.0070775747,-0.016699044,0.024224818,-0.049592376,0.04388379,0.027975857,0.038701653,0.035271134,-0.0011390448,-0.009745836,-0.38126624,0.044719752,0.09415962,-0.07914982,0.053562585,-0.11171968,0.07825226,0.15987447,-0.117275335,-0.022381036,-0.21489763,-0.0032850257,0.25804076,0.029791802,-0.34454226,-0.2193912,-0.41074198,0.24639635,-0.8042448,-0.429785,-0.0014190197,-0.28133547,1.0408127,0.014328289,0.05432362,-0.07379361,-0.051337875,-0.06576885,0.00045459718,-0.07536764,-0.007872254,0.012220785,0.069896154,0.03397652,0.114392444,-0.017905956,0.07952613,0.057870965,0.015896346,0.015896346,-0.075286664,-0.07352773,0.7458019,-0.0391981,-0.07275509,-0.05603961,-1.5759587,-0.0059586763,-0.07196914,-0.06793003,-0.018755402,-0.018755402,-0.019478884,-0.005092304,0.80938584,0.02438581,-0.060123935,-0.07203769,-1.6212808,-0.051280737,-0.0349883,-0.015257373,0.043722183,0.043722183,-0.0025029387,0.008255946,0.81525034,0.03025031,0.08896238,0.07297955,-1.5335975,0.036402583,0.025789935,0.03125922,0.034217365,0.034217365,0.16178828,0.12666464,0.78184104,-0.0031589866,-0.023952654,-0.01902373,-1.5798008,-0.009800792
68,1.36,0.0,0.0,0.14,0.0,0.0,0.0,0.0,0.0,-1.0,0.0,0.0,0.2,0.015896346,-0.0391981,-0.0059586763,-0.018755402,0.02438581,-0.051280737,0.043722183,0.03025031,0.036402583,0.034217365,-0.0031589866,-0.009800792,-0.3526243,0.047911696,0.0559441,-0.10281788,0.008050941,-0.084416054,-0.008080304,0.11372414,-0.11495066,-0.052688424,-0.10099857,-0.0027463618,0.38493833,0.01499221,-0.3809498,-0.19194487,-0.43493652,0.28639823,-0.8175737,-0.47481936,0.0588696,-0.27105987,1.1143601,0.0059965937,0.057870965,-0.07352773,-0.05603961,-0.06793003,-0.005092304,-0.07203769,-0.015257373,0.008255946,0.07297955,0.03125922,0.12666464,-0.01902373,0.08898003,0.063362926,0.009701608,0.009701608,-0.07634632,-0.07369635,0.7467874,-0.038212597,-0.07776701,-0.061413415,-1.5756878,-0.0056877136,-0.07275732,-0.06960246,-0.021222409,-0.021222409,-0.022721138,-0.0104567595,0.8085911,0.023591101,-0.056763478,-0.06820196,-1.622335,-0.052334905,-0.039533675,-0.02241996,0.04181083,0.04181083,-0.0048903767,0.0043615494,0.8165129,0.031512856,0.09519615,0.077365264,-1.5357085,0.034291506,0.024998102,0.028956294,0.03258463,0.03258463,0.17086779,0.13898887,0.78224695,-0.002753079,-0.025534121,-0.020494474,-1.5798674,-0.0098673105
69,1.3800000000000001,0.0,0.0,0.14,0.0,0.0,0.0,0.0,0.0,-1.0,0.0,0.0,0.2,0.009701608,-0.038212597,-0.0056877136,-0.021222409,0.023591101,-0.052334905,0.04181083,0.031512856,0.034291506,0.03258463,-0.002753079,-0.0098673105,-0.3097369,0.049275972,0.013549957,-0.12335031,-0.03973434,-0.052707687,-0.09556775,0.063126646,-0.10555513,-0.08163675,0.020296812,-0.0033233457,0.50654614,-0.0028074265,-0.4070798,-0.15558597,-0.44124484,0.31809616,-0.80054915,-0.50087696,0.12303475,-0.24888535,1.1458117,-0.0044170474,0.063362926,-0.07369635,-0.061413415,-0.06960246,-0.0104567595,-0.06820196,-0.02241996,0.0043615494,0.077365264,0.028956294,0.13898887,-0.020494474,0.09835607,0.0707455,0.004638083,0.004638083,-0.07716917,-0.07431529,0.74775743,-0.03724259,-0.08193534,-0.06715132,-1.5763227,-0.0063226223,-0.07317074,-0.07090546,-0.024021436,-0.024021436,-0.024865795,-0.01533353,0.80683595,0.021835923,-0.054236524,-0.06409885,-1.6226872,-0.052687168,-0.04245628,-0.029138282,0.038190883,0.038190883,-0.006427437,0.00068449497,0.8167148,0.031714797,0.100997664,0.08284517,-1.537486,0.032514095,0.02469885,0.027129862,0.030424902,0.030424902,0.1777128,0.15093757,0.7851357,0.00013566017,-0.026645986,-0.022179654,-1.5799696,-0.009969592
70,1.4000000000000001,0.0,0.0,0.14,0.0,0.0,0.0,0.0,0.0,-1.0,0.0,0.0,0.2,0.004638083,-0.03724259,-0.0063226223,-0.024021436,0.021835923,-0.052687168,0.038190883,0.031714797,0.032514095,0.030424902,0.00013566017,-0.009969592,-0.25317624,0.048500083,-0.031748246,-0.1399513,-0.08776021,-0.017615523,-0.18099731,0.0100973435,-0.08886762,-0.10798643,0.14443694,-0.0051131644,0.61834276,-0.022891056,-0.42017442,-0.112925075,-0.42816296,0.33901176,-0.75366175,-0.5070094,0.18696997,-0.21576634,1.1331114,-0.015366773,0.0707455,-0.07431529,-0.06715132,-0.07090546,-0.01533353,-0.06409885,-0.029138282,0.00068449497,0.08284517,0.027129862,0.15093757,-0.022179654,0.10701711,0.07952613,0.00095173344,0.00095173344,-0.0774524,-0.075286664,0.7486661,-0.03633392,-0.0850305,-0.07275509,-1.5778877,-0.007887602,-0.07308124,-0.07196914,-0.02706333,-0.02706333,-0.025701154,-0.019478884,0.8041581,0.019158065,-0.052654468,-0.060123935,-1.6222979,-0.05229783,-0.043530904,-0.0349883,0.03297001,0.03297001,-0.007170992,-0.0025029387,0.81585175,0.030851722,0.10586447,0.08896238,-1.5387915,0.031208515,0.02483105,0.025789935,0.027812202,0.027812202,0.1819928,0.16178828,0.7904643,0.005464256,-0.027162312,-0.023952654,-1.580131,-0.0101310015
71,1.42,0.0,0.0,0.14,0.0,0.0,0.0,0.0,0.0,-1.0,0.0,0.0,0.2,0.00095173344,-0.03633392,-0.007887602,-0.02706333,0.019158065,-0.05229783,0.03297001,0.030851722,0.031208515,0.027812202,0.005464256,-0.0101310015,-0.18431747,0.045433924,-0.07824872,-0.15209475,-0.1338928,0.019465584,-0.2610435,-0.04315353,-0.065276936,-0.130635,0.2664287,-0.008068336,0.71314,-0.04366728,-0.41671482,-0.06669243,-0.39541396,0.34604114,-0.6769048,-0.4920741,0.24500075,-0.17335823,1.0736643,-0.02549159,0.07952613,-0.075286664,-0.07275509,-0.07196914,-0.019478884,-0.060123935,-0.0349883,-0.0025029387,0.08896238,0.025789935,0.16178828,-0.023952654,0.114302985,0.08898003,-0.0011570735,-0.0011570735,-0.07696712,-0.07634632,0.7494705,-0.035529554,-0.08686701,-0.07776701,-1.5803663,-0.010366201,-0.07235266,-0.07275732,-0.030251222,-0.030251222,-0.02510203,-0.022721138,0.80063754,0.015637517,-0.05193965,-0.056763478,-1.6211628,-0.05116272,-0.042665884,-0.039533675,0.026322605,0.026322605,-0.007270338,-0.0048903767,0.81396633,0.028966308,0.10938443,0.09519615,-1.5395074,0.030492663,0.025451291,0.024998102,0.024840117,0.024840117,0.18345176,0.17086779,0.79808545,0.013085425,-0.02709922,-0.025534121,-1.5803688,-0.010368705
72,1.44,0.0,0.0,0.14,0.0,0.0,0.0,0.0,0.0,-1.0,0.0,0.0,0.2,-0.0011570735,-0.035529554,-0.010366201,-0.030251222,0.015637517,-0.05116272,0.026322605,0.028966308,0.030492663,0.024840117,0.013085425,-0.010368705,-0.10544035,0.040219475,-0.123929635,-0.15939453,-0.17602801,0.056758106,-0.33237028,-0.09427087,-0.035789717,-0.14860429,0.3810587,-0.0118826395,0.78307354,-0.0624071,-0.39431113,-0.018341739,-0.34395564,0.33611718,-0.5712459,-0.45544806,0.29158223,-0.1231549,0.96704626,-0.032432627,0.08898003,-0.07634632,-0.07776701,-0.07275732,-0.022721138,-0.056763478,-0.039533675,-0.0048903767,0.09519615,0.024998102,0.17086779,-0.025534121,0.1196698,0.09835607,-0.0015497168,-0.0015497168,-0.075602986,-0.07716917,0.75013685,-0.034863174,-0.087276995,-0.08193534,-1.5837002,-0.013700128,-0.0710558,-0.07317074,-0.03348241,-0.03348241,-0.023003839,-0.024865795,0.79639477,0.011394739,-0.05193284,-0.054236524,-1.6193149,-0.049314857,-0.03992067,-0.04245628,0.018485947,0.018485947,-0.007070154,-0.006427437,0.8111454,0.026145399,0.111289725,0.100997664,-1.5395472,0.030452847,0.026577469,0.02469885,0.021616934,0.021616934,0.1818517,0.1777128,0.8077502,0.022750199,-0.026592305,-0.026645986,-1.5806891,-0.01068902
73,1.46,0.0,0.0,0.14,0.0,0.0,0.0,0.0,0.0,-1.0,0.0,0.0,0.2,-0.0015497168,-0.034863174,-0.013700128,-0.03348241,0.011394739,-0.049314857,0.018485947,0.026145399,0.030452847,0.021616934,0.022750199,-0.01068902,-0.01963216,0.03332044,-0.16669556,-0.16155945,-0.21213923,0.09239142,-0.39183295,-0.14104535,-0.0019903444,-0.16115917,0.48323932,-0.016015299,0.82146007,-0.07620288,-0.3529334,0.031132394,-0.27517217,0.30895072,-0.43950891,-0.39922297,0.32173112,-0.06770056,0.8160795,-0.03413522,0.09835607,-0.07716917,-0.08193534,-0.07317074,-0.024865795,-0.054236524,-0.04245628,-0.006427437,0.100997664,0.02469885,0.1777128,-0.026645986,0.1229199,0.10701711,-0.00016086339,-0.00016086339,-0.07338952,-0.0774524,0.75064635,-0.034353673,-0.086233936,-0.0850305,-1.5877895,-0.017789483,-0.06927925,-0.07308124,-0.0366499,-0.0366499,-0.019596364,-0.025701154,0.79158825,0.0065882206,-0.05247242,-0.052654468,-1.6168239,-0.04682386,-0.035509706,-0.043530904,0.009753076,0.009753076,-0.0067696422,-0.007170992,0.8075142,0.022514164,0.111684136,0.10586447,-1.5388657,0.031134367,0.028281786,0.02483105,0.018260464,0.018260464,0.17716067,0.1819928,0.81911564,0.034115613,-0.025867535,-0.027162312,-1.5810859,-0.011085868
74,1.48,0.0,0.0,0.14,0.0,0.0,0.0,0.0,0.0,-1.0,0.0,0.0,0.2,-0.00016086339,-0.034353673,-0.017789483,-0.0366499,0.0065882206,-0.04682386,0.009753076,0.022514164,0.031134367,0.018260464,0.034115613,-0.011085868,0.069442675,0.025473561,-0.20446503,-0.15837461,-0.2403248,0.12455201,-0.43664354,-0.18156254,0.034076236,-0.16782346,0.5682713,-0.019841952,0.8239893,-0.08269738,-0.2933802,0.080935806,-0.19085845,0.2656697,-0.28597462,-0.32681364,0.33172822,-0.009607303,0.6259567,-0.030003646,0.10701711,-0.0774524,-0.0850305,-0.07308124,-0.025701154,-0.052654468,-0.043530904,-0.007170992,0.10586447,0.02483105,0.1819928,-0.027162312,0.12412785,0.114302985,0.0029925427,0.0029925427,-0.07057936,-0.07696712,0.7509982,-0.034001827,-0.08382811,-0.08686701,-1.592495,-0.022494912,-0.067126185,-0.07235266,-0.039643865,-0.039643865,-0.015225686,-0.02510203,0.7864096,0.0014095902,-0.053405114,-0.05193965,-1.6137902,-0.043790102,-0.029736586,-0.042665884,0.00046209618,0.00046209618,-0.0064217914,-0.007270338,0.8032277,0.018227696,0.11090181,0.10938443,-1.5374644,0.032535672,0.030675143,0.025451291,0.014894704,0.014894704,0.16953306,0.18345176,0.8317563,0.046756268,-0.025092905,-0.02709922,-1.5815418,-0.011541724
75,1.5,0.0,0.0,0.14,0.0,0.0,0.0,0.0,0.0,-1.0,0.0,0.0,0.2,0.0029925427,-0.034001827,-0.022494912,-0.039643865,0.0014095902,-0.043790102,0.00046209618,0.018227696,0.032535672,0.014894704,0.046756268,-0.011541724,0.1576703,0.017592065,-0.23527229,-0.14969817,-0.25893134,0.15169081,-0.464549,-0.21432334,0.070065066,-0.168288,0.6320342,-0.022791773,0.78770804,-0.080503754,-0.217382,0.13032962,-0.09390392,0.20927842,-0.11644609,-0.24264416,0.319473,0.049439065,0.4034968,-0.020729586,0.114302985,-0.07696712,-0.08686701,-0.07235266,-0.02510203,-0.05193965,-0.042665884,-0.007270338,0.10938443,0.025451291,0.18345176,-0.02709922,0.12350391,0.1196698,0.0078072334,0.0078072334,-0.067477554,-0.075602986,0.75121087,-0.033789158,-0.08027672,-0.087276995,-1.5976417,-0.027641654,-0.06475793,-0.0710558,-0.04235642,-0.04235642,-0.010317761,-0.023003839,0.7810767,-0.003923297,-0.054647006,-0.05193284,-1.6103376,-0.040337563,-0.023055732,-0.03992067,-0.009017852,-0.009017852,-0.0058470536,-0.007070154,0.7984592,0.013459146,0.10926947,0.111289725,-1.5353936,0.034606457,0.03371716,0.026577469,0.011645841,0.011645841,0.1592199,0.1818517,0.84517837,0.06017834,-0.024314133,-0.026592305,-1.582031,-0.012030959
76,1.52,0.0,0.0,0.14,0.0,0.0,0.0,0.0,0.0,-1.0,0.0,0.0,0.2,0.0078072334,-0.033789158,-0.027641654,-0.04235642,-0.003923297,-0.040337563,-0.009017852,0.013459146,0.034606457,0.011645841,0.06017834,-0.012030959,0.24073455,0.010632979,-0.25733837,-0.13562772,-0.26664317,0.17262419,-0.47399744,-0.23842764,0.10353653,-0.16244316,0.67110384,-0.02445923,0.71207535,-0.06951403,-0.12727983,0.17707019,0.012063801,0.14362642,0.06191901,-0.15269399,0.28484637,0.10750787,0.1564086,-0.008013076,0.1196698,-0.075602986,-0.087276995,-0.0710558,-0.023003839,-0.05193284,-0.03992067,-0.007070154,0.111289725,0.026577469,0.1818517,-0.026592305,0.12157628,0.1229199,0.014098076,0.014098076,-0.06424027,-0.07338952,0.75131994,-0.03368008,-0.076065,-0.086233936,-1.6030264,-0.033026338,-0.062360782,-0.06927925,-0.04468641,-0.04468641,-0.0054751746,-0.019596364,0.7758225,-0.009177506,-0.056265496,-0.05247242,-1.6066065,-0.03660643,-0.01605931,-0.035509706,-0.018303387,-0.018303387,-0.0048212297,-0.0067696422,0.79339004,0.008390009,0.10706284,0.111684136,-1.5327469,0.03725314,0.03723402,0.028281786,0.008639263,0.008639263,0.14696564,0.17716067,0.8588382,0.073838174,-0.023390165,-0.025867535,-1.5825247,-0.012524605
77,1.54,0.0,0.0,0.14,0.0,0.0,0.0,0.0,0.0,-1.0,0.0,0.0,0.2,0.014098076,-0.03368008,-0.033026338,-0.04468641,-0.009177506,-0.03660643,-0.018303387,0.008390009,0.03725314,0.008639263,0.073838174,-0.012524605,0.31454217,0.005452358,-0.2692319,-0.11649946,-0.2627108,0.18655519,-0.46427676,-0.25345662,0.13233665,-0.15032892,0.6829918,-0.024680704,0.6005189,-0.05096112,-0.026833486,0.21899827,0.121424794,0.07264648,0.24091491,-0.0616691,0.2312541,0.16319053,-0.10562172,0.0057943314,0.1229199,-0.07338952,-0.086233936,-0.06927925,-0.019596364,-0.05247242,-0.035509706,-0.0067696422,0.111684136,0.028281786,0.17716067,-0.025867535,0.11886078,0.12412785,0.021609284,0.021609284,-0.06094288,-0.07057936,0.75137204,-0.033627987,-0.07165518,-0.08382811,-1.6084262,-0.03842616,-0.059937786,-0.067126185,-0.046543956,-0.046543956,-0.0012253858,-0.015225686,0.77088106,-0.014118969,-0.058429345,-0.053405114,-1.602745,-0.032745004,-0.0089757815,-0.029736586,-0.027014721,-0.027014721,-0.0029893983,-0.0064217914,0.7882031,0.003203094,0.10453598,0.11090181,-1.5296502,0.04034984,0.040833745,0.030675143,0.0059973598,0.0059973598,0.13377506,0.16953306,0.8721647,0.0871647,-0.022054246,-0.025092905,-1.5829943,-0.012994289
78,1.56,0.0,0.0,0.14,0.0,0.0,0.0,0.0,0.0,-1.0,0.0,0.0,0.2,0.021609284,-0.033627987,-0.03842616,-0.046543956,-0.014118969,-0.032745004,-0.027014721,0.003203094,0.04034984,0.0059973598,0.0871647,-0.012994289,0.37556043,0.0026043428,-0.2699907,-0.09287718,-0.24707177,0.19307369,-0.43556678,-0.25934526,0.15483625,-0.13209517,0.66632754,-0.023481574,0.45949402,-0.027889658,0.07918824,0.25413242,0.22763419,0.00014284253,0.41212624,0.027048696,0.16419908,0.21549097,-0.37153485,0.018906696,0.12412785,-0.07057936,-0.08382811,-0.067126185,-0.015225686,-0.053405114,-0.029736586,-0.0064217914,0.11090181,0.030675143,0.16953306,-0.025092905,0.11553777,0.12350391,0.030029498,0.030029498,-0.05800248,-0.067477554,0.751418,-0.03358203,-0.06741763,-0.08027672,-1.6136109,-0.04361081,-0.05752245,-0.06475793,-0.047855344,-0.047855344,0.002277363,-0.010317761,0.7664734,-0.018526614,-0.06122262,-0.054647006,-1.5989032,-0.028903127,-0.0018371865,-0.023055732,-0.03479491,-0.03479491,-3.6053476e-05,-0.0058470536,0.7830795,-0.0019205213,0.1018216,0.10926947,-1.5262512,0.043748856,0.044168424,0.03371716,0.0038351105,0.0038351105,0.12032889,0.1592199,0.8845832,0.09958315,-0.020271836,-0.024314133,-1.5834137,-0.013413668
79,1.58,0.0,0.0,0.14,0.0,0.0,0.0,0.0,0.0,-1.0,0.0,0.0,0.2,0.030029498,-0.03358203,-0.04361081,-0.047855344,-0.018526614,-0.028903127,-0.03479491,-0.0019205213,0.043748856,0.0038351105,0.09958315,-0.013413668,0.42101067,0.0022968375,-0.2592307,-0.065569334,-0.22038208,0.19209443,-0.38900948,-0.2561806,0.1699502,-0.10811246,0.6209235,-0.020967964,0.29705396,-0.0036565822,0.18517451,0.28040674,0.32407445,-0.07077294,0.56677747,0.112041876,0.089198254,0.26243174,-0.63003325,0.030589342,0.12350391,-0.067477554,-0.08027672,-0.06475793,-0.010317761,-0.054647006,-0.023055732,-0.0058470536,0.10926947,0.03371716,0.1592199,-0.024314133,0.11157242,0.12157628,0.039012976,0.039012976,-0.05576846,-0.06424027,0.7515084,-0.03349161,-0.06353014,-0.076065,-1.6183578,-0.048357725,-0.055257585,-0.062360782,-0.048567563,-0.048567563,0.0045374148,-0.0054751746,0.7627914,-0.022208631,-0.06489942,-0.056265496,-1.5952288,-0.025228739,0.005159721,-0.01605931,-0.041329604,-0.041329604,0.0043414794,-0.0048212297,0.7781964,-0.006803632,0.099011004,0.10706284,-1.5227091,0.04729092,0.047255803,0.03723402,0.0022539943,0.0022539943,0.107256666,0.14696564,0.8955455,0.11054546,-0.018000161,-0.023390165,-1.5837572,-0.01375711
80,1.6,0.0,0.0,0.14,0.0,0.0,0.0,0.0,0.0,-1.0,0.0,0.0,0.2,0.039012976,-0.03349161,-0.048357725,-0.048567563,-0.022208631,-0.025228739,-0.041329604,-0.006803632,0.04729092,0.0022539943,0.11054546,-0.01375711,0.44917396,0.004521073,-0.23734392,-0.035610944,-0.18410052,0.18372224,-0.3267346,-0.24415569,0.17710477,-0.0790558,0.5481168,-0.017169742,0.12381563,0.01968351,0.28387505,0.29600024,0.40358704,-0.13832605,0.6961665,0.19236651,0.011295408,0.30133614,-0.86706066,0.04157819,0.12157628,-0.06424027,-0.076065,-0.062360782,-0.0054751746,-0.056265496,-0.01605931,-0.0048212297,0.10706284,0.03723402,0.14696564,-0.023390165,0.10713306,0.11886078,0.048200637,0.048200637,-0.053756602,-0.06094288,0.751691,-0.033309042,-0.060137726,-0.07165518,-1.6224663,-0.052466273,-0.053590033,-0.059937786,-0.048649013,-0.048649013,0.005212974,-0.0012253858,0.75998455,-0.025015473,-0.06973747,-0.058429345,-1.5918657,-0.021865606,0.011881366,-0.0089757815,-0.046358626,-0.046358626,0.009775497,-0.0029893983,0.7737273,-0.011272728,0.09623745,0.10453598,-1.5191848,0.050815225,0.049814854,0.040833745,0.0013331461,0.0013331461,0.09588401,0.13377506,0.90456265,0.119562626,-0.015366143,-0.022054246,-1.583996,-0.013996005
81,1.62,0.0,0.0,0.14,0.0,0.0,0.0,0.0,0.0,-1.0,0.0,0.0,0.2,0.048200637,-0.033309042,-0.052466273,-0.048649013,-0.025015473,-0.021865606,-0.046358626,-0.011272728,0.050815225,0.0013331461,0.119562626,-0.013996005,0.45938313,0.009127287,-0.20542859,-0.0040725246,-0.14034197,0.16815872,-0.25145113,-0.22345363,0.1762129,-0.04604241,0.45085832,-0.011943236,-0.050015498,0.04083793,0.3689325,0.30091816,0.46061572,-0.20166358,0.79565734,0.26817518,-0.064861596,0.32836083,-1.0682303,0.053474136,0.11886078,-0.06094288,-0.07165518,-0.059937786,-0.0012253858,-0.058429345,-0.0089757815,-0.0029893983,0.10453598,0.040833745,0.13377506,-0.022054246,0.10239742,0.11553777,0.0572351,0.0572351,-0.05210945,-0.05800248,0.75200224,-0.032997787,-0.05731669,-0.06741763,-1.6257693,-0.055769205,-0.052601334,-0.05752245,-0.04808998,-0.04808998,0.005069997,0.002277363,0.758155,-0.026845038,-0.07520389,-0.06122262,-1.5889505,-0.018950462,0.018467262,-0.0018371865,-0.049682118,-0.049682118,0.015608149,-3.6053476e-05,0.76984185,-0.015158176,0.09338032,0.1018216,-1.5158337,0.054166317,0.05149955,0.044168424,0.0011223746,0.0011223746,0.08662095,0.12032889,0.91122824,0.12622821,-0.012621185,-0.020271836,-1.5840994,-0.0140993595
82,1.6400000000000001,0.0,0.0,0.14,0.0,0.0,0.0,0.0,0.0,-1.0,0.0,0.0,0.2,0.0572351,-0.032997787,-0.055769205,-0.04808998,-0.026845038,-0.018950462,-0.049682118,-0.015158176,0.054166317,0.0011223746,0.12622821,-0.0140993595,0.45172316,0.0155634135,-0.16514522,0.02795156,-0.09147821,0.14575772,-0.16617453,-0.19427338,0.16755523,-0.010538582,0.33327833,-0.005169889,-0.21732101,0.05616311,0.43553892,0.29528433,0.49347872,-0.2594519,0.86330366,0.3393795,-0.1358654,0.3406587,-1.2236593,0.06600048,0.11553777,-0.05800248,-0.06741763,-0.05752245,0.002277363,-0.06122262,-0.0018371865,-3.6053476e-05,0.1018216,0.044168424,0.12032889,-0.020271836,0.09731661,0.11157242,0.065771475,0.065771475,-0.05112248,-0.05576846,0.75246155,-0.032538474,-0.05501228,-0.06353014,-1.6281389,-0.058138847,-0.052060958,-0.055257585,-0.046904143,-0.046904143,0.0048617683,0.0045374148,0.75734854,-0.027651489,-0.08062299,-0.06489942,-1.586613,-0.016613007,0.024914972,0.005159721,-0.051167052,-0.051167052,0.021432675,0.0043414794,0.76670516,-0.01829487,0.09034078,0.099011004,-1.5127994,0.05720067,0.05230451,0.047255803,0.0016423184,0.0016423184,0.079228334,0.107256666,0.9152373,0.13023728,-0.010061851,-0.018000161,-1.5840344,-0.01403439
