verayannn/SpotDMouse/P2-Terrain_Challenge/mp2/misc/openloop_cmd_0.15_0.0_0.0.csv
step,time,obs_0,obs_1,obs_2,obs_3,obs_4,obs_5,obs_6,obs_7,obs_8,obs_9,obs_10,obs_11,obs_12,obs_13,obs_14,obs_15,obs_16,obs_17,obs_18,obs_19,obs_20,obs_21,obs_22,obs_23,obs_24,obs_25,obs_26,obs_27,obs_28,obs_29,obs_30,obs_31,obs_32,obs_33,obs_34,obs_35,obs_36,obs_37,obs_38,obs_39,obs_40,obs_41,obs_42,obs_43,obs_44,obs_45,obs_46,obs_47,obs_48,obs_49,obs_50,obs_51,obs_52,obs_53,obs_54,obs_55,obs_56,obs_57,obs_58,obs_59,action_0,joint_pos_0,joint_pos_rel_0,action_1,joint_pos_1,joint_pos_rel_1,action_2,joint_pos_2,joint_pos_rel_2,action_3,joint_pos_3,joint_pos_rel_3,action_4,joint_pos_4,joint_pos_rel_4,action_5,joint_pos_5,joint_pos_rel_5,action_6,joint_pos_6,joint_pos_rel_6,action_7,joint_pos_7,joint_pos_rel_7,action_8,joint_pos_8,joint_pos_rel_8,action_9,joint_pos_9,joint_pos_rel_9,action_10,joint_pos_10,joint_pos_rel_10,action_11,joint_pos_11,joint_pos_rel_11
0,0.0,0.105000004,0.0,0.0,0.0,0.0,0.0,0.0,0.0,-1.0,0.15,0.0,0.0,0.0,0.0,0.0,0.0,0.0,0.0,0.0,0.0,0.0,0.0,0.0,0.0,0.0,0.0,0.0,0.0,0.0,0.0,0.0,0.0,0.0,0.0,0.0,0.0,0.0,0.0,0.0,0.0,0.0,0.0,0.0,0.0,0.0,0.0,0.0,0.0,0.0,0.0,0.0,0.0,0.0,0.0,0.0,0.0,0.0,0.0,0.0,0.0,0.07255194,0.0010157272,0.0010157272,0.017665993,0.7852473,0.00024729967,0.11067476,-1.5684506,0.0015494823,0.05460189,0.0007644264,0.0007644264,-0.09601737,0.78365576,-0.0013442636,-0.007105478,-1.5700995,-9.942055e-05,-0.03717425,-0.0005204395,-0.0005204395,0.099945866,0.78639925,0.001399219,0.032076426,-1.569551,0.0004490614,-0.010055706,-0.00014077987,-0.00014077987,0.14120053,0.7869768,0.001976788,0.048326716,-1.5693234,0.0006766319
1,0.02,0.105000004,0.0,0.0,0.0,0.0,0.0,0.0,0.0,-1.0,0.15,0.0,0.0,0.0010157272,0.00024729967,0.0015494823,0.0007644264,-0.0013442636,-9.942055e-05,-0.0005204395,0.001399219,0.0004490614,-0.00014077987,0.001976788,0.0006766319,0.05078636,0.012366188,0.077472396,0.038221322,-0.06721215,-0.004973912,-0.026021976,0.06996213,0.022453452,-0.0070389938,0.09884038,0.03382871,0.4814547,0.1172318,0.7344379,0.36233816,-0.6371709,-0.047153495,-0.24668832,0.6632413,0.21285883,-0.06672967,0.93700707,0.32069537,0.07255194,0.017665993,0.11067476,0.05460189,-0.09601737,-0.007105478,-0.03717425,0.099945866,0.032076426,-0.010055706,0.14120053,0.048326716,0.07006501,0.0029595466,0.0029595466,0.020603962,0.78577024,0.0007702112,0.13274598,-1.5651232,0.004876852,0.079297915,0.0025992733,0.0025992733,-0.09424452,0.781062,-0.0039380193,-0.01919309,-1.5704625,-0.00046241283,-0.018449865,-0.0012721142,-0.0012721142,0.100497775,0.7891327,0.004132688,-0.010825214,-1.5692768,0.00072324276,0.018322691,-1.7721497e-05,-1.7721497e-05,0.16386324,0.7911449,0.0061448812,0.044607773,-1.5680575,0.0019425154
2,0.04,0.105000004,0.0,0.0,0.0,0.0,0.0,0.0,0.0,-1.0,0.15,0.0,0.0,0.0029595466,0.0007702112,0.004876852,0.0025992733,-0.0039380193,-0.00046241283,-0.0012721142,0.004132688,0.00072324276,-1.7721497e-05,0.0061448812,0.0019425154,0.097190976,0.026145991,0.16636595,0.09174235,-0.12968822,-0.01815057,-0.03758374,0.13667253,0.013708273,0.0061529186,0.20840502,0.06329505,0.42569557,0.12717012,0.82101804,0.49667746,-0.5734539,-0.1235223,-0.10231936,0.61282504,-0.08919148,0.12703022,1.0109975,0.26986912,0.07006501,0.020603962,0.13274598,0.079297915,-0.09424452,-0.01919309,-0.018449865,0.100497775,-0.010825214,0.018322691,0.16386324,0.044607773,0.07019134,0.005756526,0.005756526,0.022611521,0.7865756,0.0015755892,0.13589701,-1.5601097,0.009890318,0.08201012,0.005465446,0.005465446,-0.08812663,0.777407,-0.0075930357,-0.0017127031,-1.5708278,-0.0008277893,-0.024526428,-0.0023134996,-0.0023134996,0.10807702,0.79319793,0.008197904,-0.008057863,-1.5691423,0.00085771084,0.025569081,0.0004608468,0.0004608468,0.17385794,0.7974749,0.0124748945,0.046568584,-1.5662245,0.0037755966
3,0.06,0.105000004,0.0,0.0,0.0,0.0,0.0,0.0,0.0,-1.0,0.15,0.0,0.0,0.005756526,0.0015755892,0.009890318,0.005465446,-0.0075930357,-0.0008277893,-0.0023134996,0.008197904,0.00085771084,0.0004608468,0.0124748945,0.0037755966,0.13984896,0.040268242,0.2506734,0.14330864,-0.18275113,-0.018266538,-0.05206927,0.20326057,0.006726252,0.023928415,0.31650102,0.091654494,0.37718424,0.12655786,0.7526523,0.4631605,-0.46672383,0.003983426,-0.12679937,0.59298617,-0.07002708,0.1667889,0.9663967,0.251125,0.07019134,0.022611521,0.13589701,0.08201012,-0.08812663,-0.0017127031,-0.024526428,0.10807702,-0.008057863,0.025569081,0.17385794,0.046568584,0.070108905,0.0093067195,0.0093067195,0.018032998,0.78757,0.0025699735,0.13835782,-1.5535566,0.016443491,0.082013704,0.00925799,0.00925799,-0.080942795,0.7729191,-0.012080908,0.007253331,-1.5710597,-0.0010596514,-0.0243009,-0.0036053262,-0.0036053262,0.11199417,0.79850394,0.013503909,-0.006677863,-1.5691285,0.0008715391,0.029162124,0.0013232954,0.0013232954,0.17661145,0.8057763,0.020776272,0.045322787,-1.5639066,0.006093502
4,0.08,0.105000004,0.0,0.0,0.0,0.0,0.0,0.0,0.0,-1.0,0.15,0.0,0.0,0.0093067195,0.0025699735,0.016443491,0.00925799,-0.012080908,-0.0010596514,-0.0036053262,0.013503909,0.0008715391,0.0013232954,0.020776272,0.006093502,0.17750968,0.0497191,0.32766134,0.1896272,-0.22439477,-0.01159185,-0.06459133,0.26530117,0.0006895205,0.043122433,0.41506815,0.11589498,0.31786594,0.07831898,0.65965754,0.39897352,-0.34361178,0.068391025,-0.104129806,0.53123206,-0.059112094,0.17525934,0.8457958,0.20413645,0.070108905,0.018032998,0.13835782,0.082013704,-0.080942795,0.007253331,-0.0243009,0.11199417,-0.006677863,0.029162124,0.17661145,0.045322787,0.07370264,0.013542958,0.013542958,0.008321382,0.78858507,0.0035850406,0.13865915,-1.5456798,0.024320245,0.081488505,0.013841128,0.013841128,-0.07344198,0.767849,-0.017150998,0.016193245,-1.5710295,-0.0010294914,-0.020664733,-0.005054506,-0.005054506,0.11505533,0.8049153,0.019915283,-0.003423923,-1.5691874,0.0008126497,0.031689614,0.0025716475,0.0025716475,0.1782377,0.815792,0.030791998,0.043635625,-1.561204,0.008796096
5,0.1,0.105000004,0.0,0.0,0.0,0.0,0.0,0.0,0.0,-1.0,0.15,0.0,0.0,0.013542958,0.0035850406,0.024320245,0.013841128,-0.017150998,-0.0010294914,-0.005054506,0.019915283,0.0008126497,0.0025716475,0.030791998,0.008796096,0.21181189,0.05075286,0.39383805,0.22915691,-0.2535054,0.0015050722,-0.072459,0.3205672,-0.0029439332,0.06241761,0.5007861,0.13512751,0.27548224,-0.0041214237,0.5356101,0.3216461,-0.21313861,0.12740372,-0.056499887,0.44963712,-0.034638055,0.170844,0.6963872,0.1498733,0.07370264,0.008321382,0.13865915,0.081488505,-0.07344198,0.016193245,-0.020664733,0.11505533,-0.003423923,0.031689614,0.1782377,0.043635625,0.08072741,0.018428506,0.018428506,-0.0075432137,0.78936976,0.0043697357,0.13783437,-1.5367434,0.03325665,0.081520885,0.019068012,0.019068012,-0.06596735,0.7624573,-0.022542715,0.02489777,-1.5706228,-0.0006227493,-0.013757671,-0.006519987,-0.006519987,0.117991,0.812267,0.02726698,0.00057620066,-1.5692595,0.0007405281,0.034396127,0.004199579,0.004199579,0.17976408,0.8272219,0.042221844,0.04090915,-1.5582398,0.011760235
6,0.12,0.105000004,0.0,0.0,0.0,0.0,0.0,0.0,0.0,-1.0,0.15,0.0,0.0,0.018428506,0.0043697357,0.03325665,0.019068012,-0.022542715,-0.0006227493,-0.006519987,0.02726698,0.0007405281,0.004199579,0.042221844,0.011760235,0.24427745,0.03923549,0.4468216,0.2613442,-0.269587,0.020338707,-0.073274046,0.36758587,-0.0036076081,0.08139657,0.57149327,0.14820626,0.24846621,-0.123395264,0.39200988,0.24097142,-0.08147235,0.1781219,0.012561889,0.35597846,-0.0054677636,0.1624436,0.530084,0.08615057,0.08072741,-0.0075432137,0.13783437,0.081520885,-0.06596735,0.02489777,-0.013757671,0.117991,0.00057620066,0.034396127,0.17976408,0.04090915,0.090776905,0.02395168,0.02395168,-0.02966199,0.78959805,0.0045980215,0.13607308,-1.5270476,0.04295242,0.082460284,0.02478999,0.02478999,-0.059430175,0.7569941,-0.028005898,0.03328868,-1.5697423,0.00025773048,-0.0036175204,-0.007818382,-0.007818382,0.1213258,0.82037735,0.035377324,0.005408681,-1.5692749,0.0007251501,0.037774086,0.0061996887,0.0061996887,0.18142866,0.8397352,0.054735184,0.037065495,-1.5551572,0.014842868
7,0.14,0.105000004,0.0,0.0,0.0,0.0,0.0,0.0,0.0,-1.0,0.15,0.0,0.0,0.02395168,0.0045980215,0.04295242,0.02478999,-0.028005898,0.00025773048,-0.007818382,0.035377324,0.0007251501,0.0061996887,0.054735184,0.014842868,0.27615872,0.011412801,0.48478976,0.28609893,-0.2731582,0.044024527,-0.064919755,0.4055181,-0.0007716303,0.1000055,0.6256669,0.15413085,0.23383673,-0.27474546,0.23482838,0.16149838,0.041629683,0.21884692,0.09971546,0.25667408,0.027894437,0.15362164,0.35354805,0.014666987,0.090776905,-0.02966199,0.13607308,0.082460284,-0.059430175,0.03328868,-0.0036175204,0.1213258,0.005408681,0.037774086,0.18142866,0.037065495,0.10318352,0.03011622,0.03011622,-0.05785337,0.78888214,0.0038821101,0.13315344,-1.5169231,0.053076982,0.08443701,0.03086264,0.03086264,-0.054679953,0.75168073,-0.033319294,0.041240204,-1.5683128,0.0016872883,0.009677489,-0.008731216,-0.008731216,0.12495389,0.82905185,0.044051826,0.01087696,-1.569158,0.0008420944,0.04204361,0.008566815,0.008566815,0.18345305,0.852984,0.067983985,0.032256745,-1.5521126,0.017887473
8,0.16,0.105000004,0.0,0.0,0.0,0.0,0.0,0.0,0.0,-1.0,0.15,0.0,0.0,0.03011622,0.0038821101,0.053076982,0.03086264,-0.033319294,0.0016872883,-0.008731216,0.044051826,0.0008420944,0.008566815,0.067983985,0.017887473,0.30822703,-0.035795674,0.5062288,0.30363247,-0.26567012,0.07147527,-0.045641705,0.43372512,0.005845504,0.11835633,0.6624388,0.15223148,0.2266831,-0.45073193,0.0675014,0.08611033,0.14747103,0.2479054,0.20093346,0.15385747,0.062946014,0.14596434,0.17341048,-0.061162293,0.10318352,-0.05785337,0.13315344,0.08443701,-0.054679953,0.041240204,0.009677489,0.12495389,0.01087696,0.04204361,0.18345305,0.032256745,0.11651917,0.036920823,0.036920823,-0.09092652,0.78680176,0.0018017292,0.12891415,-1.5067228,0.063277245,0.087487556,0.03715022,0.03715022,-0.051427513,0.7467078,-0.03829223,0.04842767,-1.5662868,0.0037132502,0.0255914,-0.009019389,-0.009019389,0.12896052,0.8380902,0.053090155,0.01677792,-1.5688325,0.0011675358,0.047437668,0.011301387,0.011301387,0.18556951,0.8666092,0.08160919,0.026569342,-1.5492699,0.020730138
9,0.18,0.105000004,0.0,0.0,0.0,0.0,0.0,0.0,0.0,-1.0,0.15,0.0,0.0,0.036920823,0.0018017292,0.063277245,0.03715022,-0.03829223,0.0037132502,-0.009019389,0.053090155,0.0011675358,0.011301387,0.08160919,0.020730138,0.3402303,-0.1040201,0.51001143,0.3143789,-0.24864626,0.10129696,-0.014408624,0.4519155,0.016270872,0.1367286,0.68126136,0.14213403,0.21708739,-0.6367451,-0.10588535,0.016858887,0.23577392,0.2626963,0.3088693,0.051001538,0.09719543,0.14102939,-0.007044709,-0.13834853,0.11651917,-0.09092652,0.12891415,0.087487556,-0.051427513,0.04842767,0.0255914,0.12896052,0.01677792,0.047437668,0.18556951,0.026569342,0.12887767,0.044332623,0.044332623,-0.1271645,0.7829405,-0.0020595193,0.12347775,-1.4968104,0.073189616,0.091611564,0.04352925,0.04352925,-0.049122952,0.7422387,-0.042761326,0.054220837,-1.5636544,0.0063456297,0.04360048,-0.008437696,-0.008437696,0.13334091,0.8472918,0.0622918,0.022993391,-1.5682257,0.0017743111,0.054302827,0.01441413,0.01441413,0.1873586,0.8802454,0.09524536,0.019926839,-1.5467969,0.023203135
10,0.2,0.105000004,0.0,0.0,0.0,0.0,0.0,0.0,0.0,-1.0,0.15,0.0,0.0,0.044332623,-0.0020595193,0.073189616,0.04352925,-0.042761326,0.0063456297,-0.008437696,0.0622918,0.0017743111,0.01441413,0.09524536,0.023203135,0.37058997,-0.19306117,0.49561742,0.31895158,-0.22345568,0.13162193,0.029084662,0.460082,0.030341148,0.15563715,0.68180925,0.123649366,0.19254537,-0.8149835,-0.2792589,-0.044676926,0.30842742,0.25911832,0.41635078,-0.04911821,0.12883106,0.14096905,-0.18555896,-0.21503222,0.12887767,-0.1271645,0.12347775,0.091611564,-0.049122952,0.054220837,0.04360048,0.13334091,0.022993391,0.054302827,0.1873586,0.019926839,0.13839513,0.052262757,0.052262757,-0.16421054,0.7769307,-0.008069336,0.11702313,-1.4875469,0.08245313,0.09707079,0.049895357,0.049895357,-0.047125787,0.7384144,-0.04658562,0.058403723,-1.5604452,0.009554863,0.062820345,-0.0067542233,-0.0067542233,0.13787465,0.8564587,0.0714587,0.02920125,-1.5672743,0.0027257204,0.0626276,0.017925357,0.017925357,0.18873702,0.8935298,0.10852975,0.01279393,-1.5448538,0.025146246
11,0.22,0.105000004,0.0,0.0,0.0,0.0,0.0,0.0,0.0,-1.0,0.15,0.0,0.0,0.052262757,-0.008069336,0.08245313,0.049895357,-0.04658562,0.009554863,-0.0067542233,0.0714587,0.0027257204,0.017925357,0.10852975,0.025146246,0.39650673,-0.30049178,0.4631734,0.31830534,-0.19121496,0.16046172,0.08417364,0.4583437,0.04756981,0.17556138,0.66421825,0.09715321,0.14192571,-0.9643852,-0.44634286,-0.09543276,0.36820954,0.2365472,0.51409984,-0.14530203,0.15483204,0.14530346,-0.3576696,-0.2858061,0.13839513,-0.16421054,0.11702313,0.09707079,-0.047125787,0.058403723,0.062820345,0.13787465,0.02920125,0.0626276,0.18873702,0.01279393,0.14354129,0.06054879,0.06054879,-0.19982362,0.7684935,-0.016506553,0.11025011,-1.4792709,0.09072912,0.104286484,0.05617162,0.05617162,-0.044280954,0.73536634,-0.04963368,0.061133284,-1.5567247,0.013275385,0.081912376,-0.0037752625,-0.0037752625,0.14258522,0.86540097,0.080400944,0.03488938,-1.5659336,0.0040664673,0.072584674,0.021866592,0.021866592,0.18946265,0.906109,0.12110895,0.0060256515,-1.5435771,0.026422977
12,0.24,0.105000004,0.0,0.0,0.0,0.0,0.0,0.0,0.0,-1.0,0.15,0.0,0.0,0.06054879,-0.016506553,0.09072912,0.05617162,-0.04963368,0.013275385,-0.0037752625,0.080400944,0.0040664673,0.021866592,0.12110895,0.026422977,0.4143016,-0.42185944,0.41379786,0.31381306,-0.15240264,0.1860272,0.14894804,0.4471109,0.06703475,0.19706169,0.62895924,0.063834675,0.057673592,-1.0664274,-0.59776914,-0.1317124,0.42148113,0.19743177,0.5904928,-0.23482373,0.17120734,0.15466563,-0.52023685,-0.34306315,0.14354129,-0.19982362,0.11025011,0.104286484,-0.044280954,0.061133284,0.081912376,0.14258522,0.03488938,0.072584674,0.18946265,0.0060256515,0.142982,0.06894234,0.06894234,-0.23119459,0.75748426,-0.027515769,0.104137205,-1.4722761,0.09772396,0.11360259,0.06231488,0.06231488,-0.038769513,0.7332384,-0.051761627,0.06265571,-1.552588,0.017412066,0.09895893,0.00062333536,0.00062333536,0.14682844,0.87393296,0.08893293,0.03972218,-1.5641828,0.005817294,0.084062204,0.026277842,0.026277842,0.18931088,0.9176456,0.13264555,0.00047774613,-1.5430641,0.026935935
13,0.26,0.105000004,0.0,0.0,0.0,0.0,0.0,0.0,0.0,-1.0,0.15,0.0,0.0,0.06894234,-0.027515769,0.09772396,0.06231488,-0.051761627,0.017412066,0.00062333536,0.08893293,0.005817294,0.026277842,0.13264555,0.026935935,0.41967747,-0.5504619,0.34974197,0.3071631,-0.10639645,0.20683599,0.2199299,0.4265988,0.087538406,0.22056252,0.5768293,0.025644928,-0.06504129,-1.1010306,-0.72311324,-0.1509093,0.47881156,0.14518026,0.6312027,-0.31964585,0.17560409,0.16761065,-0.67030036,-0.37991333,0.142982,-0.23119459,0.104137205,0.11360259,-0.038769513,0.06265571,0.09895893,0.14682844,0.03972218,0.084062204,0.18931088,0.00047774613,0.13630563,0.07711233,0.07711233,-0.25553384,0.7439322,-0.04106784,0.09975026,-1.4667889,0.103211164,0.12490581,0.06831457,0.06831457,-0.02940058,0.73219925,-0.052800775,0.063238695,-1.5481527,0.021847367,0.11207711,0.0064679934,0.0064679934,0.15040635,0.88187575,0.09687573,0.043327786,-1.5620303,0.007969737,0.096465826,0.031197965,0.031197965,0.18802696,0.9278236,0.14282358,-0.002962513,-1.5433592,0.026640892
14,0.28,0.105000004,0.0,0.0,0.0,0.0,0.0,0.0,0.0,-1.0,0.15,0.0,0.0,0.07711233,-0.04106784,0.103211164,0.06831457,-0.052800775,0.021847367,0.0064679934,0.09687573,0.007969737,0.031197965,0.14282358,0.026640892,0.40849987,-0.6776024,0.27435982,0.29998443,-0.05195707,0.22176206,0.2922329,0.39713877,0.10762274,0.24600612,0.5089006,-0.014754672,-0.22347322,-1.0511625,-0.8125507,-0.15405953,0.54587644,0.08358431,0.62385195,-0.39872897,0.16588888,0.1794478,-0.805477,-0.3901695,0.13630563,-0.25553384,0.09975026,0.12490581,-0.02940058,0.063238695,0.11207711,0.15040635,0.043327786,0.096465826,0.18802696,-0.002962513,0.12387664,0.08466138,0.08466138,-0.27119315,0.7280586,-0.05694145,0.09800068,-1.4629513,0.10704875,0.13764645,0.07418451,0.07418451,-0.01582212,0.73244196,-0.052558064,0.06297689,-1.543554,0.026446104,0.11971555,0.013667293,0.013667293,0.15324599,0.88906085,0.10406083,0.04545524,-1.5595163,0.010483742,0.10885157,0.036650382,0.036650382,0.18541537,0.9363541,0.15135407,-0.0040067267,-1.5444492,0.025550842
15,0.3,0.105000004,0.0,0.0,0.0,0.0,0.0,0.0,0.0,-1.0,0.15,0.0,0.0,0.08466138,-0.05694145,0.10704875,0.07418451,-0.052558064,0.026446104,0.013667293,0.10406083,0.010483742,0.036650382,0.15135407,0.025550842,0.37745225,-0.7936802,0.19188009,0.2934969,0.012135461,0.22993724,0.359965,0.35925364,0.12570082,0.27262092,0.42652473,-0.054502446,-0.40871137,-0.9106884,-0.8587284,-0.1454972,0.6221452,0.015407461,0.5602752,-0.47035018,0.14124593,0.18342659,-0.9234153,-0.37267756,0.12387664,-0.27119315,0.09800068,0.13764645,-0.01582212,0.06297689,0.11971555,0.15324599,0.04545524,0.10885157,0.18541537,-0.0040067267,0.106384166,0.09114811,0.09114811,-0.2766563,0.7102871,-0.07471293,0.099609144,-1.4608086,0.10919142,0.15117234,0.07995281,0.07995281,0.0020944327,0.7341798,-0.05082023,0.061649296,-1.5389429,0.03105712,0.12106084,0.022005977,0.022005977,0.15518792,0.8953324,0.11033237,0.046056382,-1.5567114,0.013288617,0.12075783,0.042636342,0.042636342,0.18103687,0.9429765,0.15797645,-0.0024486128,-1.5462629,0.023737192
16,0.32,0.105000004,0.0,0.0,0.0,0.0,0.0,0.0,0.0,-1.0,0.15,0.0,0.0,0.09114811,-0.07471293,0.10919142,0.07995281,-0.05082023,0.03105712,0.022005977,0.11033237,0.013288617,0.042636342,0.15797645,0.023737192,0.32433638,-0.8885732,0.10713312,0.2884153,0.08689157,0.23054872,0.41693422,0.31357798,0.14024615,0.29929796,0.33111823,-0.090679556,-0.6092251,-0.6773552,-0.85712785,-0.13035269,0.70528996,-0.05858611,0.43927795,-0.53359616,0.102694176,0.17656453,-1.0238807,-0.32769752,0.106384166,-0.2766563,0.099609144,0.15117234,0.0020944327,0.061649296,0.12106084,0.15518792,0.046056382,0.12075783,0.18103687,-0.0024486128,0.08404361,0.096103616,0.096103616,-0.26989093,0.6912556,-0.0937444,0.10462887,-1.46031,0.10969007,0.16503817,0.085654534,0.085654534,0.024467744,0.73764145,-0.047358572,0.058476932,-1.5344936,0.035506487,0.115454994,0.031144734,0.031144734,0.15537483,0.9005394,0.11553937,0.04563456,-1.553707,0.016293049,0.13171446,0.049128823,0.049128823,0.1748413,0.94746435,0.16246432,0.0017031003,-1.5486737,0.021326303
17,0.34,0.105000004,0.0,0.0,0.0,0.0,0.0,0.0,0.0,-1.0,0.15,0.0,0.0,0.096103616,-0.0937444,0.10969007,0.085654534,-0.047358572,0.035506487,0.031144734,0.11553937,0.016293049,0.049128823,0.16246432,0.021326303,0.24777548,-0.951573,0.024934098,0.28508613,0.17308189,0.22246943,0.4569379,0.2603492,0.15022033,0.32462406,0.22439326,-0.1205432,-0.81661147,-0.34843722,-0.80924356,-0.11231698,0.7927543,-0.14114502,0.26249355,-0.59241086,0.05528599,0.15628794,-1.1044658,-0.25771672,0.08404361,-0.26989093,0.10462887,0.16503817,0.024467744,0.058476932,0.115454994,0.15537483,0.04563456,0.13171446,0.1748413,0.0017031003,0.056636304,0.0990422,0.0990422,-0.24768934,0.6718381,-0.11316192,0.11201476,-1.4613264,0.10867369,0.17887498,0.091325335,0.091325335,0.051373698,0.7430653,-0.04193473,0.051935256,-1.530418,0.039582014,0.102336116,0.040624816,0.040624816,0.15207374,0.9045153,0.1195153,0.04535704,-1.5505959,0.019404173,0.14100464,0.056063943,0.056063943,0.16755821,0.94964135,0.16464132,0.00837481,-1.5515066,0.018493414
18,0.36,0.105000004,0.0,0.0,0.0,0.0,0.0,0.0,0.0,-1.0,0.15,0.0,0.0,0.0990422,-0.11316192,0.10867369,0.091325335,-0.04193473,0.039582014,0.040624816,0.1195153,0.019404173,0.056063943,0.16464132,0.018493414,0.14692922,-0.9708757,-0.050820075,0.2835402,0.27119154,0.20377572,0.47400406,0.19879733,0.15555467,0.34675598,0.10884852,-0.14164454,-1.0253996,0.08345151,-0.72513145,-0.09447945,0.88161623,-0.239508,0.03384441,-0.6564094,0.00850738,0.11891582,-1.1581948,-0.1662886,0.056636304,-0.24768934,0.11201476,0.17887498,0.051373698,0.051935256,0.102336116,0.15207374,0.04535704,0.14100464,0.16755821,0.00837481,0.023326032,0.09946364,0.09946364,-0.20533574,0.6531804,-0.1318196,0.119696505,-1.4636855,0.10631454,0.19203442,0.09699141,0.09699141,0.08147279,0.7506738,-0.034326255,0.039273486,-1.5269988,0.043001294,0.08088895,0.049872324,0.049872324,0.14168975,0.9070331,0.12203306,0.04662741,-1.54745,0.022550106,0.1468465,0.06331868,0.06331868,0.16151117,0.9494173,0.16441727,0.017365178,-1.5545462,0.015453815
19,0.38,0.105000004,0.0,0.0,0.0,0.0,0.0,0.0,0.0,-1.0,0.15,0.0,0.0,0.09946364,-0.1318196,0.10631454,0.09699141,-0.034326255,0.043001294,0.049872324,0.12203306,0.022550106,0.06331868,0.16441727,0.015453815,0.02107206,-0.93288296,-0.11795593,0.28330386,0.38042247,0.17096174,0.4623755,0.12588762,0.15729478,0.36273688,-0.011203863,-0.15198019,-1.234266,0.6320163,-0.6222178,-0.081631735,0.95957536,-0.36813444,-0.24296002,-0.7468474,-0.027059581,0.054407187,-1.1685746,-0.058321647,0.023326032,-0.20533574,0.119696505,0.19203442,0.08147279,0.039273486,0.08088895,0.14168975,0.04662741,0.1468465,0.16151117,0.017365178,-0.015922494,0.09686707,0.09686707,-0.13922967,0.63671225,-0.14828777,0.1247352,-1.4672185,0.102781534,0.20346826,0.1026543,0.1026543,0.10994943,0.76060003,-0.024399996,0.017907098,-1.5246149,0.045385122,0.050970975,0.058215063,0.058215063,0.12058521,0.9077617,0.12276167,0.050472315,-1.5443044,0.025695682,0.1479101,0.07069712,0.07069712,0.15937287,0.94682616,0.16182613,0.028767379,-1.5575428,0.012457252
20,0.4,0.105000004,0.0,0.0,0.0,0.0,0.0,0.0,0.0,-1.0,0.15,0.0,0.0,0.09686707,-0.14828777,0.102781534,0.1026543,-0.024399996,0.045385122,0.058215063,0.12276167,0.025695682,0.07069712,0.16182613,0.012457252,-0.12982851,-0.82340705,-0.17665076,0.28314438,0.4963137,0.11919184,0.4171369,0.036429666,0.15728013,0.3689221,-0.12955809,-0.14983086,-1.4364375,1.299039,-0.5233995,-0.080837026,0.99213094,-0.5386478,-0.5583269,-0.88331,-0.04418096,-0.042930286,-1.1188614,0.06292932,-0.015922494,-0.13922967,0.1247352,0.20346826,0.10994943,0.017907098,0.050970975,0.12058521,0.050472315,0.1479101,0.15937287,0.028767379,-0.059692122,0.09078485,0.09078485,-0.052599475,0.624055,-0.160945,0.12340059,-1.471817,0.098183036,0.21110334,0.108262405,0.108262405,0.13300678,0.77283335,-0.012166679,-0.011991792,-1.5237269,0.046273112,0.014081855,0.0649247,0.0649247,0.08958601,0.9062897,0.12128967,0.054167718,-1.5411954,0.02880466,0.14174193,0.077903345,0.077903345,0.16013063,0.9420079,0.15700787,0.044789657,-1.5601892,0.009810805
21,0.42,0.105000004,0.0,0.0,0.0,0.0,0.0,0.0,0.0,-1.0,0.15,0.0,0.0,0.09078485,-0.160945,0.098183036,0.108262405,-0.012166679,0.046273112,0.0649247,0.12128967,0.02880466,0.077903345,0.15700787,0.009810805,-0.304111,-0.63286203,-0.22992481,0.28040522,0.6116669,0.044397853,0.33548182,-0.07360076,0.15544888,0.36031136,-0.24091384,-0.13232239,-1.615846,2.036921,-0.45557576,-0.10524758,0.95458114,-0.74242127,-0.8908885,-1.0532892,-0.061398737,-0.18492803,-1.0193765,0.20793298,-0.059692122,-0.052599475,0.12340059,0.21110334,0.13300678,-0.011991792,0.014081855,0.08958601,0.054167718,0.14174193,0.16013063,0.044789657,-0.1023609,0.08087357,0.08087357,0.041832503,0.6167937,-0.16820633,0.11441877,-1.4774524,0.092547655,0.21410474,0.11370204,0.11370204,0.14394194,0.7871289,0.002128899,-0.046486046,-1.5248067,0.045193315,-0.025042642,0.06930482,0.06930482,0.05132825,0.9021755,0.11717546,0.055909745,-1.5381849,0.03181517,0.12719475,0.08453605,0.08453605,0.16504046,0.9352196,0.15021956,0.065369025,-1.5621318,0.00786829
22,0.44,0.105000004,0.0,0.0,0.0,0.0,0.0,0.0,0.0,-1.0,0.15,0.0,0.0,0.08087357,-0.16820633,0.092547655,0.11370204,0.002128899,0.045193315,0.06930482,0.11717546,0.03181517,0.08453605,0.15021956,0.00786829,-0.49556375,-0.36306763,-0.28176975,0.27198145,0.7147797,-0.05399035,0.21900582,-0.20571008,0.15052833,0.33163553,-0.33941457,-0.097123384,-1.729821,2.734852,-0.4271112,-0.15837087,0.8062423,-0.9451517,-1.1981273,-1.2317879,-0.09017176,-0.37273404,-0.8663308,0.37073746,-0.1023609,0.041832503,0.11441877,0.21410474,0.14394194,-0.046486046,-0.025042642,0.05132825,0.055909745,0.12719475,0.16504046,0.065369025,-0.13193893,0.06708856,0.06708856,0.12079436,0.6161075,-0.1688925,0.10155403,-1.4841222,0.085877895,0.21507646,0.11883853,0.11883853,0.13678801,0.80293685,0.017936826,-0.07973065,-1.5282422,0.041757822,-0.058458548,0.07082085,0.07082085,0.018890046,0.89514357,0.11014354,0.056508534,-1.5353463,0.034653783,0.106701165,0.09013639,0.09013639,0.17753671,0.92687356,0.14187354,0.08695432,-1.5630306,0.006969452
23,0.46,0.105000004,0.0,0.0,0.0,0.0,0.0,0.0,0.0,-1.0,0.15,0.0,0.0,0.06708856,-0.1688925,0.085877895,0.11883853,0.017936826,0.041757822,0.07082085,0.11014354,0.034653783,0.09013639,0.14187354,0.006969452,-0.68925047,-0.03430906,-0.33348626,0.25682455,0.7903961,-0.17177674,0.07580195,-0.35159567,0.14193039,0.28001663,-0.41730028,-0.04493998,-1.6973922,3.2182899,-0.41137642,-0.21984203,0.5167054,-1.1014984,-1.4188943,-1.3253965,-0.12365647,-0.58220524,-0.64332044,0.52189374,-0.13193893,0.12079436,0.10155403,0.21507646,0.13678801,-0.07973065,-0.058458548,0.018890046,0.056508534,0.106701165,0.17753671,0.08695432,-0.14382073,0.049742423,0.049742423,0.17192641,0.6225738,-0.16242623,0.09038655,-1.491771,0.07822907,0.21770988,0.1235722,0.1235722,0.11398158,0.8194589,0.034458876,-0.1047151,-1.5342306,0.035769463,-0.08073368,0.06918725,0.06918725,0.00086796377,0.88520855,0.10020852,0.05498552,-1.5327764,0.037223697,0.08364506,0.094249524,0.094249524,0.19527294,0.91748923,0.1324892,0.10414411,-1.562645,0.007355094
24,0.48,0.105000004,0.0,0.0,0.0,0.0,0.0,0.0,0.0,-1.0,0.15,0.0,0.0,0.049742423,-0.16242623,0.07822907,0.1235722,0.034458876,0.035769463,0.06918725,0.10020852,0.037223697,0.094249524,0.1324892,0.007355094,-0.86730695,0.3233123,-0.382441,0.23668374,0.82610214,-0.29941565,-0.08168006,-0.49675077,0.12849863,0.20565683,-0.46921697,0.019282214,-1.4949853,3.399857,-0.37071472,-0.26284572,0.117182456,-1.1619184,-1.5141542,-1.2776234,-0.16707276,-0.78333557,-0.37532634,0.6214096,-0.14382073,0.17192641,0.09038655,0.21770988,0.11398158,-0.1047151,-0.08073368,0.00086796377,0.05498552,0.08364506,0.19527294,0.10414411,-0.14016315,0.02945752,0.02945752,0.20040506,0.63623846,-0.14876157,0.084486894,-1.5002438,0.06975627,0.22355321,0.12786199,0.12786199,0.08006581,0.8357405,0.05074048,-0.11707852,-1.5427158,0.027284265,-0.09410183,0.06433819,0.06433819,-0.0033076662,0.8726598,0.087659776,0.050125096,-1.5306085,0.039391518,0.062152028,0.096495084,0.096495084,0.21356443,0.9076103,0.12261027,0.11491373,-1.5608658,0.009134293
25,0.5,0.105000004,0.0,0.0,0.0,0.0,0.0,0.0,0.0,-1.0,0.15,0.0,0.0,0.02945752,-0.14876157,0.06975627,0.12786199,0.05074048,0.027284265,0.06433819,0.087659776,0.039391518,0.096495084,0.12261027,0.009134293,-1.0142452,0.683233,-0.42364225,0.21448949,0.81407934,-0.4242619,-0.24245319,-0.62743604,0.10838907,0.11227815,-0.49394557,0.0889619,-1.1501286,3.321521,-0.2835049,-0.2766729,-0.34528485,-1.0997066,-1.5012587,-1.0998061,-0.22661877,-0.9428137,-0.10304608,0.65516496,-0.14016315,0.20040506,0.084486894,0.22355321,0.08006581,-0.11707852,-0.09410183,-0.0033076662,0.050125096,0.062152028,0.21356443,0.11491373,-0.12544847,0.0070783664,0.0070783664,0.21484162,0.6567483,-0.12825173,0.0850432,-1.5092758,0.06072426,0.2310847,0.13170388,0.13170388,0.03935563,0.8507616,0.065761566,-0.11784584,-1.5534111,0.016588926,-0.10053011,0.056396615,0.056396615,0.0016852813,0.8579814,0.07298136,0.042849995,-1.5289959,0.04100418,0.045010537,0.09661504,0.09661504,0.23122728,0.89777255,0.112772524,0.119797155,-1.5577078,0.012292266
26,0.52,0.105000004,0.0,0.0,0.0,0.0,0.0,0.0,0.0,-1.0,0.15,0.0,0.0,0.0070783664,-0.12825173,0.06072426,0.13170388,0.065761566,0.016588926,0.056396615,0.07298136,0.04100418,0.09661504,0.112772524,0.012292266,-1.1189578,1.0254908,-0.45160338,0.19209425,0.7510537,-0.53476965,-0.39707887,-0.7339216,0.080634624,0.0059977397,-0.49188617,0.15789686,-0.7086865,3.0532978,-0.14645246,-0.27236405,-0.82542545,-0.9288206,-1.3979644,-0.833801,-0.29346073,-1.0389763,0.1578283,0.6285936,-0.12544847,0.21484162,0.0850432,0.2310847,0.03935563,-0.11784584,-0.10053011,0.0016852813,0.042849995,0.045010537,0.23122728,0.119797155,-0.10257592,-0.016397946,-0.016397946,0.2181834,0.6834115,-0.10158855,0.09046542,-1.5185249,0.051475167,0.23902264,0.13511217,0.13511217,-0.0024302825,0.8635468,0.07854676,-0.108575605,-1.5658344,0.0041656494,-0.10223753,0.045635205,0.045635205,0.013944435,0.841807,0.05680698,0.03464866,-1.5280849,0.04191518,0.032324836,0.09447944,0.09447944,0.24842353,0.8884912,0.10349119,0.11892694,-1.5533048,0.016695261
27,0.54,0.105000004,0.0,0.0,0.0,0.0,0.0,0.0,0.0,-1.0,0.15,0.0,0.0,-0.016397946,-0.10158855,0.051475167,0.13511217,0.07854676,0.0041656494,0.045635205,0.05680698,0.04191518,0.09447944,0.10349119,0.016695261,-1.1738156,1.3331598,-0.46245316,0.1704144,0.639261,-0.6211626,-0.5380705,-0.8087203,0.0455476,-0.10677987,-0.46406594,0.22014707,-0.20674446,2.6295652,0.02359357,-0.2593113,-1.2700895,-0.6692691,-1.2254187,-0.50359416,-0.35520333,-1.0708112,0.40146428,0.5459201,-0.10257592,0.2181834,0.09046542,0.23902264,-0.0024302825,-0.108575605,-0.10223753,0.013944435,0.03464866,0.032324836,0.24842353,0.11892694,-0.07121273,-0.039848663,-0.039848663,0.20862408,0.71519995,-0.06980008,0.09992579,-1.5275943,0.042405725,0.2471506,0.13811563,0.13811563,-0.043260865,0.8732202,0.08822018,-0.09210038,-1.5793655,-0.009365439,-0.09984324,0.032456476,0.032456476,0.034706578,0.82491606,0.03991604,0.024512297,-1.5280262,0.04197383,0.022588104,0.09006591,0.09006591,0.2652645,0.8802486,0.09524858,0.1137773,-1.5478821,0.022117972
28,0.56,0.105000004,0.0,0.0,0.0,0.0,0.0,0.0,0.0,-1.0,0.15,0.0,0.0,-0.039848663,-0.06980008,0.042405725,0.13811563,0.08822018,-0.009365439,0.032456476,0.03991604,0.04197383,0.09006591,0.09524858,0.022117972,-1.1725358,1.5894248,-0.45347148,0.15017284,0.4836707,-0.6765569,-0.6589364,-0.84454614,0.002931811,-0.22067669,-0.41213086,0.27113435,0.34080076,2.056108,0.21463332,-0.2396061,-1.6539892,-0.35121286,-0.99514854,-0.11318731,-0.4167512,-1.0498435,0.62228286,0.42171794,-0.07121273,0.20862408,0.09992579,0.2471506,-0.043260865,-0.09210038,-0.09984324,0.034706578,0.024512297,0.022588104,0.2652645,0.1137773,-0.029954813,-0.062040165,-0.062040165,0.18350151,0.75074893,-0.034251094,0.11537976,-1.5360181,0.03398192,0.2564959,0.1407707,0.1407707,-0.07857783,0.8790912,0.09409118,-0.069558226,-1.5932834,-0.023283362,-0.09311991,0.017381579,0.017381579,0.065970056,0.8082365,0.023236454,0.011325258,-1.5289857,0.041014314,0.014910065,0.0834452,0.0834452,0.2789648,0.87344235,0.088442326,0.10432559,-1.5417483,0.028251767
29,0.58,0.105000004,0.0,0.0,0.0,0.0,0.0,0.0,0.0,-1.0,0.15,0.0,0.0,-0.062040165,-0.034251094,0.03398192,0.1407707,0.09409118,-0.023283362,0.017381579,0.023236454,0.041014314,0.0834452,0.088442326,0.028251767,-1.1095752,1.7774498,-0.42119032,0.13275394,0.29354984,-0.6958986,-0.7537449,-0.83398044,-0.047974158,-0.33103567,-0.3403124,0.30668983,0.9251766,1.3374377,0.43299752,-0.20717955,-1.9377735,0.00607574,-0.7142828,0.3366354,-0.48340908,-0.9844138,0.7962357,0.26114842,-0.029954813,0.18350151,0.11537976,0.2564959,-0.07857783,-0.069558226,-0.09311991,0.065970056,0.011325258,0.014910065,0.2789648,0.10432559,0.021052532,-0.081667215,-0.081667215,0.14573565,0.7884441,0.0034440756,0.13712305,-1.5432715,0.02672851,0.26521513,0.14313349,0.14313349,-0.10340537,0.8807391,0.09573907,-0.045356937,-1.6068504,-0.036850333,-0.077813305,0.0010924079,0.0010924079,0.10598532,0.79279035,0.007790327,-0.004105241,-1.531128,0.038872004,0.011905849,0.0748136,0.0748136,0.28755873,0.8683489,0.08334887,0.09093302,-1.5352796,0.03472042
30,0.6,0.105000004,0.0,0.0,0.0,0.0,0.0,0.0,0.0,-1.0,0.15,0.0,0.0,-0.081667215,0.0034440756,0.02672851,0.14313349,0.09573907,-0.036850333,0.0010924079,0.007790327,0.038872004,0.0748136,0.08334887,0.03472042,-0.9813523,1.8847575,-0.36267027,0.118139446,0.082393244,-0.6783502,-0.81445855,-0.77230626,-0.10711655,-0.43158,-0.25467306,0.32342994,1.5262333,0.5195905,0.67270344,-0.17571643,-2.0839589,0.3612098,-0.3645168,0.8181859,-0.5472374,-0.8604702,0.90714806,0.07282251,0.021052532,0.14573565,0.13712305,0.26521513,-0.10340537,-0.045356937,-0.077813305,0.10598532,-0.004105241,0.011905849,0.28755873,0.09093302,0.07612859,-0.09747073,-0.09747073,0.1050337,0.8266086,0.041608572,0.16013125,-1.5488575,0.021142602,0.26993647,0.14521095,0.14521095,-0.11665038,0.87803364,0.09303361,-0.026008636,-1.6194241,-0.049424052,-0.05527277,-0.015610227,-0.015610227,0.14394373,0.779512,-0.005488038,-0.018143984,-1.5345614,0.035438657,0.013371646,0.06448158,0.06448158,0.29459307,0.8651682,0.08016819,0.07444915,-1.5288962,0.04110384
31,0.62,0.105000004,0.0,0.0,0.0,0.0,0.0,0.0,0.0,-1.0,0.15,0.0,0.0,-0.09747073,0.041608572,0.021142602,0.14521095,0.09303361,-0.049424052,-0.015610227,-0.005488038,0.035438657,0.06448158,0.08016819,0.04110384,-0.7901758,1.9082253,-0.27929425,0.10387274,-0.13527413,-0.62868536,-0.8351318,-0.6639168,-0.17166728,-0.51660097,-0.15903416,0.31917337,2.0871327,-0.30525783,0.8919527,-0.16832748,-2.0865571,0.660761,0.03206545,1.2437782,-0.5819483,-0.68515635,0.97796524,-0.13091193,0.07612859,0.1050337,0.16013125,0.26993647,-0.11665038,-0.026008636,-0.05527277,0.14394373,-0.018143984,0.013371646,0.29459307,0.07444915,0.12344487,-0.10843755,-0.10843755,0.0739972,0.86372805,0.07872802,0.17766297,-1.552414,0.017586112,0.26653346,0.14690411,0.14690411,-0.12083528,0.87109643,0.086096406,-0.017285477,-1.6305542,-0.060554147,-0.032725863,-0.031933077,-0.031933077,0.16955659,0.7690798,-0.015920222,-0.02683487,-1.5392803,0.030719757,0.017222613,0.052833162,0.052833162,0.301369,0.86403835,0.07903832,0.05932028,-1.5229864,0.04701364
32,0.64,0.105000004,0.0,0.0,0.0,0.0,0.0,0.0,0.0,-1.0,0.15,0.0,0.0,-0.10843755,0.07872802,0.017586112,0.14690411,0.086096406,-0.060554147,-0.031933077,-0.015920222,0.030719757,0.052833162,0.07903832,0.04701364,-0.54834116,1.8559738,-0.17782667,0.084657885,-0.34685934,-0.5565032,-0.81614244,-0.5216099,-0.23594585,-0.58242095,-0.056494452,0.295492,2.5138419,-1.0296462,1.0401144,-0.2112412,-1.9679506,0.86031973,0.4138562,1.5349658,-0.5612944,-0.4793249,1.0166056,-0.31386757,0.12344487,0.0739972,0.17766297,0.26653346,-0.12083528,-0.017285477,-0.032725863,0.16955659,-0.02683487,0.017222613,0.301369,0.05932028,0.15491498,-0.11393611,-0.11393611,0.053722076,0.8985044,0.11350435,0.18065998,-1.5538483,0.016151786,0.2552217,0.14801642,0.14801642,-0.1179422,0.8602638,0.0752638,-0.011408857,-1.6398814,-0.06988132,-0.015599585,-0.047188446,-0.047188446,0.18346709,0.7619123,-0.02308774,-0.031779237,-1.545191,0.024809003,0.018355034,0.04024195,0.04024195,0.30308506,0.8649657,0.07996565,0.048028916,-1.5178624,0.052137613
33,0.66,0.105000004,0.0,0.0,0.0,0.0,0.0,0.0,0.0,-1.0,0.15,0.0,0.0,-0.11393611,0.11350435,0.016151786,0.14801642,0.0752638,-0.06988132,-0.047188446,-0.02308774,0.024809003,0.04024195,0.07996565,0.052137613,-0.2749279,1.7388166,-0.07171738,0.05561553,-0.5416292,-0.46635747,-0.76276845,-0.35837603,-0.2955363,-0.62956077,0.046367325,0.25620136,2.745493,-1.6303228,1.0557072,-0.29902577,-1.7492977,1.0104026,0.73450553,1.6935078,-0.49885234,-0.28380746,0.9909484,-0.4552123,0.15491498,0.053722076,0.18065998,0.2552217,-0.1179422,-0.011408857,-0.015599585,0.18346709,-0.031779237,0.018355034,0.30308506,0.048028916,0.1711397,-0.113716535,-0.113716535,0.038250417,0.9298035,0.14480346,0.17172125,-1.5532963,0.016703725,0.23794,0.14828874,0.14828874,-0.11103302,0.8460294,0.061029375,-0.006231387,-1.6471152,-0.07711518,-0.0044663036,-0.060818937,-0.060818937,0.19278476,0.7582622,-0.02673781,-0.03411487,-1.5521321,0.017867923,0.014783427,0.027033117,0.027033117,0.29507956,0.86776286,0.08276284,0.041181393,-1.5137447,0.05625534
34,0.68,0.105000004,0.0,0.0,0.0,0.0,0.0,0.0,0.0,-1.0,0.15,0.0,0.0,-0.113716535,0.14480346,0.016703725,0.14828874,0.061029375,-0.07711518,-0.060818937,-0.02673781,0.017867923,0.027033117,0.08276284,0.05625534,0.010978669,1.5649543,0.02759619,0.013615765,-0.7117226,-0.36169297,-0.6815246,-0.18250282,-0.34705642,-0.66044164,0.1398583,0.2058868,2.7873747,-2.1350844,0.9615733,-0.41373014,-1.4608295,1.1227996,0.9837669,1.7676235,-0.40566126,-0.11647364,0.8733114,-0.54871833,0.1711397,0.038250417,0.17172125,0.23794,-0.11103302,-0.006231387,-0.0044663036,0.19278476,-0.03411487,0.014783427,0.29507956,0.041181393,0.17765492,-0.107831,-0.107831,0.023733422,0.95662916,0.17162913,0.15573087,-1.5510452,0.018954873,0.21641304,0.14743222,0.14743222,-0.1033326,0.8289811,0.043981075,-0.0014260141,-1.6520362,-0.08203614,0.0035382593,-0.07236983,-0.07236983,0.20048064,0.7582551,-0.026744902,-0.03321441,-1.559872,0.010128021,0.0072442144,0.013485788,0.013485788,0.27861297,0.8720761,0.08707607,0.03761963,-1.5107743,0.059225798
35,0.7000000000000001,0.105000004,0.0,0.0,0.0,0.0,0.0,0.0,0.0,-1.0,0.15,0.0,0.0,-0.107831,0.17162913,0.018954873,0.14743222,0.043981075,-0.08203614,-0.07236983,-0.026744902,0.010128021,0.013485788,0.08707607,0.059225798,0.2942768,1.3412839,0.11256034,-0.042826124,-0.8524152,-0.24604928,-0.5775447,-0.00035341084,-0.3869922,-0.67736644,0.2156628,0.14852175,2.682592,-2.5585823,0.797734,-0.5388816,-1.1344839,1.1975758,1.1765562,1.7778776,-0.28141448,0.024476409,0.67946684,-0.6014692,0.17765492,0.023733422,0.15573087,0.21641304,-0.1033326,-0.0014260141,0.0035382593,0.20048064,-0.03321441,0.0072442144,0.27861297,0.03761963,0.17928085,-0.09655752,-0.09655752,0.0071031526,0.9781048,0.1931048,0.13657525,-1.5474666,0.022533417,0.19146273,0.14514863,0.14514863,-0.09611334,0.8097649,0.024764895,0.0035965974,-1.6544917,-0.08449161,0.011571617,-0.08145514,-0.08145514,0.20755497,0.76190287,-0.023097157,-0.028483095,-1.5681084,0.001891613,-0.002751045,-0.00015252084,-0.00015252084,0.25677672,0.8774426,0.09244257,0.03503202,-1.509043,0.060957074
36,0.72,0.105000004,0.0,0.0,0.0,0.0,0.0,0.0,0.0,-1.0,0.15,0.0,0.0,-0.09655752,0.1931048,0.022533417,0.14514863,0.024764895,-0.08449161,-0.08145514,-0.023097157,0.001891613,-0.00015252084,0.09244257,0.060957074,0.56367415,1.0737846,0.17892472,-0.1141795,-0.96081007,-0.122775935,-0.4542657,0.1823864,-0.4118218,-0.68191546,0.26832408,0.086563535,2.4714894,-2.9114532,0.5976168,-0.6644387,-0.78890735,1.2375246,1.330397,1.7324721,-0.12702742,0.14653769,0.43884307,-0.62895006,0.17928085,0.0071031526,0.13657525,0.19146273,-0.09611334,0.0035965974,0.011571617,0.20755497,-0.028483095,-0.002751045,0.25677672,0.03503202,0.17819104,-0.080356315,-0.080356315,-0.0138670355,0.99346405,0.20846403,0.11639687,-1.5429754,0.027024627,0.1636299,0.14114651,0.14114651,-0.08839874,0.7890789,0.004078865,0.0100841345,-1.6543813,-0.08438122,0.021892954,-0.08773516,-0.08773516,0.21359284,0.76910007,-0.015899956,-0.020649316,-1.5764892,-0.0064891577,-0.013459571,-0.013647674,-0.013647674,0.23103313,0.88332635,0.098326325,0.03188348,-1.5086137,0.061386347
37,0.74,0.105000004,0.0,0.0,0.0,0.0,0.0,0.0,0.0,-1.0,0.15,0.0,0.0,-0.080356315,0.20846403,0.027024627,0.14114651,0.004078865,-0.08438122,-0.08773516,-0.015899956,-0.0064891577,-0.013647674,0.098326325,0.061386347,0.8100602,0.76796013,0.22456157,-0.20010635,-1.0343006,0.005517848,-0.31400108,0.35986018,-0.41904095,-0.67475766,0.29418784,0.021464542,2.1779113,-3.199876,0.38253877,-0.7826163,-0.42766285,1.250602,1.4569032,1.6313832,0.04687201,0.25879228,0.17005797,-0.641376,0.17819104,-0.0138670355,0.11639687,0.1636299,-0.08839874,0.0100841345,0.021892954,0.21359284,-0.020649316,-0.013459571,0.23103313,0.03188348,0.17519763,-0.059841197,-0.059841197,-0.04062407,1.0020489,0.21704882,0.09645902,-1.5379982,0.032001853,0.13299924,0.13515033,0.13515033,-0.07992672,0.76765615,-0.017343879,0.018445369,-1.6516527,-0.08165264,0.03514871,-0.0909158,-0.0909158,0.21787934,0.77962005,-0.005379975,-0.009926523,-1.5846262,-0.014626145,-0.022781037,-0.026755743,-0.026755743,0.20231386,0.8891482,0.10414815,0.027038595,-1.509535,0.060465097
38,0.76,0.105000004,0.0,0.0,0.0,0.0,0.0,0.0,0.0,-1.0,0.15,0.0,0.0,-0.059841197,0.21704882,0.032001853,0.13515033,-0.017343879,-0.08165264,-0.0909158,-0.005379975,-0.014626145,-0.026755743,0.10414815,0.060465097,1.0257559,0.42924264,0.24885885,-0.29980946,-1.0711365,0.1364308,-0.15903173,0.52599895,-0.40684775,-0.65540344,0.29109022,-0.04606449,1.8179786,-3.42607,0.16746032,-0.8891557,-0.059600044,1.2395104,1.5570297,1.4742349,0.2329236,0.37240997,-0.11173844,-0.6461859,0.17519763,-0.04062407,0.09645902,0.13299924,-0.07992672,0.018445369,0.03514871,0.21787934,-0.009926523,-0.022781037,0.20231386,0.027038595,0.17146552,-0.035742372,-0.035742372,-0.07223762,1.0033389,0.2183389,0.07772923,-1.5329484,0.037051678,0.102012575,0.12694201,0.12694201,-0.06975434,0.74625665,-0.038743377,0.029600628,-1.6462889,-0.07628882,0.051647753,-0.09075139,-0.09075139,0.22039394,0.7931237,0.008123696,0.0039751315,-1.5921026,-0.022102594,-0.028575614,-0.039200116,-0.039200116,0.17303114,0.8943365,0.109336495,0.019680893,-1.5118517,0.058148384
39,0.78,0.105000004,0.0,0.0,0.0,0.0,0.0,0.0,0.0,-1.0,0.15,0.0,0.0,-0.035742372,0.2183389,0.037051678,0.12694201,-0.038743377,-0.07628882,-0.09075139,0.008123696,-0.022102594,-0.039200116,0.109336495,0.058148384,1.2049413,0.06450617,0.2524941,-0.41041568,-1.0699759,0.2681906,0.008220568,0.67518264,-0.37382418,-0.62221867,0.2594184,-0.115833394,1.4114659,-3.5778897,-0.0352175,-0.96460027,0.31092095,1.210882,1.6300808,1.2669817,0.4269802,0.4981048,-0.3817537,-0.6485105,0.17146552,-0.07223762,0.07772923,0.102012575,-0.06975434,0.029600628,0.051647753,0.22039394,0.0039751315,-0.028575614,0.17303114,0.019680893,0.16973226,-0.00884488,-0.00884488,-0.10749094,0.9969797,0.21197969,0.062167488,-1.5281868,0.041813254,0.073965296,0.116411835,0.116411835,-0.05757094,0.72564954,-0.05935049,0.043111473,-1.6383141,-0.068314075,0.071947195,-0.08704262,-0.08704262,0.2210321,0.80917025,0.02417022,0.021770656,-1.598476,-0.028476,-0.029284991,-0.05065821,-0.05065821,0.14612736,0.89838475,0.11338472,0.008990638,-1.515615,0.054385066
40,0.8,0.105000004,0.0,0.0,0.0,0.0,0.0,0.0,0.0,-1.0,0.15,0.0,0.0,-0.00884488,0.21197969,0.041813254,0.116411835,-0.05935049,-0.068314075,-0.08704262,0.02417022,-0.028476,-0.05065821,0.11338472,0.054385066,1.3448746,-0.31796005,0.23807907,-0.5265088,-1.0303553,0.39873645,0.18543826,0.8023276,-0.31866926,-0.57290477,0.2024104,-0.18816775,0.9891842,-3.6438415,-0.20735268,-0.9856464,0.6751956,1.1624812,1.677722,1.0162833,0.62753963,0.64171714,-0.6130732,-0.653297,0.16973226,-0.10749094,0.062167488,0.073965296,-0.05757094,0.043111473,0.071947195,0.2210321,0.021770656,-0.029284991,0.14612736,0.008990638,0.17438388,0.0200961,0.0200961,-0.14685865,0.9827817,0.19778168,0.051265053,-1.5239925,0.046007514,0.051919367,0.103601724,0.103601724,-0.04466045,0.70657355,-0.07842648,0.057685904,-1.6278104,-0.057810307,0.097381175,-0.079622336,-0.079622336,0.21946925,0.8272275,0.042227447,0.043612674,-1.6032885,-0.03328848,-0.024620801,-0.060767572,-0.060767572,0.12436282,0.9009021,0.115902066,-0.005340716,-1.5208856,0.049114466
41,0.8200000000000001,0.105000004,0.0,0.0,0.0,0.0,0.0,0.0,0.0,-1.0,0.15,0.0,0.0,0.0200961,0.19778168,0.046007514,0.103601724,-0.07842648,-0.057810307,-0.079622336,0.042227447,-0.03328848,-0.060767572,0.115902066,0.049114466,1.4470491,-0.7099017,0.20971212,-0.6405056,-0.9537984,0.52518654,0.37101424,0.90286183,-0.24062589,-0.50546813,0.12586792,-0.2635294,0.59204996,-3.6265779,-0.33558112,-0.93326724,1.0142591,1.0871005,1.7073374,0.7284132,0.8290779,0.7997128,-0.78229743,-0.66174114,0.17438388,-0.14685865,0.051265053,0.051919367,-0.04466045,0.057685904,0.097381175,0.21946925,0.043612674,-0.024620801,0.12436282,-0.005340716,0.18559508,0.05037814,0.05037814,-0.18687908,0.96077025,0.17577022,0.044316553,-1.5205667,0.04943335,0.03775168,0.08872673,0.08872673,-0.03140296,0.6897117,-0.09528834,0.07316246,-1.6149157,-0.044915676,0.12802954,-0.0683583,-0.0683583,0.21342178,0.84665686,0.061656833,0.0672917,-1.6061114,-0.036111355,-0.013231792,-0.06911806,-0.06911806,0.108613335,0.90163434,0.11663431,-0.020214437,-1.5276879,0.042312145
42,0.84,0.105000004,0.0,0.0,0.0,0.0,0.0,0.0,0.0,-1.0,0.15,0.0,0.0,0.05037814,0.17577022,0.04943335,0.08872673,-0.09528834,-0.044915676,-0.0683583,0.061656833,-0.036111355,-0.06911806,0.11663431,0.042312145,1.514102,-1.1005738,0.17129007,-0.74374974,-0.84309226,0.64473027,0.56320184,0.97147,-0.14114279,-0.41752455,0.03661356,-0.34011495,0.23048711,-3.504799,-0.42296082,-0.7994126,1.3165581,0.9862221,1.7180544,0.3976043,1.0104754,0.9752361,-0.881374,-0.65224266,0.18559508,-0.18687908,0.044316553,0.03775168,-0.03140296,0.07316246,0.12802954,0.21342178,0.0672917,-0.013231792,0.108613335,-0.020214437,0.1979349,0.08129391,0.08129391,-0.22339648,0.93123794,0.14623791,0.041400917,-1.5180277,0.05197239,0.03126786,0.07216214,0.07216214,-0.013465218,0.6757341,-0.10926592,0.08423563,-1.5998937,-0.029893637,0.15911889,-0.053222906,-0.053222906,0.20497999,0.8667633,0.08176327,0.0916022,-1.606573,-0.036572933,0.0034377053,-0.075284705,-0.075284705,0.0962496,0.90043074,0.11543071,-0.03422895,-1.535991,0.0340091
43,0.86,0.105000004,0.0,0.0,0.0,0.0,0.0,0.0,0.0,-1.0,0.15,0.0,0.0,0.08129391,0.14623791,0.05197239,0.07216214,-0.10926592,-0.029893637,-0.053222906,0.08176327,-0.036572933,-0.075284705,0.11543071,0.0340091,1.5457885,-1.4766158,0.12695305,-0.82822967,-0.69888,0.75110364,0.75676984,1.0053211,-0.02307801,-0.30833226,-0.06017849,-0.4151495,-0.123559736,-3.2567182,-0.46827585,-0.5926198,1.603198,0.82789576,1.6773281,0.04889729,1.1587744,1.1520495,-0.92784005,-0.61609477,0.1979349,-0.22339648,0.041400917,0.03126786,-0.013465218,0.08423563,0.15911889,0.20497999,0.0916022,0.0034377053,0.0962496,-0.03422895,0.20722482,0.11209262,0.11209262,-0.25367144,0.89476836,0.10976833,0.042538457,-1.5164093,0.053590775,0.031166028,0.05441088,0.05441088,0.009839296,0.66528916,-0.11971086,0.092432685,-1.583101,-0.013100982,0.18493292,-0.034371458,-0.034371458,0.19622917,0.886845,0.10184497,0.1135051,-1.6044104,-0.034410357,0.023811743,-0.07886201,-0.07886201,0.08397928,0.8971997,0.112199664,-0.045977324,-1.5456907,0.024309397
44,0.88,0.105000004,0.0,0.0,0.0,0.0,0.0,0.0,0.0,-1.0,0.15,0.0,0.0,0.11209262,0.10976833,0.053590775,0.05441088,-0.11971086,-0.013100982,-0.034371458,0.10184497,-0.034410357,-0.07886201,0.112199664,0.024309397,1.5399355,-1.8234801,0.08092171,-0.88756293,-0.5222471,0.83963114,0.9425725,1.0040853,0.10813156,-0.17886549,-0.16155173,-0.4849828,-0.48830754,-2.8748212,-0.4719232,-0.33057502,1.8701664,0.6289314,1.5495132,-0.29320547,1.2503293,1.313678,-0.9441682,-0.54577714,0.20722482,-0.25367144,0.042538457,0.031166028,0.009839296,0.092432685,0.18493292,0.19622917,0.1135051,0.023811743,0.08397928,-0.045977324,0.20936552,0.14194468,0.14194468,-0.27585688,0.85223854,0.06723851,0.0475088,-1.515665,0.054334998,0.03686223,0.03607822,0.03607822,0.03659516,0.65895915,-0.12604088,0.10112283,-1.5649289,0.005071163,0.2017266,-0.01218587,-0.01218587,0.1877116,0.90622103,0.121221006,0.1296163,-1.5995215,-0.029521465,0.04721114,-0.07948437,-0.07948437,0.07059645,0.89189297,0.10689294,-0.052807763,-1.5565774,0.013422608
45,0.9,0.105000004,0.0,0.0,0.0,0.0,0.0,0.0,0.0,-1.0,0.15,0.0,0.0,0.14194468,0.06723851,0.054334998,0.03607822,-0.12604088,0.005071163,-0.01218587,0.121221006,-0.029521465,-0.07948437,0.10689294,0.013422608,1.4926032,-2.126492,0.03720861,-0.91663307,-0.31650138,0.90860736,1.1092794,0.9688024,0.24444228,-0.03111811,-0.2653365,-0.5443418,-0.8798916,-2.361979,-0.43705902,-0.027067494,2.0966983,0.4187979,1.3164613,-0.6156255,1.2619482,1.4507276,-0.93864524,-0.42692915,0.20936552,-0.27585688,0.0475088,0.03686223,0.03659516,0.10112283,0.2017266,0.1877116,0.1296163,0.04721114,0.07059645,-0.052807763,0.202243,0.16993724,0.16993724,-0.287039,0.80482817,0.01982814,0.05600304,-1.515676,0.05432403,0.04709365,0.017834663,0.017834663,0.06757652,0.65725625,-0.12774378,0.11131951,-1.5457764,0.024223685,0.20873791,0.012730798,0.012730798,0.18015519,0.92426,0.13926,0.13801031,-1.5919913,-0.021991253,0.07245354,-0.07685189,-0.07685189,0.054995432,0.88449055,0.09949052,-0.053716265,-1.5683309,0.0016691685
46,0.92,0.105000004,0.0,0.0,0.0,0.0,0.0,0.0,0.0,-1.0,0.15,0.0,0.0,0.16993724,0.01982814,0.05432403,0.017834663,-0.12774378,0.024223685,0.012730798,0.13926,-0.021991253,-0.07685189,0.09949052,0.0016691685,1.3996283,-2.3705175,-0.0005512275,-0.9121778,-0.08514455,0.95762485,1.2458334,0.90195036,0.3765129,0.13162433,-0.37012178,-0.58767056,-1.2993311,-1.7179432,-0.36838248,0.29889292,2.2818835,0.21027522,0.9839342,-0.90502185,1.1835864,1.5515115,-0.9190701,-0.2583407,0.202243,-0.287039,0.05600304,0.04709365,0.06757652,0.11131951,0.20873791,0.18015519,0.13801031,0.07245354,0.054995432,-0.053716265,0.18440017,0.19508134,0.19508134,-0.28362554,0.75402975,-0.030970275,0.06806783,-1.5162549,0.05374515,0.06118117,0.0003861189,0.0003861189,0.10500064,0.6606411,-0.12435895,0.123719424,-1.5260297,0.043970346,0.20553987,0.039570563,0.039570563,0.17273471,0.9403851,0.15538508,0.13817118,-1.5820916,-0.012091517,0.098295376,-0.070754595,-0.070754595,0.037213467,0.875001,0.09000099,-0.04878877,-1.580532,-0.010531902
47,0.9400000000000001,0.105000004,0.0,0.0,0.0,0.0,0.0,0.0,0.0,-1.0,0.15,0.0,0.0,0.19508134,-0.030970275,0.05374515,0.0003861189,-0.12435895,0.043970346,0.039570563,0.15538508,-0.012091517,-0.070754595,0.09000099,-0.010531902,1.2572052,-2.5399222,-0.028944189,-0.8724272,0.16924065,0.9873323,1.3419882,0.80625385,0.4949842,0.30486473,-0.47447616,-0.61005545,-1.7420667,-0.9422132,-0.26901096,0.63224506,2.435412,0.013491559,0.562714,-1.1597488,1.0176833,1.6054643,-0.8856455,-0.047661554,0.18440017,-0.28362554,0.06806783,0.06118117,0.10500064,0.123719424,0.20553987,0.17273471,0.13817118,0.098295376,0.037213467,-0.04878877,0.1563141,0.21634811,0.21634811,-0.2640823,0.70162046,-0.08337957,0.08352361,-1.5171554,0.052844644,0.0773187,-0.01557201,-0.01557201,0.14662099,0.66947937,-0.115520656,0.13835853,-1.5060512,0.06394887,0.19272703,0.06735638,0.06735638,0.16192456,0.95403934,0.16903931,0.13099574,-1.570257,-0.00025689602,0.12244803,-0.061108235,-0.061108235,0.018585628,0.86347944,0.07847941,-0.038651213,-1.5926864,-0.022686362
48,0.96,0.105000004,0.0,0.0,0.0,0.0,0.0,0.0,0.0,-1.0,0.15,0.0,0.0,0.21634811,-0.08337957,0.052844644,-0.01557201,-0.115520656,0.06394887,0.06735638,0.16903931,-0.00025689602,-0.061108235,0.07847941,-0.022686362,1.0633383,-2.6204634,-0.04502628,-0.79790646,0.4419161,0.99892884,1.3892906,0.6827119,0.59172976,0.482318,-0.57608014,-0.6077253,-2.189876,-0.052350998,-0.14435412,0.95073664,2.5375762,-0.16651694,0.07267015,-1.396929,0.7785516,1.5968951,-0.83035266,0.19290456,0.1563141,-0.2640823,0.08352361,0.0773187,0.14662099,0.13835853,0.19272703,0.16192456,0.13099574,0.12244803,0.018585628,-0.038651213,0.11987435,0.23272496,0.23272496,-0.22669227,0.64962995,-0.13537008,0.099992685,-1.5181141,0.051885962,0.09253368,-0.029415656,-0.029415656,0.18702304,0.6839585,-0.101041555,0.14878798,-1.4862596,0.08374047,0.17028058,0.09497328,0.09497328,0.14638832,0.9646822,0.1796822,0.11913439,-1.5570313,0.012968779,0.14007835,-0.04802126,-0.04802126,0.0027775597,0.85007584,0.065075815,-0.023705529,-1.6042459,-0.03424585
49,0.98,0.105000004,0.0,0.0,0.0,0.0,0.0,0.0,0.0,-1.0,0.15,0.0,0.0,0.23272496,-0.13537008,0.051885962,-0.029415656,-0.101041555,0.08374047,0.09497328,0.1796822,0.012968779,-0.04802126,0.065075815,-0.03424585,0.8188429,-2.5995255,-0.047933225,-0.6921823,0.72395515,0.9895777,1.3808451,0.5321436,0.661282,0.65434873,-0.6701811,-0.5779728,-2.6155515,0.93222106,-0.014950236,1.2256787,2.549994,-0.36834946,-0.4690647,-1.6185472,0.49367037,1.4958024,-0.7307749,0.452217,0.11987435,-0.22669227,0.099992685,0.09253368,0.18702304,0.14878798,0.17028058,0.14638832,0.11913439,0.14007835,0.0027775597,-0.023705529,0.076948956,0.24326977,0.24326977,-0.17151879,0.6002763,-0.18472373,0.1153154,-1.5188881,0.051111937,0.10561149,-0.040624857,-0.040624857,0.220406,0.70400494,-0.08099508,0.14603272,-1.4672433,0.10275674,0.13766071,0.121195376,0.121195376,0.12754425,0.97182417,0.18682414,0.10516952,-1.5430138,0.026986241,0.15008558,-0.03180258,-0.03180258,-0.005037049,0.83510125,0.05010122,-0.003362244,-1.6146162,-0.044616103
50,1.0,0.105000004,0.0,0.0,0.0,0.0,0.0,0.0,0.0,-1.0,0.15,0.0,0.0,0.24326977,-0.18472373,0.051111937,-0.040624857,-0.08099508,0.10275674,0.121195376,0.18682414,0.026986241,-0.03180258,0.05010122,-0.044616103,0.52724,-2.467682,-0.03870237,-0.56046,1.0023226,0.9508141,1.3111047,0.35709807,0.7008736,0.81093407,-0.7487289,-0.5185108,-2.993672,1.9777443,0.10092952,1.4425389,2.4362152,-0.64456004,-1.0477755,-1.8084314,0.19016969,1.301211,-0.5569817,0.7255328,0.076948956,-0.17151879,0.1153154,0.10561149,0.220406,0.14603272,0.13766071,0.12754425,0.10516952,0.15008558,-0.005037049,-0.003362244,0.028864108,0.24715404,0.24715404,-0.0989553,0.555894,-0.22910601,0.12566254,-1.5193155,0.05068457,0.1162333,-0.048800275,-0.048800275,0.24534252,0.72927296,-0.055727065,0.12107577,-1.4498656,0.12013447,0.09556497,0.14473258,0.14473258,0.105094485,0.97503495,0.19003493,0.09258301,-1.5287923,0.04120779,0.15343048,-0.012934649,-0.012934649,-8.128025e-05,0.8190821,0.034082055,0.018695908,-1.6232265,-0.05322647
51,1.02,0.105000004,0.0,0.0,0.0,0.0,0.0,0.0,0.0,-1.0,0.15,0.0,0.0,0.24715404,-0.22910601,0.05068457,-0.048800275,-0.055727065,0.12013447,0.14473258,0.19003493,0.04120779,-0.012934649,0.034082055,-0.05322647,0.19421339,-2.2191129,-0.021366427,-0.40877083,1.2633996,0.86888826,1.1768601,0.16054004,0.71107996,0.94339657,-0.800958,-0.43051693,-3.3047192,3.0473843,0.1751819,1.5949419,2.1943603,-1.0428847,-1.6397479,-1.9633576,-0.09948768,1.0286833,-0.28548795,0.97936547,0.028864108,-0.0989553,0.12566254,0.1162333,0.24534252,0.12107577,0.09556497,0.105094485,0.09258301,0.15343048,-8.128025e-05,0.018695908,-0.023511998,0.2436956,0.2436956,-0.0133368,0.5188052,-0.26619482,0.12627894,-1.5193838,0.050616264,0.12572959,-0.05365286,-0.05365286,0.25937167,0.75912607,-0.025873959,0.07006646,-1.4352877,0.13471234,0.049807344,0.16434968,0.16434968,0.079197794,0.97395647,0.18895644,0.081006296,-1.5149317,0.055068374,0.15099563,0.007956561,0.007956561,0.019913709,0.80277187,0.01777184,0.04120537,-1.629563,-0.05956292
52,1.04,0.105000004,0.0,0.0,0.0,0.0,0.0,0.0,0.0,-1.0,0.15,0.0,0.0,0.2436956,-0.26619482,0.050616264,-0.05365286,-0.025873959,0.13471234,0.16434968,0.18895644,0.055068374,0.007956561,0.01777184,-0.05956292,-0.1729218,-1.8544415,-0.0034168176,-0.24262923,1.492656,0.72889316,0.980855,-0.05392337,0.69302756,1.0445606,-0.8155103,-0.3168237,-3.534821,4.0784364,0.17614448,1.6894782,1.8195995,-1.570442,-2.1876493,-2.0780642,-0.37023982,0.69488305,0.08631243,1.1983564,-0.023511998,-0.0133368,0.12627894,0.12572959,0.25937167,0.07006646,0.049807344,0.079197794,0.081006296,0.15099563,0.019913709,0.04120537,-0.07313409,0.23247282,0.23247282,0.062457673,0.49093437,-0.29406565,0.1163426,-1.519239,0.050761104,0.13465714,-0.055001505,-0.055001505,0.25969318,0.79262286,0.007622838,0.004871412,-1.4247634,0.14523661,0.008492743,0.17901307,0.17901307,0.058891393,0.96843755,0.18343753,0.06968253,-1.5019702,0.06802988,0.14386283,0.030137679,0.030137679,0.04852266,0.7870348,0.0020347834,0.06178713,-1.6332146,-0.06321454
53,1.06,0.105000004,0.0,0.0,0.0,0.0,0.0,0.0,0.0,-1.0,0.15,0.0,0.0,0.23247282,-0.29406565,0.050761104,-0.055001505,0.007622838,0.14523661,0.17901307,0.18343753,0.06802988,0.030137679,0.0020347834,-0.06321454,-0.56113935,-1.3935418,0.007242197,-0.067432135,1.6748409,0.5262124,0.73316985,-0.27594423,0.648077,1.1090559,-0.7868527,-0.18258084,-3.6318848,4.888573,0.10200423,1.7288048,1.3091704,-2.125504,-2.6226945,-2.089659,-0.6201786,0.31893888,0.5000167,1.3613329,-0.07313409,0.062457673,0.1163426,0.13465714,0.25969318,0.004871412,0.008492743,0.058891393,0.06968253,0.14386283,0.04852266,0.06178713,-0.1110129,0.21345596,0.21345596,0.12034581,0.4736511,-0.31134892,0.09864489,-1.5191379,0.050862193,0.1401631,-0.052815456,-0.052815456,0.2423011,0.82849455,0.043494523,-0.057644464,-1.4193654,0.15063465,-0.022875201,0.18799193,0.18799193,0.038367156,0.958452,0.17345196,0.06099759,-1.4903706,0.07962942,0.13374785,0.052815065,0.052815065,0.078956634,0.77272385,-0.012276173,0.08251744,-1.6338533,-0.063853264
54,1.08,0.105000004,0.0,0.0,0.0,0.0,0.0,0.0,0.0,-1.0,0.15,0.0,0.0,0.21345596,-0.31134892,0.050862193,-0.052815456,0.043494523,0.15063465,0.18799193,0.17345196,0.07962942,0.052815065,-0.012276173,-0.063853264,-0.950843,-0.8641628,0.0050543193,0.10930252,1.7935835,0.269901,0.44894284,-0.49927709,0.5799796,1.1338693,-0.7155473,-0.031936377,-3.5372715,5.4087048,-0.022768937,1.6943254,0.65672433,-2.5771718,-2.8997598,-2.0399308,-0.82702464,-0.07530461,0.896294,1.4792321,-0.1110129,0.12034581,0.09864489,0.1401631,0.2423011,-0.057644464,-0.022875201,0.038367156,0.06099759,0.13374785,0.078956634,0.08251744,-0.13522926,0.18702553,0.18702553,0.16228321,0.4677724,-0.31722763,0.0813865,-1.519324,0.050676107,0.13948008,-0.047250316,-0.047250316,0.20881853,0.8652109,0.080210865,-0.10283417,-1.4197544,0.15024567,-0.044234093,0.19087225,0.19087225,0.018025793,0.9441018,0.15910178,0.05255147,-1.4805434,0.08945668,0.12215488,0.07517954,0.07517954,0.10462185,0.7605648,-0.024435222,0.10490327,-1.6312202,-0.06122017
55,1.1,0.105000004,0.0,0.0,0.0,0.0,0.0,0.0,0.0,-1.0,0.15,0.0,0.0,0.18702553,-0.31722763,0.050676107,-0.047250316,0.080210865,0.15024567,0.19087225,0.15910178,0.08945668,0.07517954,-0.024435222,-0.06122017,-1.3215215,-0.2939362,-0.009303458,0.27825695,1.8358182,-0.019449085,0.14401564,-0.71750915,0.49136496,1.1182238,-0.60795224,0.13165691,-3.2477975,5.6477137,-0.13752672,1.5710833,-0.101818606,-2.818611,-3.0164142,-1.9290425,-1.0024605,-0.46580315,1.2203548,1.5598072,-0.13522926,0.16228321,0.0813865,0.13948008,0.20881853,-0.10283417,-0.044234093,0.018025793,0.05255147,0.12215488,0.10462185,0.10490327,-0.14733738,0.15393,0.15393,0.19193482,0.47360423,-0.3113958,0.069567345,-1.5199505,0.050049543,0.13430727,-0.038615428,-0.038615428,0.16635787,0.9011292,0.11612916,-0.12431925,-1.4260814,0.14391863,-0.060670134,0.18748963,0.18748963,0.0020894213,0.92567044,0.14067042,0.04318494,-1.4728521,0.09714794,0.10821454,0.09641725,0.09641725,0.1256421,0.7511408,-0.033859253,0.12237111,-1.6252229,-0.05522287
56,1.12,0.105000004,0.0,0.0,0.0,0.0,0.0,0.0,0.0,-1.0,0.15,0.0,0.0,0.15393,-0.3113958,0.050049543,-0.038615428,0.11612916,0.14391863,0.18748963,0.14067042,0.09714794,0.09641725,-0.033859253,-0.05522287,-1.6547769,0.29159135,-0.031329513,0.43174428,1.7959138,-0.31634974,-0.16913098,-0.9215689,0.38456234,1.0618852,-0.4712026,0.2998652,-2.789235,5.6331034,-0.20620243,1.3771483,-0.89232254,-2.8091722,-3.0089543,-1.7335837,-1.1500713,-0.8471921,1.4666126,1.5577509,-0.14733738,0.19193482,0.069567345,0.13430727,0.16635787,-0.12431925,-0.060670134,0.0020894213,0.04318494,0.10821454,0.1256421,0.12237111,-0.14568532,0.115279116,0.115279116,0.21134783,0.49097404,-0.294026,0.06291678,-1.5210826,0.048917413,0.1280124,-0.027314374,-0.027314374,0.12052963,0.9346212,0.14962119,-0.12239995,-1.4379998,0.13200021,-0.07357669,0.1779084,0.1779084,-0.006082969,0.9036575,0.11865747,0.03467438,-1.4675802,0.10241985,0.09162067,0.11572825,0.11572825,0.14148915,0.7448718,-0.04012823,0.1322104,-1.6159724,-0.045972347
57,1.1400000000000001,0.105000004,0.0,0.0,0.0,0.0,0.0,0.0,0.0,-1.0,0.15,0.0,0.0,0.115279116,-0.294026,0.048917413,-0.027314374,0.14962119,0.13200021,0.1779084,0.11865747,0.10241985,0.11572825,-0.04012823,-0.045972347,-1.932544,0.86849076,-0.056605235,0.5650527,1.6746018,-0.5959234,-0.479061,-1.1006479,0.26359782,0.9655503,-0.3134484,0.46252775,-2.1698942,5.3873606,-0.23084123,1.1428754,-1.6528934,-2.5617816,-2.89078,-1.4396303,-1.2544206,-1.210583,1.6274469,1.4580796,-0.14568532,0.21134783,0.06291678,0.1280124,0.12052963,-0.12239995,-0.07357669,-0.006082969,0.03467438,0.09162067,0.14148915,0.1322104,-0.13346341,0.072459556,0.072459556,0.22193308,0.5192668,-0.26573324,0.06338046,-1.5226699,0.04733014,0.1243858,-0.013778342,-0.013778342,0.076874666,0.96419626,0.17919624,-0.10423642,-1.4547876,0.11521244,-0.08127805,0.16243781,0.16243781,-0.005614008,0.87877184,0.093771815,0.029507628,-1.4648894,0.105110645,0.0747859,0.13238241,0.13238241,0.1532818,0.7420228,-0.042977214,0.13471724,-1.6037706,-0.03377056
58,1.16,0.105000004,0.0,0.0,0.0,0.0,0.0,0.0,0.0,-1.0,0.15,0.0,0.0,0.072459556,-0.26573324,0.04733014,-0.013778342,0.17919624,0.11521244,0.16243781,0.093771815,0.105110645,0.13238241,-0.042977214,-0.03377056,-2.140978,1.4146366,-0.07936475,0.6768016,1.4787539,-0.839387,-0.77352995,-1.2442826,0.13453902,0.83270764,-0.14244886,0.61009043,-1.4348431,4.9342847,-0.19991107,0.9011649,-2.325526,-2.1411757,-2.6574285,-1.0534759,-1.297285,-1.5297022,1.7088413,1.2693868,-0.13346341,0.22193308,0.06338046,0.1243858,0.076874666,-0.10423642,-0.08127805,-0.005614008,0.029507628,0.0747859,0.1532818,0.13471724,-0.108380504,0.02712147,0.02712147,0.22072037,0.55741113,-0.22758889,0.07113863,-1.5245484,0.04545164,0.12663423,0.001591499,0.001591499,0.03137376,0.98848325,0.20348322,-0.07525728,-1.475452,0.094548106,-0.08389117,0.14161578,0.14161578,0.006228666,0.85194504,0.06694502,0.025696741,-1.4648465,0.10515356,0.05624661,0.1457176,0.1457176,0.16556245,0.74276346,-0.042236567,0.1289879,-1.5891103,-0.019110203
59,1.18,0.105000004,0.0,0.0,0.0,0.0,0.0,0.0,0.0,-1.0,0.15,0.0,0.0,0.02712147,-0.22758889,0.04545164,0.001591499,0.20348322,0.094548106,0.14161578,0.06694502,0.10515356,0.1457176,-0.042236567,-0.019110203,-2.2669044,1.9072162,-0.093925156,0.76849204,1.2143507,-1.0332192,-1.0411019,-1.3413403,0.0021429062,0.6667599,0.03703177,0.7330185,-0.59430695,4.2735553,-0.115810595,0.67972046,-2.920593,-1.6025019,-2.3199944,-0.5717078,-1.2927868,-1.8063425,1.7413619,0.9945329,-0.108380504,0.22072037,0.07113863,0.12663423,0.03137376,-0.07525728,-0.08389117,0.006228666,0.025696741,0.05624661,0.16556245,0.1289879,-0.062124692,-0.018757649,-0.018757649,0.20058715,0.6038207,-0.18117934,0.08982789,-1.5263969,0.04360318,0.13894829,0.01849318,0.01849318,-0.018858247,1.0062258,0.2212258,-0.040303875,-1.498832,0.071168065,-0.078792475,0.11622513,0.11622513,0.034002416,0.82436365,0.039363623,0.020736193,-1.4674586,0.10254145,0.032744974,0.15511109,0.15511109,0.18504727,0.7472596,-0.03774041,0.11753283,-1.5726212,-0.0026211739
60,1.2,0.105000004,0.0,0.0,0.0,0.0,0.0,0.0,0.0,-1.0,0.15,0.0,0.0,-0.018757649,-0.18117934,0.04360318,0.01849318,0.2212258,0.071168065,0.11622513,0.039363623,0.10254145,0.15511109,-0.03774041,-0.0026211739,-2.293956,2.3204784,-0.092423804,0.84508395,0.88712907,-1.169002,-1.2695323,-1.3790694,-0.13060816,0.46967453,0.22480728,0.82445323,0.37828368,3.3837059,0.040531598,0.5109134,-3.4420795,-0.99792004,-1.8740114,0.017902922,-1.2590808,-2.0550623,1.7697427,0.6615568,-0.062124692,0.20058715,0.08982789,0.13894829,-0.018858247,-0.040303875,-0.078792475,0.034002416,0.020736193,0.032744974,0.18504727,0.11753283,0.008665673,-0.06288914,-0.06288914,0.15476374,0.65635616,-0.12864387,0.12204037,-1.5277133,0.042286754,0.16832905,0.036828015,0.036828015,-0.063733146,1.016456,0.23145598,-0.0041550854,-1.5237018,0.046298265,-0.06116507,0.08733325,0.08733325,0.08345556,0.7975104,0.012510359,0.013313505,-1.4726928,0.097307205,0.007950708,0.16004734,0.16004734,0.21313618,0.7556885,-0.029311538,0.10096977,-1.555041,0.014959097
61,1.22,0.105000004,0.0,0.0,0.0,0.0,0.0,0.0,0.0,-1.0,0.15,0.0,0.0,-0.06288914,-0.12864387,0.042286754,0.036828015,0.23145598,0.046298265,0.08733325,0.012510359,0.097307205,0.16004734,-0.029311538,0.014959097,-2.2065744,2.6267726,-0.0658219,0.9167418,0.5115087,-1.2434899,-1.4445943,-1.342662,-0.2617121,0.24681231,0.42144382,0.87901485,1.4706854,2.2539346,0.2780646,0.44269305,-3.8092773,-0.37882426,-1.3041183,0.73128283,-1.2062953,-2.244243,1.8011684,0.2863976,0.008665673,0.15476374,0.12204037,0.16832905,-0.063733146,-0.0041550854,-0.06116507,0.08345556,0.013313505,0.007950708,0.21313618,0.10096977,0.089110255,-0.10295303,-0.10295303,0.09631067,0.71258116,-0.07241887,0.1606957,-1.5279324,0.042067647,0.2101396,0.056633584,0.056633584,-0.096235305,1.0186126,0.2336126,0.013480752,-1.5490823,0.020917773,-0.030397292,0.05626387,0.05626387,0.1434412,0.77295953,-0.012040496,0.0022935073,-1.4804939,0.08950615,-0.004216917,0.16032475,0.16032475,0.2472391,0.7681971,-0.016802907,0.08340921,-1.5371337,0.03286636
62,1.24,0.105000004,0.0,0.0,0.0,0.0,0.0,0.0,0.0,-1.0,0.15,0.0,0.0,-0.10295303,-0.07241887,0.042067647,0.056633584,0.2336126,0.020917773,0.05626387,-0.012040496,0.08950615,0.16032475,-0.016802907,0.03286636,-2.0031946,2.811249,-0.010956582,0.9902785,0.10782945,-1.2690272,-1.5534687,-1.2275437,-0.3900556,0.013870716,0.62543267,0.89536226,2.5458808,1.0133387,0.53855306,0.44044018,-3.9701023,0.106082365,-0.6276428,1.4672658,-1.1434176,-2.2773938,1.8158108,-0.091150805,0.089110255,0.09631067,0.1606957,0.2101396,-0.096235305,0.013480752,-0.030397292,0.1434412,0.0022935073,-0.004216917,0.2472391,0.08340921,0.16188267,-0.13690636,-0.13690636,0.047316954,0.7701469,-0.01485312,0.19471183,-1.5265982,0.043401837,0.25205132,0.0779068,0.0779068,-0.11210391,1.0126069,0.22760683,0.019106783,-1.5741719,-0.0041718483,0.0043921163,0.024426263,0.024426263,0.19429708,0.75205517,-0.032944858,-0.0071643526,-1.4907143,0.07928574,-0.0008216202,0.15609491,0.15609491,0.28297374,0.78483766,-0.00016236305,0.06299427,-1.5196946,0.050305486
63,1.26,0.105000004,0.0,0.0,0.0,0.0,0.0,0.0,0.0,-1.0,0.15,0.0,0.0,-0.13690636,-0.01485312,0.043401837,0.0779068,0.22760683,-0.0041718483,0.024426263,-0.032944858,0.07928574,0.15609491,-0.00016236305,0.050305486,-1.6976658,2.8782873,0.06671001,1.0636607,-0.30028883,-1.2544806,-1.5918804,-1.045218,-0.51101786,-0.21149196,0.832028,0.87195665,3.4573073,-0.15162691,0.73934734,0.41838545,-3.899154,0.4932293,0.07082846,2.07216,-1.0375057,-2.1403222,1.7834027,-0.47258672,0.16188267,0.047316954,0.19471183,0.25205132,-0.11210391,0.019106783,0.0043921163,0.19429708,-0.0071643526,-0.0008216202,0.28297374,0.06299427,0.2115337,-0.16324994,-0.16324994,0.024166234,0.82708526,0.04208523,0.22048542,-1.5234245,0.046575546,0.28132638,0.10042664,0.10042664,-0.11865414,0.99871105,0.21371102,0.022572637,-1.5982265,-0.028226495,0.02591383,-0.0069683865,-0.0069683865,0.22691312,0.73575175,-0.04924828,-0.013024406,-1.5030917,0.06690836,0.007142201,0.14769591,0.14769591,0.31171548,0.8054474,0.020447373,0.04543988,-1.5034463,0.06655371
64,1.28,0.105000004,0.0,0.0,0.0,0.0,0.0,0.0,0.0,-1.0,0.15,0.0,0.0,-0.16324994,0.04208523,0.046575546,0.10042664,0.21371102,-0.028226495,-0.0069683865,-0.04924828,0.06690836,0.14769591,0.020447373,0.06655371,-1.3171794,2.846919,0.15868622,1.1259918,-0.69478935,-1.2027316,-1.5697324,-0.81517076,-0.6188705,-0.4199495,1.0304874,0.81241,4.0823584,-1.1032902,0.85325575,0.2930737,-3.655784,0.8418358,0.65569,2.4735084,-0.8793584,-1.9169594,1.6484282,-0.8086507,0.2115337,0.024166234,0.22048542,0.28132638,-0.11865414,0.022572637,0.02591383,0.22691312,-0.013024406,0.007142201,0.31171548,0.04543988,0.23532489,-0.18109573,-0.18109573,0.02170191,0.88178253,0.096782506,0.23098782,-1.5183972,0.05160284,0.2931101,0.123697594,0.123697594,-0.11437395,0.9775636,0.1925636,0.028360713,-1.6205165,-0.050516486,0.033003993,-0.03695239,-0.03695239,0.24016619,0.7245809,-0.060419142,-0.017170751,-1.5172858,0.05271423,0.008989975,0.13548887,0.13548887,0.32715696,0.8295702,0.044570148,0.03380779,-1.4889783,0.081021786
65,1.3,0.105000004,0.0,0.0,0.0,0.0,0.0,0.0,0.0,-1.0,0.15,0.0,0.0,-0.18109573,0.096782506,0.05160284,0.123697594,0.1925636,-0.050516486,-0.03695239,-0.060419142,0.05271423,0.13548887,0.044570148,0.081021786,-0.89228976,2.734865,0.25136346,1.1635478,-1.0573716,-1.1144966,-1.4992003,-0.5585427,-0.70970875,-0.61035204,1.2061392,0.7234024,4.396764,-1.8594091,0.8341476,0.040752936,-3.2427382,1.1732342,1.1081696,2.6610816,-0.68786377,-1.6874297,1.376643,-1.0712674,0.23532489,0.02170191,0.23098782,0.2931101,-0.11437395,0.028360713,0.033003993,0.24016619,-0.017170751,0.008989975,0.32715696,0.03380779,0.24151269,-0.19006138,-0.19006138,0.02792149,0.9328481,0.14784807,0.22863635,-1.5117346,0.058265448,0.29349324,0.14705542,0.14705542,-0.10186041,0.9501059,0.16510588,0.033563573,-1.6403872,-0.070387125,0.029686868,-0.0647665,-0.0647665,0.2444483,0.71879214,-0.066207886,-0.019957786,-1.5328947,0.037105322,0.0029692128,0.11982268,0.11982268,0.32713115,0.8564459,0.07144588,0.02989978,-1.4767075,0.093292594
66,1.32,0.105000004,0.0,0.0,0.0,0.0,0.0,0.0,0.0,-1.0,0.15,0.0,0.0,-0.19006138,0.14784807,0.058265448,0.14705542,0.16510588,-0.070387125,-0.0647665,-0.066207886,0.037105322,0.11982268,0.07144588,0.093292594,-0.44828188,2.5532777,0.33313215,1.1678913,-1.372886,-0.99353105,-1.3907053,-0.28943712,-0.7804461,-0.7833096,1.3437854,0.6135401,4.459036,-2.4872096,0.7047859,-0.28461707,-2.6950126,1.4588125,1.4483083,2.7075133,-0.4718719,-1.4687388,0.9671672,-1.244047,0.24151269,0.02792149,0.22863635,0.29349324,-0.10186041,0.033563573,0.029686868,0.2444483,-0.019957786,0.0029692128,0.32713115,0.02989978,0.23819858,-0.19015534,-0.19015534,0.035863973,0.9790504,0.19405037,0.21945801,-1.5037909,0.0662092,0.28712493,0.16975485,0.16975485,-0.08633217,0.9174756,0.13247555,0.035512537,-1.6573129,-0.08731282,0.021407507,-0.089799896,-0.089799896,0.24491167,0.7184249,-0.06657511,-0.022500338,-1.549483,0.02051711,-0.007846266,0.101067595,0.101067595,0.3154547,0.8850925,0.10009247,0.031960182,-1.4668959,0.103104115
67,1.34,0.105000004,0.0,0.0,0.0,0.0,0.0,0.0,0.0,-1.0,0.15,0.0,0.0,-0.19015534,0.19405037,0.0662092,0.16975485,0.13247555,-0.08731282,-0.089799896,-0.06657511,0.02051711,0.101067595,0.10009247,0.103104115,-0.004698217,2.3101165,0.397186,1.1349717,-1.6315174,-0.8462856,-1.2516701,-0.01836142,-0.82941306,-0.9377543,1.4323286,0.4905777,4.330693,-3.020085,0.5139533,-0.6390866,-2.067419,1.6740751,1.707452,2.65084,-0.24568233,-1.2448092,0.4631296,-1.3374746,0.23819858,0.035863973,0.21945801,0.28712493,-0.08633217,0.035512537,0.021407507,0.24491167,-0.022500338,-0.007846266,0.3154547,0.031960182,0.2284514,-0.18172438,-0.18172438,0.041533656,1.0192919,0.23429185,0.20395389,-1.4950362,0.07496381,0.27537537,0.19101162,0.19101162,-0.06854409,0.88095945,0.095959425,0.035847567,-1.6708857,-0.10088563,0.01154616,-0.111556455,-0.111556455,0.24280062,0.72332984,-0.061670184,-0.024538798,-1.5665911,0.0034089088,-0.021327354,0.07963416,0.07963416,0.29528886,0.914383,0.12938297,0.037034236,-1.4596883,0.11031175
68,1.36,0.105000004,0.0,0.0,0.0,0.0,0.0,0.0,0.0,-1.0,0.15,0.0,0.0,-0.18172438,0.23429185,0.07496381,0.19101162,0.095959425,-0.10088563,-0.111556455,-0.061670184,0.0034089088,0.07963416,0.12938297,0.11031175,0.421548,2.0120769,0.43772846,1.0628384,-1.8258076,-0.6786434,-1.0878279,0.24524483,-0.85540825,-1.071672,1.4645255,0.36038208,4.0421295,-3.4722486,0.27312973,-1.0016164,-1.3850462,1.8262068,1.9036922,2.504128,-0.014198017,-1.0069684,-0.09582524,-1.3716162,0.2284514,0.041533656,0.20395389,0.27537537,-0.06854409,0.035847567,0.01154616,0.24280062,-0.024538798,-0.021327354,0.29528886,0.037034236,0.21410832,-0.16540997,-0.16540997,0.0403307,1.0525721,0.2675721,0.18133777,-1.486052,0.083948016,0.25897542,0.21003556,0.21003556,-0.05091541,0.84192,0.056919992,0.038598675,-1.6807677,-0.1107676,0.0036968524,-0.12961552,-0.12961552,0.23959605,0.7331981,-0.05180192,-0.024532378,-1.5837276,-0.013727546,-0.035462394,0.055988893,0.055988893,0.27025363,0.9431313,0.1581313,0.041402027,-1.4551628,0.11483729
69,1.3800000000000001,0.105000004,0.0,0.0,0.0,0.0,0.0,0.0,0.0,-1.0,0.15,0.0,0.0,-0.16540997,0.2675721,0.083948016,0.21003556,0.056919992,-0.1107676,-0.12961552,-0.05180192,-0.013727546,0.055988893,0.1581313,0.11483729,0.8157208,1.6640099,0.44921014,0.95119685,-1.9519721,-0.49409693,-0.9029532,0.4934144,-0.85682356,-1.1822634,1.4374182,0.22627793,3.6187248,-3.8630574,-0.01371783,-1.3559573,-0.6848141,1.9395212,2.057204,2.2839794,0.22609708,-0.74833804,-0.66704303,-1.3722141,0.21410832,0.0403307,0.18133777,0.25897542,-0.05091541,0.038598675,0.0036968524,0.23959605,-0.024532378,-0.035462394,0.27025363,0.041402027,0.1954869,-0.1421188,-0.1421188,0.029264241,1.0779713,0.2929713,0.1531854,-1.4774894,0.0925107,0.23902217,0.22606824,0.22606824,-0.0318558,0.8017778,0.016777754,0.045882054,-1.6866686,-0.11666858,0.00042644236,-0.14360596,-0.14360596,0.23693964,0.74759716,-0.03740287,-0.02297141,-1.6003901,-0.030390024,-0.04896014,0.03065798,0.03065798,0.24205244,0.97015077,0.18515074,0.044302344,-1.453341,0.116659045
70,1.4000000000000001,0.105000004,0.0,0.0,0.0,0.0,0.0,0.0,0.0,-1.0,0.15,0.0,0.0,-0.1421188,0.2929713,0.0925107,0.22606824,0.016777754,-0.11666858,-0.14360596,-0.03740287,-0.030390024,0.03065798,0.18515074,0.116659045,1.1645583,1.2699577,0.42813164,0.80163383,-2.0071118,-0.29504657,-0.69952214,0.7199529,-0.8331212,-1.2665457,1.350973,0.091086626,3.0785775,-4.2015386,-0.3256038,-1.6841923,0.023827553,2.0253453,2.181354,2.0094292,0.46460968,-0.4679617,-1.2219769,-1.3449719,0.1954869,0.029264241,0.1531854,0.23902217,-0.0318558,0.045882054,0.00042644236,0.23693964,-0.02297141,-0.04896014,0.24205244,0.044302344,0.17469049,-0.11296163,-0.11296163,0.00732366,1.0946603,0.30966026,0.12309598,-1.4699992,0.10000086,0.2178599,0.23843627,0.23843627,-0.014837883,0.76192147,-0.02307856,0.056744516,-1.6883668,-0.11836672,0.003808041,-0.15318635,-0.15318635,0.23768914,0.76602554,-0.018974483,-0.020458253,-1.6160882,-0.0460881,-0.061458934,0.0042161606,0.0042161606,0.21436574,0.99433863,0.2093386,0.044770412,-1.4542027,0.1157974
71,1.42,0.105000004,0.0,0.0,0.0,0.0,0.0,0.0,0.0,-1.0,0.15,0.0,0.0,-0.11296163,0.30966026,0.10000086,0.23843627,-0.02307856,-0.11836672,-0.15318635,-0.018974483,-0.0460881,0.0042161606,0.2093386,0.1157974,1.4578586,0.83444536,0.37450868,0.61840105,-1.9928164,-0.08490825,-0.4790196,0.92142045,-0.784901,-1.322091,1.2093946,-0.043082774,2.45441,-4.4842453,-0.62822217,-1.9615047,0.69751084,2.074724,2.2862298,1.7083257,0.6904021,-0.17193699,-1.7204351,-1.2974304,0.17469049,0.00732366,0.12309598,0.2178599,-0.014837883,0.056744516,0.003808041,0.23768914,-0.020458253,-0.061458934,0.21436574,0.044770412,0.15379444,-0.07918818,-0.07918818,-0.024850711,1.1019303,0.31693023,0.094605125,-1.4641644,0.105835676,0.19582343,0.24657276,0.24657276,0.0016483888,0.723691,-0.06130904,0.07029393,-1.6857258,-0.115725756,0.014898499,-0.15803902,-0.15803902,0.2419323,0.78793,0.0029299855,-0.01651352,-1.6303501,-0.06035006,-0.07008135,-0.022690246,-0.022690246,0.18796141,1.014716,0.229716,0.042002976,-1.4576979,0.112302184
72,1.44,0.105000004,0.0,0.0,0.0,0.0,0.0,0.0,0.0,-1.0,0.15,0.0,0.0,-0.07918818,0.31693023,0.105835676,0.24657276,-0.06130904,-0.115725756,-0.15803902,0.0029299855,-0.06035006,-0.022690246,0.229716,0.112302184,1.6886723,0.36349878,0.29174292,0.40682507,-1.911525,0.13204867,-0.2426333,1.0952232,-0.7130996,-1.3453203,1.0188681,-0.17476311,1.7799141,-4.6982183,-0.88948125,-2.1788926,1.3286316,2.080526,2.3750677,1.3896525,0.90044963,0.14997087,-2.1448221,-1.236267,0.15379444,-0.024850711,0.094605125,0.19582343,0.0016483888,0.07029393,0.014898499,0.2419323,-0.01651352,-0.07008135,0.18796141,0.042002976,0.13721132,-0.04208707,-0.04208707,-0.06540157,1.0992361,0.3142361,0.0710287,-1.4604386,0.10956144,0.17239831,0.2500235,0.2500235,0.017571837,0.68834066,-0.09665936,0.08575218,-1.6787074,-0.10870731,0.03445488,-0.15786776,-0.15786776,0.24949792,0.8127197,0.027719676,-0.010301613,-1.6427243,-0.07272422,-0.07235782,-0.04932858,-0.04932858,0.16100533,1.0304264,0.24542636,0.035942785,-1.4637505,0.10624957
73,1.46,0.105000004,0.0,0.0,0.0,0.0,0.0,0.0,0.0,-1.0,0.15,0.0,0.0,-0.04208707,0.3142361,0.10956144,0.2500235,-0.09665936,-0.10870731,-0.15786776,0.027719676,-0.07272422,-0.04932858,0.24542636,0.10624957,1.8550556,-0.13470861,0.18629125,0.17253825,-1.7675155,0.3509221,0.008562937,1.2394843,-0.6187062,-1.3319168,0.7855166,-0.3026319,1.1044849,-4.824786,-1.0813692,-2.33495,1.9004374,2.0379467,2.4492776,1.0609335,1.0945175,0.50375545,-2.4974554,-1.1632627,0.13721132,-0.06540157,0.0710287,0.17239831,0.017571837,0.08575218,0.03445488,0.24949792,-0.010301613,-0.07235782,0.16100533,0.035942785,0.13052455,-0.0028706044,-0.0028706044,-0.11284857,1.0862281,0.3012281,0.05561418,-1.4590913,0.11090875,0.15072574,0.24850096,0.24850096,0.035218067,0.6570383,-0.12796175,0.10078818,-1.6674025,-0.09740245,0.063418515,-0.15239246,-0.15239246,0.25783163,0.8397479,0.05474788,-0.00026272354,-1.6527689,-0.0827688,-0.06598894,-0.07487024,-0.07487024,0.13518986,1.0407804,0.2557804,0.025741385,-1.4722725,0.09772754
74,1.48,0.105000004,0.0,0.0,0.0,0.0,0.0,0.0,0.0,-1.0,0.15,0.0,0.0,-0.0028706044,0.3012281,0.11090875,0.24850096,-0.12796175,-0.09740245,-0.15239246,0.05474788,-0.0827688,-0.07487024,0.2557804,0.09772754,1.9608233,-0.65040016,0.0673642,-0.076127574,-1.5651194,0.5652419,0.2737652,1.3514113,-0.5022273,-1.277083,0.51770025,-0.4260992,0.4832627,-4.851037,-1.1795902,-2.4056625,2.41362,1.933493,2.5117204,0.7140128,1.2774585,0.89276075,-2.7588444,-1.0857322,0.13052455,-0.11284857,0.05561418,0.15072574,0.035218067,0.10078818,0.063418515,0.25783163,-0.00026272354,-0.06598894,0.13518986,0.025741385,0.13281696,0.03734448,0.03734448,-0.15614279,1.062912,0.27791196,0.049610324,-1.4601872,0.109812856,0.13487065,0.24194512,0.24194512,0.056402765,0.63085973,-0.1541403,0.11607219,-1.6520168,-0.08201671,0.09784079,-0.14141181,-0.14141181,0.25908342,0.8682217,0.083221674,0.013167414,-1.6600704,-0.09007037,-0.050280876,-0.09840647,-0.09840647,0.11421026,1.045323,0.260323,0.013249008,-1.4831408,0.086859226
75,1.5,0.105000004,0.0,0.0,0.0,0.0,0.0,0.0,0.0,-1.0,0.15,0.0,0.0,0.03734448,0.27791196,0.109812856,0.24194512,-0.1541403,-0.08201671,-0.14141181,0.083221674,-0.09007037,-0.09840647,0.260323,0.086859226,2.0107543,-1.1658099,-0.05479753,-0.3277924,-1.3089281,0.76929003,0.5490328,1.4236888,-0.36508036,-1.1768113,0.22713006,-0.54341716,-0.07568512,-4.703973,-1.1769559,-2.3644671,2.8669267,1.7761095,2.5328832,0.306795,1.4407761,1.3081591,-2.8995614,-0.99286664,0.13281696,-0.15614279,0.049610324,0.13487065,0.056402765,0.11607219,0.09784079,0.25908342,0.013167414,-0.050280876,0.11421026,0.013249008,0.14111605,0.07752439,0.07752439,-0.18989672,1.0297153,0.24471527,0.051094137,-1.4636163,0.1063838,0.12654135,0.23054373,0.23054373,0.08040839,0.6107511,-0.17424893,0.13029104,-1.6328797,-0.06287968,0.13126609,-0.124897435,-0.124897435,0.2511653,0.8971982,0.112198174,0.029247357,-1.6642654,-0.09426534,-0.028735772,-0.119024746,-0.119024746,0.09830324,1.0438437,0.25884372,0.0018493328,-1.4961545,0.073845506
76,1.52,0.105000004,0.0,0.0,0.0,0.0,0.0,0.0,0.0,-1.0,0.15,0.0,0.0,0.07752439,0.24471527,0.1063838,0.23054373,-0.17424893,-0.06287968,-0.124897435,0.112198174,-0.09426534,-0.119024746,0.25884372,0.073845506,2.0089953,-1.6598349,-0.17145455,-0.5700696,-1.0054317,0.9568541,0.8257188,1.4488256,-0.20974681,-1.0309138,-0.07396102,-0.65068346,-0.57968795,-4.3569303,-1.0905657,-2.2050061,3.243647,1.5627075,2.469254,-0.1603357,1.574785,1.7126154,-2.917939,-0.86472714,0.14111605,-0.18989672,0.051094137,0.12654135,0.08040839,0.13029104,0.13126609,0.2511653,0.029247357,-0.028735772,0.09830324,0.0018493328,0.14867096,0.116650686,0.116650686,-0.21124172,0.9875059,0.20250589,0.05383549,-1.4691881,0.10081196,0.12374899,0.21469323,0.21469323,0.10495261,0.5974734,-0.18752664,0.14142007,-1.6104615,-0.04046142,0.15940046,-0.10305067,-0.10305067,0.235327,0.9256323,0.14063227,0.047361996,-1.6650572,-0.09505713,-0.006363839,-0.13590458,-0.13590458,0.08330891,1.0363188,0.25131875,-0.0064309146,-1.5110136,0.058986425
77,1.54,0.105000004,0.0,0.0,0.0,0.0,0.0,0.0,0.0,-1.0,0.15,0.0,0.0,0.116650686,0.20250589,0.10081196,0.21469323,-0.18752664,-0.04046142,-0.10305067,0.14063227,-0.09505713,-0.13590458,0.25131875,0.058986425,1.9563149,-2.1104693,-0.27859217,-0.7925249,-0.66388595,1.1209153,1.0923383,1.4217052,-0.039587945,-0.84399194,-0.3762509,-0.74295235,-1.0619285,-3.8072617,-0.96765757,-1.9492563,3.5193737,1.287381,2.2963514,-0.66277206,1.6718355,2.0606754,-2.8449998,-0.6925174,0.14867096,-0.21124172,0.05383549,0.12374899,0.10495261,0.14142007,0.15940046,0.235327,0.047361996,-0.006363839,0.08330891,-0.0064309146,0.14815786,0.15364595,0.15364595,-0.21877454,0.93757653,0.1525765,0.05732269,-1.4766464,0.09335363,0.12501074,0.19496189,0.19496189,0.12700644,0.59154314,-0.19345689,0.14851211,-1.5853691,-0.015369058,0.17764276,-0.076355815,-0.076355815,0.21522474,0.95245945,0.16745943,0.06340205,-1.6622807,-0.09228063,0.017541558,-0.1483284,-0.1483284,0.06853799,1.022897,0.23789698,-0.009754842,-1.5273043,0.04269576
78,1.56,0.105000004,0.0,0.0,0.0,0.0,0.0,0.0,0.0,-1.0,0.15,0.0,0.0,0.15364595,0.1525765,0.09335363,0.19496189,-0.19345689,-0.015369058,-0.076355815,0.16745943,-0.09228063,-0.1483284,0.23789698,0.04269576,1.8497629,-2.4964685,-0.37291676,-0.98656726,-0.2965109,1.2546178,1.334743,1.3413565,0.1388235,-0.6211906,-0.67109054,-0.8145309,-1.5578814,-3.0683408,-0.81619155,-1.617615,3.6686044,0.95364344,1.9921424,-1.1597843,1.7024248,2.3484743,-2.6897304,-0.47053748,0.14815786,-0.21877454,0.05732269,0.12501074,0.12700644,0.14851211,0.17764276,0.21522474,0.06340205,0.017541558,0.06853799,-0.009754842,0.13778895,0.18738028,0.18738028,-0.21261309,0.88159674,0.09659672,0.06295969,-1.4856582,0.08434188,0.12992024,0.17206405,0.17206405,0.14747992,0.59323674,-0.19176328,0.15351251,-1.5582994,0.01170063,0.18347578,-0.045595005,-0.045595005,0.19349967,0.9766629,0.19166285,0.07418466,-1.6559484,-0.08594835,0.042878762,-0.15570053,-0.15570053,0.052049227,1.0038649,0.21886486,-0.0068231206,-1.544495,0.025505066
79,1.58,0.105000004,0.0,0.0,0.0,0.0,0.0,0.0,0.0,-1.0,0.15,0.0,0.0,0.18738028,0.09659672,0.08434188,0.17206405,-0.19176328,0.01170063,-0.045595005,0.19166285,-0.08594835,-0.15570053,0.21886486,0.025505066,1.6867166,-2.7989895,-0.45059007,-1.1448921,0.084680945,1.3534824,1.5380404,1.2101705,0.31661385,-0.36860716,-0.9516057,-0.85953236,-2.0636134,-2.1688883,-0.6319271,-1.2246809,3.6967216,0.58594275,1.5535307,-1.619223,1.6465822,2.5684245,-2.4713778,-0.19854459,0.13778895,-0.21261309,0.06295969,0.12992024,0.14747992,0.15351251,0.18347578,0.19349967,0.07418466,0.042878762,0.052049227,-0.0068231206,0.11863158,0.21671918,0.21671918,-0.1917376,0.8215714,0.036571383,0.0704403,-1.4958291,0.07417095,0.13485159,0.14678589,0.14678589,0.16480058,0.6025663,-0.18243372,0.15437101,-1.5300459,0.039954185,0.17755857,-0.011809979,-0.011809979,0.16888042,0.99728316,0.21228313,0.080715634,-1.6462315,-0.07623148,0.065341756,-0.15762135,-0.15762135,0.033857115,0.9796353,0.19463527,0.0023503024,-1.5619543,0.008045793
80,1.6,0.105000004,0.0,0.0,0.0,0.0,0.0,0.0,0.0,-1.0,0.15,0.0,0.0,0.21671918,0.036571383,0.07417095,0.14678589,-0.18243372,0.039954185,-0.011809979,0.21228313,-0.07623148,-0.15762135,0.19463527,0.008045793,1.466945,-3.0012655,-0.50854635,-1.2639083,0.46647754,1.4126776,1.6892514,1.0310147,0.48584378,-0.09604064,-1.211478,-0.87296546,-2.5557144,-1.1338593,-0.42326006,-0.8077032,3.5957215,0.18219593,1.0028293,-2.0372443,1.5156476,2.687141,-2.1971393,0.11332293,0.11863158,-0.1917376,0.0704403,0.13485159,0.16480058,0.15437101,0.17755857,0.16888042,0.080715634,0.065341756,0.033857115,0.0023503024,0.09249969,0.2405808,0.2405808,-0.1578469,0.75975287,-0.025247157,0.076538794,-1.5067612,0.06323886,0.13814405,0.11993841,0.11993841,0.17905232,0.61928684,-0.16571319,0.14944744,-1.5014968,0.06850326,0.16138665,0.023754299,0.023754299,0.13913696,1.0134126,0.22841257,0.08336007,-1.6334463,-0.06344628,0.08203757,-0.15393414,-0.15393414,0.018607369,0.950798,0.16579795,0.016485361,-1.578989,-0.0089889765
81,1.62,0.105000004,0.0,0.0,0.0,0.0,0.0,0.0,0.0,-1.0,0.15,0.0,0.0,0.2405808,-0.025247157,0.06323886,0.11993841,-0.16571319,0.06850326,0.023754299,0.22841257,-0.06344628,-0.15393414,0.16579795,-0.0089889765,1.1930813,-3.0909278,-0.5466034,-1.3423738,0.83602595,1.4274508,1.778214,0.8064698,0.6392596,0.18436053,-1.4418668,-0.8517386,-3.006973,-0.009645557,-0.2183876,-0.38995972,3.372705,-0.25550178,0.37037507,-2.4173703,1.3183453,2.6850944,-1.8448718,0.44566113,0.09249969,-0.1578469,0.076538794,0.13814405,0.17905232,0.14944744,0.16138665,0.13913696,0.08336007,0.08203757,0.018607369,0.016485361,0.06142371,0.2579934,0.2579934,-0.1148455,0.698517,-0.086483,0.07991142,-1.5180829,0.051917195,0.13874918,0.09231949,0.09231949,0.19392091,0.6429609,-0.14203912,0.13682348,-1.4736356,0.0963645,0.13768701,0.05972753,0.05972753,0.10807363,1.0242723,0.2392723,0.08306949,-1.6180285,-0.04802847,0.09155454,-0.1447435,-0.1447435,0.009351572,0.9181413,0.13314128,0.030946696,-1.59493,-0.02493
82,1.6400000000000001,0.105000004,0.0,0.0,0.0,0.0,0.0,0.0,0.0,-1.0,0.15,0.0,0.0,0.2579934,-0.086483,0.051917195,0.09231949,-0.14203912,0.0963645,0.05972753,0.2392723,-0.04802847,-0.1447435,0.13314128,-0.02493,0.87063086,-3.0617914,-0.5660813,-1.3809462,1.1837045,1.3930638,1.7986617,0.5429884,0.77089083,0.45953187,-1.632833,-0.7970496,-3.3908932,1.1416733,-0.03160093,0.010198546,3.0619054,-0.7256744,-0.30405515,-2.7236142,1.0688717,2.557003,-1.4066367,0.75693905,0.06142371,-0.1148455,0.07991142,0.13874918,0.19392091,0.13682348,0.13768701,0.10807363,0.08306949,0.09155454,0.009351572,0.030946696,0.028043665,0.26815692,0.26815692,-0.06579543,0.6402512,-0.1447488,0.08210304,-1.529437,0.040563107,0.13792576,0.06470943,0.06470943,0.21117377,0.67300034,-0.11199969,0.112964086,-1.4475597,0.12244034,0.10814012,0.094679,0.094679,0.082303174,1.029324,0.24432403,0.0820084,-1.6004878,-0.030487776,0.094787285,-0.1303936,-0.1303936,0.007267406,0.8826422,0.09764218,0.04348042,-1.6091816,-0.03918159
83,1.6600000000000001,0.105000004,0.0,0.0,0.0,0.0,0.0,0.0,0.0,-1.0,0.15,0.0,0.0,0.26815692,-0.1447488,0.040563107,0.06470943,-0.11199969,0.12244034,0.094679,0.24432403,-0.030487776,-0.1303936,0.09764218,-0.03918159,0.5081755,-2.913289,-0.5677073,-1.3805027,1.501972,1.3037949,1.7475734,0.2525877,0.87703514,0.7174951,-1.7749556,-0.7125821,-3.679853,2.2651048,0.14308736,0.39086893,2.6857388,-1.2363265,-0.9879427,-2.9050353,0.79039896,2.3168225,-0.8901297,1.0239248,0.028043665,-0.06579543,0.08210304,0.13792576,0.21117377,0.112964086,0.10814012,0.082303174,0.0820084,0.094787285,0.007267406,0.04348042,-0.007775523,0.27045926,0.27045926,-0.013294183,0.58725065,-0.19774938,0.08423399,-1.5404751,0.029524922,0.13486136,0.037838213,0.037838213,0.22818884,0.70864946,-0.07635057,0.075299434,-1.4244838,0.14551628,0.07240798,0.12715434,0.12715434,0.06236288,1.0282866,0.24328655,0.07925441,-1.5814049,-0.011404872,0.094799876,-0.11140987,-0.11140987,0.015525496,0.8454785,0.06047845,0.05468092,-1.6212286,-0.051228523
84,1.68,0.105000004,0.0,0.0,0.0,0.0,0.0,0.0,0.0,-1.0,0.15,0.0,0.0,0.27045926,-0.19774938,0.029524922,0.037838213,-0.07635057,0.14551628,0.12715434,0.24328655,-0.011404872,-0.11140987,0.06047845,-0.051228523,0.115116715,-2.6500278,-0.5519069,-1.3435609,1.7824564,1.1537969,1.6237667,-0.051873982,0.9541472,0.94918615,-1.8581879,-0.60234934,-3.8684864,3.3114383,0.30874676,0.73674923,2.2384405,-1.7870426,-1.6630087,-2.9570215,0.4854536,1.9955326,-0.29205495,1.244529,-0.007775523,-0.013294183,0.08423399,0.13486136,0.22818884,0.075299434,0.07240798,0.06236288,0.07925441,0.094799876,0.015525496,0.05468092,-0.04387685,0.2645192,0.2645192,0.039160296,0.5416073,-0.2433927,0.08238629,-1.5509217,0.019078374,0.13288613,0.012412839,0.012412839,0.240372,0.748946,-0.036054015,0.021192793,-1.4057394,0.16426063,0.03563555,0.15578884,0.15578884,0.048333768,1.0211387,0.23613864,0.074207135,-1.5614218,0.0085783005,0.09389208,-0.088447794,-0.088447794,0.031644307,0.8079563,0.022956252,0.06737752,-1.6306088,-0.060608745
85,1.7,0.105000004,0.0,0.0,0.0,0.0,0.0,0.0,0.0,-1.0,0.15,0.0,0.0,0.2645192,-0.2433927,0.019078374,0.012412839,-0.036054015,0.16426063,0.15578884,0.23613864,0.0085783005,-0.088447794,0.022956252,-0.060608745,-0.29700282,-2.2821658,-0.52232563,-1.2712687,2.0148287,0.93721795,1.431725,-0.35739654,0.99915946,1.148104,-1.8761102,-0.46900874,-3.9391263,4.2293396,0.43496472,1.0615276,1.7038018,-2.3762317,-2.275209,-2.8818295,0.15955499,1.6199687,0.35038933,1.4327276,-0.04387685,0.039160296,0.08238629,0.13288613,0.240372,0.021192793,0.03563555,0.048333768,0.074207135,0.09389208,0.031644307,0.06737752,-0.077405594,0.2502315,0.2502315,0.08349417,0.5050434,-0.27995664,0.07451118,-1.5606085,0.009391546,0.13506524,-0.010858972,-0.010858972,0.24128819,0.79266304,0.0076630116,-0.039729543,-1.3926004,0.17739964,0.0037765102,0.1794269,0.1794269,0.039740555,1.0081068,0.2231068,0.06662345,-1.5412257,0.02877438,0.09116967,-0.062283892,-0.062283892,0.053442843,0.77144,-0.013559997,0.078544244,-1.6369672,-0.06696713
86,1.72,0.105000004,0.0,0.0,0.0,0.0,0.0,0.0,0.0,-1.0,0.15,0.0,0.0,0.2502315,-0.27995664,0.009391546,-0.010858972,0.0076630116,0.17739964,0.1794269,0.2231068,0.02877438,-0.062283892,-0.013559997,-0.06696713,-0.7143855,-1.8281981,-0.48434165,-1.1635906,2.1858501,0.65694916,1.1819028,-0.65159476,1.0098064,1.3081951,-1.8258123,-0.31791937,-3.8736274,4.94262,0.5063394,1.376744,1.057131,-2.9193697,-2.7691975,-2.6889286,-0.17883071,1.1961954,1.0021348,1.5636494,-0.077405594,0.08349417,0.07451118,0.13506524,0.24128819,-0.039729543,0.0037765102,0.039740555,0.06662345,0.09116967,0.053442843,0.078544244,-0.1031514,0.2278361,0.2278361,0.119888775,0.47887418,-0.30612585,0.061188705,-1.5694692,0.00053083897,0.13902096,-0.031321913,-0.031321913,0.22547108,0.83827287,0.053272843,-0.09263913,-1.3860409,0.18395913,-0.020896923,0.19718112,0.19718112,0.02890496,0.9895454,0.20454538,0.059411835,-1.5214882,0.048511863,0.08734308,-0.03378117,-0.03378117,0.07574356,0.73724025,-0.04775977,0.09035605,-1.6400329,-0.070032835
87,1.74,0.105000004,0.0,0.0,0.0,0.0,0.0,0.0,0.0,-1.0,0.15,0.0,0.0,0.2278361,-0.30612585,0.00053083897,-0.031321913,0.053272843,0.18395913,0.19718112,0.20454538,0.048511863,-0.03378117,-0.04775977,-0.070032835,-1.1197703,-1.3084599,-0.44303352,-1.0231471,2.2804914,0.32797545,0.88771164,-0.9280726,0.9868751,1.4251361,-1.7099884,-0.15328604,-3.6430202,5.4390135,0.5272172,1.6572088,0.2851602,-3.3026161,-3.119865,-2.4385633,-0.5001338,0.74230534,1.6092389,1.6497409,-0.1031514,0.119888775,0.061188705,0.13902096,0.22547108,-0.09263913,-0.020896923,0.02890496,0.059411835,0.08734308,0.07574356,0.09035605,-0.122210555,0.19788782,0.19788782,0.15106602,0.46401948,-0.32098055,0.049147956,-1.5774441,-0.007444024,0.13868701,-0.048475113,-0.048475113,0.19110405,0.88397187,0.09897184,-0.13047954,-1.3866165,0.18338358,-0.038938772,0.20844303,0.20844303,0.017540328,0.96594775,0.18094772,0.04949182,-1.5028899,0.06711018,0.08511604,-0.0038250163,-0.0038250163,0.09370401,0.7065104,-0.0784896,0.10462025,-1.6395994,-0.06959939
88,1.76,0.105000004,0.0,0.0,0.0,0.0,0.0,0.0,0.0,-1.0,0.15,0.0,0.0,0.19788782,-0.32098055,-0.007444024,-0.048475113,0.09897184,0.18338358,0.20844303,0.18094772,0.06711018,-0.0038250163,-0.0784896,-0.06959939,-1.4974138,-0.74273443,-0.3987404,-0.85766,2.2849505,-0.02877441,0.56309587,-1.1798841,0.9299178,1.4978077,-1.5364921,0.021672934,-3.266524,5.7294464,0.54394895,1.8552992,-0.5962656,-3.4738216,-3.3259168,-2.1273136,-0.8162796,0.28988865,2.1235404,1.7015314,-0.122210555,0.15106602,0.049147956,0.13868701,0.19110405,-0.13047954,-0.038938772,0.017540328,0.04949182,0.08511604,0.09370401,0.10462025,-0.13507321,0.16122642,0.16122642,0.17872806,0.46101096,-0.32398906,0.041996397,-1.584431,-0.014431,0.13133927,-0.062020585,-0.062020585,0.14230433,0.9277952,0.14279515,-0.14826977,-1.3943887,0.17561138,-0.053930666,0.21284322,0.21284322,0.007362687,0.93795294,0.15295291,0.035613,-1.4861184,0.08388162,0.08322121,0.026684389,0.026684389,0.10874652,0.68023825,-0.10476178,0.11861543,-1.635567,-0.0655669
89,1.78,0.105000004,0.0,0.0,0.0,0.0,0.0,0.0,0.0,-1.0,0.15,0.0,0.0,0.16122642,-0.32398906,-0.014431,-0.062020585,0.14279515,0.17561138,0.21284322,0.15295291,0.08388162,0.026684389,-0.10476178,-0.0655669,-1.83307,-0.15042639,-0.34935147,-0.6772735,2.191164,-0.38860977,0.22000986,-1.3997397,0.83857465,1.5254703,-1.3136083,0.2016227,-2.7627456,5.8230457,0.5798537,1.9502087,-1.5288813,-3.4031823,-3.410122,-1.753864,-1.1263092,-0.15714583,2.5431566,1.6998549,-0.13507321,0.17872806,0.041996397,0.13133927,0.14230433,-0.14826977,-0.053930666,0.007362687,0.035613,0.08322121,0.10874652,0.11861543,-0.13904303,0.118983954,0.118983954,0.19650145,0.46989736,-0.31510267,0.038584612,-1.5903062,-0.02030611,0.12127751,-0.071806505,-0.071806505,0.09071056,0.9678384,0.18283838,-0.13841033,-1.4088292,0.16117084,-0.068112634,0.21022463,0.21022463,0.003850353,0.9064012,0.12140119,0.022679636,-1.4717807,0.098219395,0.077915356,0.056805216,0.056805216,0.12135992,0.659229,-0.12577105,0.123745844,-1.628063,-0.05806291
90,1.8,0.105000004,0.0,0.0,0.0,0.0,0.0,0.0,0.0,-1.0,0.15,0.0,0.0,0.118983954,-0.31510267,-0.02030611,-0.071806505,0.18283838,0.16117084,0.21022463,0.12140119,0.098219395,0.056805216,-0.12577105,-0.05806291,-2.1121235,0.4443196,-0.29375434,-0.4892959,2.0021603,-0.7220263,-0.13092974,-1.5775849,0.7168903,1.5060415,-1.0504632,0.37519956,-2.132167,5.6803107,0.62487954,1.9716648,-2.4052823,-3.0519776,-3.3885102,-1.2940439,-1.3883682,-0.61131555,2.8624253,1.5890542,-0.13904303,0.19650145,0.038584612,0.12127751,0.09071056,-0.13841033,-0.068112634,0.003850353,0.022679636,0.077915356,0.12135992,0.123745844,-0.13308561,0.07256056,0.07256056,0.20372821,0.49024555,-0.29475448,0.03893032,-1.5949266,-0.024926543,0.111232474,-0.077789724,-0.077789724,0.044927068,1.0024301,0.21743006,-0.11049125,-1.4289829,0.1410172,-0.079611324,0.20066804,0.20066804,0.007996884,0.87231946,0.08731943,0.014766454,-1.4603304,0.109669685,0.06877206,0.08557541,0.08557541,0.12940995,0.6440573,-0.14094275,0.12023407,-1.61743,-0.04742992
91,1.82,0.105000004,0.0,0.0,0.0,0.0,0.0,0.0,0.0,-1.0,0.15,0.0,0.0,0.07256056,-0.29475448,-0.024926543,-0.077789724,0.21743006,0.1410172,0.20066804,0.08731943,0.109669685,0.08557541,-0.14094275,-0.04742992,-2.3211699,1.0174093,-0.23102438,-0.29916096,1.7295837,-1.0076808,-0.47782978,-1.7040867,0.5725143,1.4385097,-0.7585857,0.53164667,-1.3903663,5.3084817,0.67693037,1.9394821,-3.144631,-2.5058362,-3.2519524,-0.7575128,-1.5694139,-1.0618937,3.0611286,1.3780618,-0.13308561,0.20372821,0.03893032,0.111232474,0.044927068,-0.11049125,-0.079611324,0.007996884,0.014766454,0.06877206,0.12940995,0.12023407,-0.11402636,0.023623262,0.023623262,0.19984533,0.5211563,-0.26384372,0.04419086,-1.5981196,-0.028119564,0.103286125,-0.08000523,-0.08000523,0.0023167506,1.030136,0.24513596,-0.07340194,-1.4536289,0.116371155,-0.08536667,0.18452697,0.18452697,0.01966897,0.8368861,0.05188608,0.008989769,-1.4520998,0.11790025,0.054163694,0.112017296,0.112017296,0.13471797,0.6350821,-0.1499179,0.11045299,-1.6041778,-0.03417778
92,1.84,0.105000004,0.0,0.0,0.0,0.0,0.0,0.0,0.0,-1.0,0.15,0.0,0.0,0.023623262,-0.26384372,-0.028119564,-0.08000523,0.24513596,0.116371155,0.18452697,0.05188608,0.11790025,0.112017296,-0.1499179,-0.03417778,-2.446865,1.5455394,-0.15964901,-0.11077519,1.3852934,-1.2323018,-0.80705374,-1.7716675,0.41152927,1.3220944,-0.44875723,0.66260606,-0.5416625,4.7218,0.74132586,1.8696619,-3.7481568,-1.847257,-2.9872513,-0.16352239,-1.686442,-1.5063989,3.1495779,1.0926337,-0.11402636,0.19984533,0.04419086,0.103286125,0.0023167506,-0.07340194,-0.08536667,0.01966897,0.008989769,0.054163694,0.13471797,0.11045299,-0.078079484,-0.025894105,-0.025894105,0.18072511,0.561243,-0.22375703,0.05514469,-1.5996766,-0.029676557,0.10392273,-0.078472495,-0.078472495,-0.03876721,1.0497704,0.26477033,-0.031367064,-1.4813809,0.08861911,-0.08212313,0.1624568,0.1624568,0.041150652,0.8014265,0.016426444,0.0042679077,-1.4473082,0.12269187,0.032337353,0.13514082,0.13514082,0.14391677,0.6325349,-0.1524651,0.09541741,-1.588951,-0.01895094
93,1.86,0.105000004,0.0,0.0,0.0,0.0,0.0,0.0,0.0,-1.0,0.15,0.0,0.0,-0.025894105,-0.22375703,-0.029676557,-0.078472495,0.26477033,0.08861911,0.1624568,0.016426444,0.12269187,0.13514082,-0.1524651,-0.01895094,-2.4758685,2.0043352,-0.077848695,0.07663663,0.9817189,-1.3876032,-1.1035084,-1.7729825,0.23957978,1.1561761,-0.12736028,0.7613447,0.4101695,3.9166336,0.820169,1.8076813,-4.2137675,-1.1272123,-2.584415,0.48360044,-1.7453098,-1.9430923,3.172495,0.75051296,-0.078079484,0.18072511,0.05514469,0.10392273,-0.03876721,-0.031367064,-0.08212313,0.041150652,0.0042679077,0.032337353,0.14391677,0.09541741,-0.017773248,-0.073746845,-0.073746845,0.1415821,0.608615,-0.17638505,0.07308491,-1.5993421,-0.029342055,0.120273635,-0.073095486,-0.073095486,-0.07700672,1.0604419,0.27544183,0.0043592667,-1.5108873,0.059112787,-0.06340261,0.13547988,0.13547988,0.077860974,0.76744795,-0.017552078,0.0014490101,-1.4460467,0.12395334,0.0049122274,0.1539942,0.1539942,0.16444024,0.63662004,-0.14837998,0.07487852,-1.5725106,-0.0025105476
94,1.8800000000000001,0.105000004,0.0,0.0,0.0,0.0,0.0,0.0,0.0,-1.0,0.15,0.0,0.0,-0.073746845,-0.17638505,-0.029342055,-0.073095486,0.27544183,0.059112787,0.13547988,-0.017552078,0.12395334,0.1539942,-0.14837998,-0.0025105476,-2.3926373,2.3685985,0.01672624,0.2688504,0.5335745,-1.4753159,-1.3488455,-1.6989253,0.06307563,0.9426693,0.2042557,0.8220186,1.4822761,2.8920019,0.9183682,1.8007281,-4.52329,-0.44298849,-2.0168138,1.1984978,-1.7403412,-2.3477738,3.1793802,0.3620124,-0.017773248,0.1415821,0.07308491,0.120273635,-0.07700672,0.0043592667,-0.06340261,0.077860974,0.0014490101,0.0049122274,0.16444024,0.07487852,0.059575118,-0.11755216,-0.11755216,0.09033031,0.6610534,-0.12394661,0.099691205,-1.5967983,-0.026798248,0.15215284,-0.06367071,-0.06367071,-0.10806983,1.0616319,0.2766319,0.022223081,-1.5410295,0.0289706,-0.028463963,0.10495849,0.10495849,0.12874517,0.7365788,-0.048421204,0.00032179686,-1.4482816,0.12171841,-0.015219912,0.1678702,0.1678702,0.19995286,0.6475611,-0.13743895,0.05478186,-1.5556276,0.014372468
95,1.9000000000000001,0.105000004,0.0,0.0,0.0,0.0,0.0,0.0,0.0,-1.0,0.15,0.0,0.0,-0.11755216,-0.12394661,-0.026798248,-0.06367071,0.2766319,0.0289706,0.10495849,-0.048421204,0.12171841,0.1678702,-0.13743895,0.014372468,-2.190266,2.6219225,0.12718749,0.4712386,0.05950135,-1.5071101,-1.5260698,-1.5434566,-0.11174755,0.6937994,0.5470525,0.8441523,2.5884197,1.7383035,1.0424885,1.8433626,-4.6436152,0.11167903,-1.3024099,1.9495428,-1.6749853,-2.6232343,3.1925225,-0.0203377,0.059575118,0.09033031,0.099691205,0.15215284,-0.10806983,0.022223081,-0.028463963,0.12874517,0.00032179686,-0.015219912,0.19995286,0.05478186,0.13412365,-0.15513696,-0.15513696,0.043350816,0.71631074,-0.06868929,0.1323196,-1.5917128,-0.02171278,0.18995738,-0.05002995,-0.05002995,-0.120371416,1.0533625,0.26836246,0.023629926,-1.5709286,-0.00092852116,0.008693275,0.07235248,0.07235248,0.17886993,0.7103105,-0.07468951,-0.001303145,-1.4538894,0.11611068,-0.020565711,0.17642488,0.17642488,0.23941146,0.6654396,-0.11956042,0.04027421,-1.5389884,0.0310117
96,1.92,0.105000004,0.0,0.0,0.0,0.0,0.0,0.0,0.0,-1.0,0.15,0.0,0.0,-0.15513696,-0.06868929,-0.02171278,-0.05002995,0.26836246,-0.00092852116,0.07235248,-0.07468951,0.11611068,0.17642488,-0.11956042,0.0310117,-1.8792399,2.7628672,0.25427634,0.68203807,-0.41347137,-1.4949573,-1.6303006,-1.3134149,-0.28038362,0.42773393,0.8939258,0.83196306,3.5618007,0.6020175,1.1691905,1.8664316,-4.5004416,0.5371984,-0.5608095,2.6129622,-1.56738,-2.7165647,3.1351838,-0.35191593,0.13412365,0.043350816,0.1323196,0.18995738,-0.120371416,0.023629926,0.008693275,0.17886993,-0.001303145,-0.020565711,0.23941146,0.04027421,0.18831332,-0.1848395,-0.1848395,0.018167377,0.7724196,-0.012580454,0.16318437,-1.5838568,-0.013856769,0.22179501,-0.032210596,-0.032210596,-0.12495112,1.036028,0.251028,0.023111567,-1.5997605,-0.02976048,0.032609053,0.038959667,0.038959667,0.21194895,0.68973124,-0.095268786,-0.0037033048,-1.4626654,0.107334614,-0.017696664,0.17958659,0.17958659,0.27175742,0.6900413,-0.09495872,0.028557008,-1.523217,0.04678309
