verayannn/SpotDMouse/P2-Terrain_Challenge/mp2/misc/openloop_scheduled_stop.csv
step,time,obs_0,obs_1,obs_2,obs_3,obs_4,obs_5,obs_6,obs_7,obs_8,obs_9,obs_10,obs_11,obs_12,obs_13,obs_14,obs_15,obs_16,obs_17,obs_18,obs_19,obs_20,obs_21,obs_22,obs_23,obs_24,obs_25,obs_26,obs_27,obs_28,obs_29,obs_30,obs_31,obs_32,obs_33,obs_34,obs_35,obs_36,obs_37,obs_38,obs_39,obs_40,obs_41,obs_42,obs_43,obs_44,obs_45,obs_46,obs_47,obs_48,obs_49,obs_50,obs_51,obs_52,obs_53,obs_54,obs_55,obs_56,obs_57,obs_58,obs_59,action_0,delayed_action_0,joint_pos_0,joint_pos_rel_0,action_1,delayed_action_1,joint_pos_1,joint_pos_rel_1,action_2,delayed_action_2,joint_pos_2,joint_pos_rel_2,action_3,delayed_action_3,joint_pos_3,joint_pos_rel_3,action_4,delayed_action_4,joint_pos_4,joint_pos_rel_4,action_5,delayed_action_5,joint_pos_5,joint_pos_rel_5,action_6,delayed_action_6,joint_pos_6,joint_pos_rel_6,action_7,delayed_action_7,joint_pos_7,joint_pos_rel_7,action_8,delayed_action_8,joint_pos_8,joint_pos_rel_8,action_9,delayed_action_9,joint_pos_9,joint_pos_rel_9,action_10,delayed_action_10,joint_pos_10,joint_pos_rel_10,action_11,delayed_action_11,joint_pos_11,joint_pos_rel_11
0,0.0,0.0,0.0,0.0,0.0,0.0,0.0,0.0,0.0,-1.0,0.0,0.0,0.0,0.0,0.0,0.0,0.0,0.0,0.0,0.0,0.0,0.0,0.0,0.0,0.0,0.0,0.0,0.0,0.0,0.0,0.0,0.0,0.0,0.0,0.0,0.0,0.0,0.0,0.0,0.0,0.0,0.0,0.0,0.0,0.0,0.0,0.0,0.0,0.0,0.0,0.0,0.0,0.0,0.0,0.0,0.0,0.0,0.0,0.0,0.0,0.0,0.06390828,0.0,0.0,0.0,-0.055581443,0.0,0.785,0.0,-0.0037416443,0.0,-1.57,0.0,-0.037299287,0.0,0.0,0.0,-0.009984881,0.0,0.785,0.0,-0.0796038,0.0,-1.57,0.0,-0.044285856,0.0,0.0,0.0,0.053845458,0.0,0.785,0.0,0.0074020065,0.0,-1.57,0.0,0.015068151,0.0,0.0,0.0,0.030908663,0.0,0.785,0.0,-0.022856629,0.0,-1.57,0.0
1,0.02,0.0,0.0,0.0,0.0,0.0,0.0,0.0,0.0,-1.0,0.0,0.0,0.0,0.0,0.0,0.0,0.0,0.0,0.0,0.0,0.0,0.0,0.0,0.0,0.0,0.0,0.0,0.0,0.0,0.0,0.0,0.0,0.0,0.0,0.0,0.0,0.0,0.0,0.0,0.0,0.0,0.0,0.0,0.0,0.0,0.0,0.0,0.0,0.0,0.0,0.0,0.0,0.0,0.0,0.0,0.0,0.0,0.0,0.0,0.0,0.0,0.06390828,0.0,0.0,0.0,-0.055581443,0.0,0.785,0.0,-0.0037416443,0.0,-1.57,0.0,-0.037299287,0.0,0.0,0.0,-0.009984881,0.0,0.785,0.0,-0.0796038,0.0,-1.57,0.0,-0.044285856,0.0,0.0,0.0,0.053845458,0.0,0.785,0.0,0.0074020065,0.0,-1.57,0.0,0.015068151,0.0,0.0,0.0,0.030908663,0.0,0.785,0.0,-0.022856629,0.0,-1.57,0.0
2,0.04,0.0,0.0,0.0,0.0,0.0,0.0,0.0,0.0,-1.0,0.0,0.0,0.0,0.0,0.0,0.0,0.0,0.0,0.0,0.0,0.0,0.0,0.0,0.0,0.0,0.0,0.0,0.0,0.0,0.0,0.0,0.0,0.0,0.0,0.0,0.0,0.0,0.0,0.0,0.0,0.0,0.0,0.0,0.0,0.0,0.0,0.0,0.0,0.0,0.0,0.0,0.0,0.0,0.0,0.0,0.0,0.0,0.0,0.0,0.0,0.0,0.06390828,0.0,0.0,0.0,-0.055581443,0.0,0.785,0.0,-0.0037416443,0.0,-1.57,0.0,-0.037299287,0.0,0.0,0.0,-0.009984881,0.0,0.785,0.0,-0.0796038,0.0,-1.57,0.0,-0.044285856,0.0,0.0,0.0,0.053845458,0.0,0.785,0.0,0.0074020065,0.0,-1.57,0.0,0.015068151,0.0,0.0,0.0,0.030908663,0.0,0.785,0.0,-0.022856629,0.0,-1.57,0.0
3,0.06,0.0,0.0,0.0,0.0,0.0,0.0,0.0,0.0,-1.0,0.0,0.0,0.0,0.0,0.0,0.0,0.0,0.0,0.0,0.0,0.0,0.0,0.0,0.0,0.0,0.0,0.0,0.0,0.0,0.0,0.0,0.0,0.0,0.0,0.0,0.0,0.0,0.0,0.0,0.0,0.0,0.0,0.0,0.0,0.0,0.0,0.0,0.0,0.0,0.0,0.0,0.0,0.0,0.0,0.0,0.0,0.0,0.0,0.0,0.0,0.0,0.06390828,0.06390828,0.0010225325,0.0010225325,-0.055581443,-0.055581443,0.7841107,-0.0008893013,-0.0037416443,-0.0037416443,-1.5700599,-5.9843063e-05,-0.037299287,-0.037299287,-0.0005967886,-0.0005967886,-0.009984881,-0.009984881,0.7848403,-0.00015974045,-0.0796038,-0.0796038,-1.5712737,-0.001273632,-0.044285856,-0.044285856,-0.0007085737,-0.0007085737,0.053845458,0.053845458,0.78586155,0.00086152554,0.0074020065,0.0074020065,-1.5698817,0.000118374825,0.015068151,0.015068151,0.00024109041,0.00024109041,0.030908663,0.030908663,0.78549457,0.00049453974,-0.022856629,-0.022856629,-1.5703658,-0.0003657341
4,0.08,0.0,0.0,0.0,0.0,0.0,0.0,0.0,0.0,-1.0,0.0,0.0,0.0,0.0010225325,-0.0008893013,-5.9843063e-05,-0.0005967886,-0.00015974045,-0.001273632,-0.0007085737,0.00086152554,0.000118374825,0.00024109041,0.00049453974,-0.0003657341,0.05112662,-0.044465158,-0.002993393,-0.02983943,-0.00798788,-0.06368313,-0.035428684,0.043076325,0.0059215543,0.012054521,0.024726963,-0.01828537,0.4693424,-0.4081902,-0.027479744,-0.27392596,-0.07332902,-0.5846116,-0.3252353,0.39544067,0.05436077,0.11066051,0.22699352,-0.16785927,0.06390828,-0.055581443,-0.0037416443,-0.037299287,-0.009984881,-0.0796038,-0.044285856,0.053845458,0.0074020065,0.015068151,0.030908663,-0.022856629,0.05057439,0.06390828,0.0029837498,0.0029837498,-0.056392647,-0.055581443,0.782405,-0.0025950074,-0.01572875,-0.0037416443,-1.5701747,-0.00017464161,-0.057607662,-0.037299287,-0.0017414291,-0.0017414291,-0.014073726,-0.009984881,0.78453386,-0.00046616793,-0.06918874,-0.0796038,-1.5737165,-0.0037164688,-0.03202741,-0.044285856,-0.0020676178,-0.0020676178,0.020602502,0.053845458,0.787514,0.002513945,-0.0080273505,0.0074020065,-1.5696546,0.00034546852,0.021336392,0.015068151,0.0007035018,0.0007035018,0.04347659,0.030908663,0.7864431,0.001443088,0.0027486482,-0.022856629,-1.5710672,-0.0010671616
5,0.1,0.0,0.0,0.0,0.0,0.0,0.0,0.0,0.0,-1.0,0.0,0.0,0.0,0.0029837498,-0.0025950074,-0.00017464161,-0.0017414291,-0.00046616793,-0.0037164688,-0.0020676178,0.002513945,0.00034546852,0.0007035018,0.001443088,-0.0010671616,0.09806086,-0.08528417,-0.005741367,-0.057232026,-0.015320782,-0.12214429,-0.067952216,0.0826204,0.0113576315,0.02312057,0.047426313,-0.0350713,0.4144958,-0.3604894,-0.024268981,-0.24191539,-0.06475973,-0.5162956,-0.28722885,0.34922993,0.048009235,0.09772889,0.20046706,-0.14824346,0.06390828,-0.055581443,-0.0037416443,-0.037299287,-0.009984881,-0.0796038,-0.044285856,0.053845458,0.0074020065,0.015068151,0.030908663,-0.022856629,0.055236228,0.06390828,0.0057739588,0.0057739588,-0.05945848,-0.055581443,0.77997833,-0.0050216913,-0.01648447,-0.0037416443,-1.570338,-0.00033795834,-0.057049762,-0.037299287,-0.0033699004,-0.0033699004,-0.012216616,-0.009984881,0.7840979,-0.0009021163,-0.066582605,-0.0796038,-1.577192,-0.0071918964,-0.032555785,-0.044285856,-0.0040011196,-0.0040011196,0.019372735,0.053845458,0.78986484,0.004864812,-0.008580802,0.0074020065,-1.5693314,0.0006686449,0.019736532,0.015068151,0.001361371,0.001361371,0.046544738,0.030908663,0.78779256,0.0027925372,0.00073963637,-0.022856629,-1.5720651,-0.0020650625
6,0.12,0.0,0.0,0.0,0.0,0.0,0.0,0.0,0.0,-1.0,0.0,0.0,0.0,0.0057739588,-0.0050216913,-0.00033795834,-0.0033699004,-0.0009021163,-0.0071918964,-0.0040011196,0.004864812,0.0006686449,0.001361371,0.0027925372,-0.0020650625,0.13951044,-0.12133311,-0.008168265,-0.081423566,-0.021796755,-0.17377385,-0.0966751,0.117543384,0.016158555,0.03289346,0.06747302,-0.049895644,0.34912768,-0.30363798,-0.020442463,-0.20376411,-0.054546572,-0.434874,-0.24193136,0.29415455,0.040437948,0.08231654,0.16885252,-0.124864876,0.06390828,-0.055581443,-0.0037416443,-0.037299287,-0.009984881,-0.0796038,-0.044285856,0.053845458,0.0074020065,0.015068151,0.030908663,-0.022856629,0.060298063,0.06390828,0.009262423,0.009262423,-0.063574284,-0.055581443,0.7769444,-0.008055627,-0.017378747,-0.0037416443,-1.5705422,-0.00054216385,-0.056561437,-0.037299287,-0.0054059,-0.0054059,-0.009453714,-0.009984881,0.7835529,-0.0014471412,-0.06363287,-0.0796038,-1.5815371,-0.011537075,-0.032579992,-0.044285856,-0.0064184843,-0.0064184843,0.018293248,0.053845458,0.792804,0.0078039765,-0.008791553,0.0074020065,-1.5689274,0.0010726452,0.018119026,0.015068151,0.0021838732,0.0021838732,0.04955212,0.030908663,0.78947973,0.0044797063,-0.002259185,-0.022856629,-1.5733128,-0.003312707
7,0.14,0.0,0.0,0.0,0.0,0.0,0.0,0.0,0.0,-1.0,0.0,0.0,0.0,0.009262423,-0.008055627,-0.00054216385,-0.0054059,-0.0014471412,-0.011537075,-0.0064184843,0.0078039765,0.0010726452,0.0021838732,0.0044797063,-0.003312707,0.1744232,-0.1516969,-0.010212512,-0.10179998,-0.027251413,-0.21726125,-0.120868236,0.14695884,0.02020235,0.041125115,0.08435827,-0.06238213,0.27585584,-0.2399131,-0.016153052,-0.16099992,-0.043098845,-0.34360746,-0.19115697,0.2324202,0.031952046,0.06504068,0.13341519,-0.09865932,0.06390828,-0.055581443,-0.0037416443,-0.037299287,-0.009984881,-0.0796038,-0.044285856,0.053845458,0.0074020065,0.015068151,0.030908663,-0.022856629,0.065583974,0.05057439,0.013089256,0.013089256,-0.0684891,-0.056392647,0.77341765,-0.011582375,-0.018434428,-0.01572875,-1.5709705,-0.0009704828,-0.056202803,-0.057607662,-0.008088833,-0.008088833,-0.00592627,-0.014073726,0.7828562,-0.0021438003,-0.060469076,-0.06918874,-1.5864029,-0.01640284,-0.032132845,-0.03202741,-0.009022027,-0.009022027,0.017442254,0.020602502,0.7956761,0.010676086,-0.008666042,-0.0080273505,-1.5687063,0.0012937784,0.016472697,0.021336392,0.0032367487,0.0032367487,0.05239556,0.04347659,0.7916348,0.006634772,-0.0061308495,0.0027486482,-1.5743481,-0.0043480396
8,0.16,0.0,0.0,0.0,0.0,0.0,0.0,0.0,0.0,-1.0,0.0,0.0,0.0,0.013089256,-0.011582375,-0.0009704828,-0.008088833,-0.0021438003,-0.01640284,-0.009022027,0.010676086,0.0012937784,0.0032367487,0.006634772,-0.0043480396,0.19134167,-0.1763372,-0.021417394,-0.13414666,-0.0348324,-0.24328993,-0.13017717,0.14360651,0.011054148,0.052643776,0.10775409,-0.051763713,0.09949617,-0.17765477,-0.099593274,-0.26436663,-0.06087283,-0.16942026,-0.04677825,-0.077800915,-0.09044605,0.09258126,0.18777926,0.11744032,0.05057439,-0.056392647,-0.01572875,-0.057607662,-0.014073726,-0.06918874,-0.03202741,0.020602502,-0.0080273505,0.021336392,0.04347659,0.0027486482,0.07727201,0.055236228,0.01718967,0.01718967,-0.07552739,-0.05945848,0.76948655,-0.01551348,-0.030742027,-0.01648447,-1.5716102,-0.0016101599,-0.04729416,-0.057049762,-0.011291573,-0.011291573,-0.00056698546,-0.012216616,0.78206754,-0.002932489,-0.038624138,-0.066582605,-1.5915658,-0.021565795,-0.036632985,-0.032555785,-0.011727581,-0.011727581,0.027180018,0.019372735,0.798373,0.013372958,-0.0005656743,-0.008580802,-1.5686749,0.0013251305,0.009997521,0.019736532,0.0044491887,0.0044491887,0.050487954,0.046544738,0.79421455,0.00921452,-0.025738066,0.00073963637,-1.5751806,-0.0051805973
9,0.18,0.0,0.0,0.0,0.0,0.0,0.0,0.0,0.0,-1.0,0.0,0.0,0.0,0.01718967,-0.01551348,-0.0016101599,-0.011291573,-0.002932489,-0.021565795,-0.011727581,0.013372958,0.0013251305,0.0044491887,0.00921452,-0.0051805973,0.20502076,-0.19655533,-0.03198135,-0.160137,-0.039433952,-0.25814703,-0.1352777,0.1348426,0.0015668478,0.060622014,0.12898658,-0.041627005,0.06434472,-0.12917462,-0.09012276,-0.19566445,-0.031095743,-0.058535207,-0.005166137,-0.12640701,-0.09063099,0.05639423,0.1604327,0.109619655,0.055236228,-0.05945848,-0.01648447,-0.057049762,-0.012216616,-0.066582605,-0.032555785,0.019372735,-0.008580802,0.019736532,0.046544738,0.00073963637,0.0828766,0.060298063,0.021499764,0.021499764,-0.081151225,-0.063574284,0.76523125,-0.019768775,-0.033391602,-0.017378747,-1.5724444,-0.0024443865,-0.047656763,-0.056561437,-0.014877828,-0.014877828,0.0027374513,-0.009453714,0.78126085,-0.0037391782,-0.034836784,-0.06363287,-1.5967987,-0.026798606,-0.035707828,-0.032579992,-0.014443854,-0.014443854,0.026550591,0.018293248,0.8007997,0.015799701,0.0031209998,-0.008791553,-1.5688282,0.0011718273,0.010155071,0.018119026,0.0057485374,0.0057485374,0.054116055,0.04955212,0.79716325,0.012163222,-0.030741027,-0.002259185,-1.5758419,-0.0058418512
10,0.2,0.0,0.0,0.0,0.0,0.0,0.0,0.0,0.0,-1.0,0.0,0.0,0.0,0.021499764,-0.019768775,-0.0024443865,-0.014877828,-0.0037391782,-0.026798606,-0.014443854,0.015799701,0.0011718273,0.0057485374,0.012163222,-0.0058418512,0.21550469,-0.21276546,-0.041709073,-0.17931278,-0.040333197,-0.2616408,-0.13581368,0.12133835,-0.00766486,0.06496743,0.14743568,-0.033064105,0.030635929,-0.08591139,-0.07906574,-0.12478987,0.004364215,0.050534368,0.03836857,-0.16711831,-0.08524838,0.020491892,0.12808728,0.09192763,0.060298063,-0.063574284,-0.017378747,-0.056561437,-0.009453714,-0.06363287,-0.032579992,0.018293248,-0.008791553,0.018119026,0.04955212,-0.002259185,0.088028684,0.065583974,0.025955703,0.025955703,-0.08677317,-0.0684891,0.7607255,-0.024274528,-0.035952598,-0.018434428,-1.5734537,-0.0034536123,-0.04823075,-0.056202803,-0.018707925,-0.018707925,0.0059131794,-0.00592627,0.78051937,-0.00448066,-0.031619154,-0.060469076,-1.6018798,-0.031879783,-0.034324996,-0.032132845,-0.017076235,-0.017076235,0.026146578,0.017442254,0.8028786,0.017878592,0.007445952,-0.008666042,-1.56915,0.00085008144,0.010862201,0.016472697,0.0070625283,0.0070625283,0.05758993,0.05239556,0.8004136,0.015413582,-0.035388295,-0.0061308495,-1.5763813,-0.0063812733
11,0.22,0.0,0.0,0.0,0.0,0.0,0.0,0.0,0.0,-1.0,0.0,0.0,0.0,0.025955703,-0.024274528,-0.0034536123,-0.018707925,-0.00448066,-0.031879783,-0.017076235,0.017878592,0.00085008144,0.0070625283,0.015413582,-0.0063812733,0.222797,-0.2252884,-0.05046022,-0.19150487,-0.037074853,-0.2540563,-0.13161911,0.103945695,-0.016089372,0.065699555,0.1625192,-0.026968684,-0.002017963,-0.046875942,-0.06698829,-0.054543186,0.042817973,0.15335147,0.08196656,-0.1984925,-0.07488493,-0.014068651,0.09128774,0.066537246,0.065583974,-0.0684891,-0.018434428,-0.056202803,-0.00592627,-0.060469076,-0.032132845,0.017442254,-0.008666042,0.016472697,0.05239556,-0.0061308495,0.09261011,0.07727201,0.030594617,0.030594617,-0.092213854,-0.07552739,0.7560134,-0.028986633,-0.038382567,-0.030742027,-1.5747938,-0.004793763,-0.048994664,-0.04729416,-0.02250457,-0.02250457,0.008972224,-0.00056698546,0.77994925,-0.0050507784,-0.029102348,-0.038624138,-1.6063048,-0.036304712,-0.03241755,-0.036632985,-0.019616686,-0.019616686,0.02596989,0.027180018,0.80471635,0.019716322,0.012326922,-0.0005656743,-1.569492,0.00050807,0.011987809,0.009997521,0.008244779,0.008244779,0.060810745,0.050487954,0.803816,0.018815994,-0.03961632,-0.025738066,-1.5771013,-0.0071012974
12,0.24,0.0,0.0,0.0,0.0,0.0,0.0,0.0,0.0,-1.0,0.0,0.0,0.0,0.030594617,-0.028986633,-0.004793763,-0.02250457,-0.0050507784,-0.036304712,-0.019616686,0.019716322,0.00050807,0.008244779,0.018815994,-0.0071012974,0.23194565,-0.23560669,-0.06700497,-0.18983227,-0.028505621,-0.22124508,-0.12702256,0.09188672,-0.017097648,0.05911255,0.17012191,-0.036000613,0.0126893995,-0.022629965,-0.13573274,0.07663599,0.09052959,0.38250557,0.084314376,-0.1439639,-0.0041064336,-0.08149257,0.017787099,-0.074282944,0.07727201,-0.07552739,-0.030742027,-0.04729416,-0.00056698546,-0.038624138,-0.036632985,0.027180018,-0.0005656743,0.009997521,0.050487954,-0.025738066,0.09928647,0.0828766,0.035348583,0.035348583,-0.0966182,-0.081151225,0.75116605,-0.03383398,-0.0369054,-0.033391602,-1.5764477,-0.006447673,-0.051143613,-0.047656763,-0.026153745,-0.026153745,0.013877679,0.0027374513,0.7796131,-0.0053869486,-0.03492654,-0.034836784,-1.609904,-0.039904,-0.028970346,-0.035707828,-0.021973707,-0.021973707,0.02390016,0.026550591,0.80625606,0.02125603,0.024551006,0.0031209998,-1.5697832,0.0002168417,0.016039696,0.010155071,0.009266566,0.009266566,0.06370739,0.054116055,0.8073121,0.022312045,-0.04308321,-0.030741027,-1.57805,-0.008049965
13,0.26,0.0,0.0,0.0,0.0,0.0,0.0,0.0,0.0,-1.0,0.0,0.0,0.0,0.035348583,-0.03383398,-0.006447673,-0.026153745,-0.0053869486,-0.039904,-0.021973707,0.02125603,0.0002168417,0.009266566,0.022312045,-0.008049965,0.23769826,-0.24236873,-0.08269808,-0.18245876,-0.016809173,-0.1799647,-0.117851004,0.07698679,-0.014558958,0.05108933,0.17480303,-0.047431286,-0.02141366,0.013318074,-0.12262191,0.1284352,0.11649499,0.44975218,0.12484219,-0.16618466,0.028777206,-0.09256915,-0.011466151,-0.09341273,0.0828766,-0.081151225,-0.033391602,-0.047656763,0.0027374513,-0.034836784,-0.035707828,0.026550591,0.0031209998,0.010155071,0.054116055,-0.030741027,0.10253374,0.088028684,0.040142156,0.040142156,-0.10055501,-0.08677317,0.74625534,-0.038744688,-0.038669407,-0.035952598,-1.5783879,-0.008387804,-0.051989038,-0.04823075,-0.029555233,-0.029555233,0.01674265,0.0059131794,0.7795607,-0.005439341,-0.034776874,-0.031619154,-1.6125524,-0.042552352,-0.025079705,-0.034324996,-0.024058918,-0.024058918,0.024244059,0.026146578,0.807457,0.022456944,0.03018286,0.007445952,-1.5699476,5.2452087e-05,0.017252319,0.010862201,0.010114528,0.010114528,0.065920055,0.05758993,0.8108408,0.02584076,-0.046373118,-0.035388295,-1.5792599,-0.00925982
14,0.28,0.0,0.0,0.0,0.0,0.0,0.0,0.0,0.0,-1.0,0.0,0.0,0.0,0.040142156,-0.038744688,-0.008387804,-0.029555233,-0.005439341,-0.042552352,-0.024058918,0.022456944,5.2452087e-05,0.010114528,0.02584076,-0.00925982,0.23967856,-0.24553445,-0.09700895,-0.17007443,-0.0026190858,-0.13241532,-0.10426052,0.060045026,-0.008221116,0.04239812,0.17643552,-0.060490362,-0.057884313,0.048496973,-0.10491121,0.17207496,0.13564411,0.4940927,0.16247298,-0.18016137,0.06283973,-0.0961339,-0.040950797,-0.104703546,0.088028684,-0.08677317,-0.035952598,-0.04823075,0.0059131794,-0.031619154,-0.034324996,0.026146578,0.007445952,0.010862201,0.05758993,-0.035388295,0.104787886,0.09261011,0.04489326,0.04489326,-0.10382611,-0.092213854,0.7413546,-0.04364544,-0.040010676,-0.038382567,-1.5805768,-0.010576725,-0.052725326,-0.048994664,-0.032624796,-0.032624796,0.019526828,0.008972224,0.77982855,-0.005171478,-0.03534981,-0.029102348,-1.6141722,-0.044172168,-0.020519756,-0.03241755,-0.025788663,-0.025788663,0.024888821,0.02596989,0.8082947,0.023294687,0.035708986,0.012326922,-1.5699083,9.179115e-05,0.018598136,0.011987809,0.010788233,0.010788233,0.06728638,0.060810745,0.8143391,0.029339075,-0.04937647,-0.03961632,-1.5807468,-0.010746717
15,0.3,0.0,0.0,0.0,0.0,0.0,0.0,0.0,0.0,-1.0,0.0,0.0,0.0,0.04489326,-0.04364544,-0.010576725,-0.032624796,-0.005171478,-0.044172168,-0.025788663,0.023294687,9.179115e-05,0.010788233,0.029339075,-0.010746717,0.23755528,-0.24503732,-0.109444045,-0.15347807,0.013392547,-0.080992654,-0.08648726,0.041887555,0.001967581,0.03368522,0.17491707,-0.074343204,-0.09618892,0.08313477,-0.083110616,0.20677848,0.14782472,0.51443243,0.19652185,-0.18589987,0.0961632,-0.09355187,-0.070398256,-0.10781169,0.09261011,-0.092213854,-0.038382567,-0.048994664,0.008972224,-0.029102348,-0.03241755,0.02596989,0.012326922,0.011987809,0.060810745,-0.03961632,0.105977654,0.09928647,0.04955881,0.04955881,-0.10632109,-0.0966182,0.7365496,-0.04845041,-0.040853612,-0.0369054,-1.5829083,-0.01290822,-0.053244885,-0.051143613,-0.035315182,-0.035315182,0.022165257,0.013877679,0.78047055,-0.004529476,-0.036606662,-0.03492654,-1.6148564,-0.04485631,-0.015435904,-0.028970346,-0.02707021,-0.02707021,0.025789531,0.02390016,0.80872756,0.023727536,0.041096218,0.024551006,-1.569481,0.00051903725,0.020147014,0.016039696,0.0113396635,0.0113396635,0.06780772,0.06370739,0.817743,0.032742977,-0.052007522,-0.04308321,-1.5825047,-0.012504697
16,0.32,0.0,0.0,0.0,0.0,0.0,0.0,0.0,0.0,-1.0,0.0,0.0,0.0,0.04955881,-0.04845041,-0.01290822,-0.035315182,-0.004529476,-0.04485631,-0.02707021,0.023727536,0.00051903725,0.0113396635,0.032742977,-0.012504697,0.23327747,-0.24024728,-0.11657331,-0.13451938,0.03209939,-0.034208875,-0.06407732,0.021641798,0.021363068,0.027571542,0.17019458,-0.08789785,-0.115287974,0.1223848,-0.03042413,0.22315371,0.16744296,0.45539218,0.23339924,-0.19926026,0.17742118,-0.06690282,-0.09932611,-0.10064145,0.09928647,-0.0966182,-0.0369054,-0.051143613,0.013877679,-0.03492654,-0.028970346,0.02390016,0.024551006,0.016039696,0.06370739,-0.04308321,0.10577536,0.10253374,0.05404574,0.05404574,-0.105954535,-0.10055501,0.73192644,-0.053073585,-0.041011922,-0.038669407,-1.5853288,-0.015328765,-0.05327953,-0.051989038,-0.03757279,-0.03757279,0.023017947,0.01674265,0.78149325,-0.0035067797,-0.039429,-0.034776874,-1.6146274,-0.04462731,-0.0093113035,-0.025079705,-0.027822707,-0.027822707,0.024641914,0.024244059,0.8087674,0.023767352,0.04466489,0.03018286,-1.5686088,0.0013912916,0.021861617,0.017252319,0.01177669,0.01177669,0.071077175,0.065920055,0.82098365,0.035983622,-0.05095644,-0.046373118,-1.5845166,-0.014516592
17,0.34,0.0,0.0,0.0,0.0,0.0,0.0,0.0,0.0,-1.0,0.0,0.0,0.0,0.05404574,-0.053073585,-0.015328765,-0.03757279,-0.0035067797,-0.04462731,-0.027822707,0.023767352,0.0013912916,0.01177669,0.035983622,-0.014516592,0.22434649,-0.23115832,-0.12102697,-0.11288035,0.051135745,0.011450123,-0.03762488,0.001990907,0.043610726,0.021851359,0.16203208,-0.10059395,-0.15663515,0.16031602,-0.003581059,0.2416925,0.16448227,0.43009648,0.26333812,-0.18732053,0.19739668,-0.061334174,-0.12939402,-0.08842258,0.10253374,-0.10055501,-0.038669407,-0.051989038,0.01674265,-0.034776874,-0.025079705,0.024244059,0.03018286,0.017252319,0.065920055,-0.046373118,0.10521385,0.104787886,0.058255468,0.058255468,-0.106783934,-0.10382611,0.72757155,-0.05742848,-0.041214548,-0.040010676,-1.587778,-0.01777792,-0.053268734,-0.052725326,-0.03935879,-0.03935879,0.025507916,0.019526828,0.7828895,-0.0021105409,-0.041632116,-0.03534981,-1.6135473,-0.043547273,-0.0038786083,-0.020519756,-0.027975569,-0.027975569,0.025902389,0.024888821,0.8084429,0.023442864,0.050053805,0.035708986,-1.5672534,0.0027467012,0.023874853,0.018598136,0.012112582,0.012112582,0.070550345,0.06728638,0.82398736,0.03898734,-0.052814696,-0.04937647,-1.5867534,-0.016753316
18,0.36,0.0,0.0,0.0,0.0,0.0,0.0,0.0,0.0,-1.0,0.0,0.0,0.0,0.058255468,-0.05742848,-0.01777792,-0.03935879,-0.0021105409,-0.043547273,-0.027975569,0.023442864,0.0027467012,0.012112582,0.03898734,-0.016753316,0.2104863,-0.21774359,-0.12245815,-0.089300126,0.06981128,0.054001436,-0.007643111,-0.016225303,0.06777125,0.016794596,0.15018578,-0.11183889,-0.19902754,0.19711813,0.025590265,0.2525881,0.15507773,0.38695687,0.28727263,-0.1678622,0.20783839,-0.05341353,-0.16059932,-0.0710394,0.104787886,-0.10382611,-0.040010676,-0.052725326,0.019526828,-0.03534981,-0.020519756,0.024888821,0.035708986,0.018598136,0.06728638,-0.04937647,0.10383466,0.105977654,0.062086176,0.062086176,-0.106941916,-0.10632109,0.723571,-0.061429024,-0.041109636,-0.040853612,-1.5901895,-0.020189404,-0.053051557,-0.053244885,-0.04064793,-0.04064793,0.02780344,0.022165257,0.7846381,-0.0003619194,-0.04428985,-0.036606662,-1.6117135,-0.041713476,0.0014006644,-0.015435904,-0.027472544,-0.027472544,0.027492931,0.025789531,0.8077971,0.022797048,0.055270266,0.041096218,-1.5653961,0.004603982,0.02618989,0.020147014,0.012366429,0.012366429,0.06922459,0.06780772,0.8266782,0.04167819,-0.05425233,-0.052007522,-1.5891743,-0.019174218
19,0.38,0.0,0.0,0.0,0.0,0.0,0.0,0.0,0.0,-1.0,0.0,0.0,0.0,0.062086176,-0.061429024,-0.020189404,-0.04064793,-0.0003619194,-0.041713476,-0.027472544,0.022797048,0.004603982,0.012366429,0.04167819,-0.019174218,0.19153535,-0.20002772,-0.12057337,-0.06445696,0.08742982,0.09169176,0.02515123,-0.03229102,0.09286493,0.012692346,0.13454288,-0.12104759,-0.24132526,0.23230949,0.05648916,0.2566363,0.13939819,0.32871732,0.30349785,-0.14229126,0.2086735,-0.04303292,-0.19166109,-0.048748206,0.105977654,-0.10632109,-0.040853612,-0.053244885,0.022165257,-0.036606662,-0.015435904,0.025789531,0.041096218,0.020147014,0.06780772,-0.052007522,0.10164668,0.10577536,0.065431,0.065431,-0.106521115,-0.105954535,0.7200409,-0.06495911,-0.040745884,-0.041011922,-1.5924904,-0.022490382,-0.05272163,-0.05327953,-0.041424353,-0.041424353,0.029826444,0.023017947,0.78667915,0.0016791224,-0.047408707,-0.039429,-1.6092675,-0.03926742,0.0062755793,-0.0093113035,-0.02626453,-0.02626453,0.029488346,0.024641914,0.8068483,0.021848261,0.060184896,0.04466489,-1.5630643,0.0069357157,0.028842993,0.021861617,0.0125616435,0.0125616435,0.06713703,0.071077175,0.8290381,0.044038057,-0.055282455,-0.05095644,-1.5916759,-0.021675825
20,0.4,0.0,0.0,0.0,0.0,0.0,0.0,0.0,0.0,-1.0,0.0,0.0,0.0,0.065431,-0.06495911,-0.022490382,-0.041424353,0.0016791224,-0.03926742,-0.02626453,0.021848261,0.0069357157,0.0125616435,0.044038057,-0.021675825,0.16724099,-0.17650351,-0.115051106,-0.03882105,0.1020518,0.12230557,0.0604007,-0.04743825,0.1165872,0.009760736,0.117992416,-0.12508166,-0.28431362,0.2799613,0.089277185,0.25596392,0.106252156,0.25169435,0.31554168,-0.1287181,0.18805382,-0.030973732,-0.1949873,0.0017021298,0.10577536,-0.105954535,-0.041011922,-0.05327953,0.023017947,-0.039429,-0.0093113035,0.024641914,0.04466489,0.021861617,0.071077175,-0.05095644,0.099075384,0.10521385,0.068198204,0.068198204,-0.105740726,-0.106783934,0.7170575,-0.0679425,-0.041178256,-0.041214548,-1.5946162,-0.024616122,-0.052330088,-0.053268734,-0.041688673,-0.041688673,0.03214385,0.025507916,0.78897256,0.0039725304,-0.049657285,-0.041632116,-1.6063533,-0.03635323,0.010195196,-0.0038786083,-0.02433851,-0.02433851,0.032237418,0.025902389,0.8056623,0.020662248,0.06512374,0.050053805,-1.5602703,0.009729743,0.031011455,0.023874853,0.012727123,0.012727123,0.064854935,0.070550345,0.83099955,0.045999527,-0.057216857,-0.052814696,-1.5942038,-0.024203777
21,0.42,0.0,0.0,0.0,0.0,0.0,0.0,0.0,0.0,-1.0,0.0,0.0,0.0,0.068198204,-0.0679425,-0.024616122,-0.041688673,0.0039725304,-0.03635323,-0.02433851,0.020662248,0.009729743,0.012727123,0.045999527,-0.024203777,0.13836043,-0.14917095,-0.10628551,-0.013216022,0.11466896,0.14571242,0.09630102,-0.059301645,0.13970377,0.008273952,0.098072164,-0.12639803,-0.31864065,0.3073936,0.11728499,0.2474769,0.083168454,0.17573807,0.31023675,-0.093726024,0.17490292,-0.016772117,-0.22062592,0.027941674,0.10521385,-0.106783934,-0.041214548,-0.053268734,0.025507916,-0.041632116,-0.0038786083,0.025902389,0.050053805,0.023874853,0.070550345,-0.052814696,0.09550824,0.10383466,0.07030606,0.07030606,-0.10412548,-0.106941916,0.7146864,-0.07031363,-0.04056602,-0.041109636,-1.5965056,-0.02650559,-0.051885437,-0.053051557,-0.041454565,-0.041454565,0.03349505,0.02780344,0.791469,0.0064689517,-0.053547546,-0.04428985,-1.6031301,-0.03313005,0.013698928,0.0014006644,-0.021707548,-0.021707548,0.034753595,0.027492931,0.80431426,0.01931423,0.06936416,0.055270266,-1.557043,0.012957096,0.034404907,0.02618989,0.012896098,0.012896098,0.06174661,0.06922459,0.83249855,0.047498524,-0.05735502,-0.05425233,-1.5966989,-0.026698828
22,0.44,0.0,0.0,0.0,0.0,0.0,0.0,0.0,0.0,-1.0,0.0,0.0,0.0,0.07030606,-0.07031363,-0.02650559,-0.041454565,0.0064689517,-0.03313005,-0.021707548,0.01931423,0.012957096,0.012896098,0.047498524,-0.026698828,0.10539301,-0.11855795,-0.094473094,0.011705408,0.1248222,0.16116011,0.1315481,-0.067401856,0.16136715,0.008448769,0.07494899,-0.12475399,-0.34691626,0.32876158,0.14244948,0.23300788,0.05651304,0.09518212,0.29275203,-0.055383693,0.15416445,-0.0010428376,-0.2436541,0.05553915,0.10383466,-0.106941916,-0.041109636,-0.053051557,0.02780344,-0.04428985,0.0014006644,0.027492931,0.055270266,0.02618989,0.06922459,-0.05425233,0.09127637,0.10164668,0.07168508,0.07168508,-0.10201097,-0.106521115,0.7129795,-0.07202053,-0.039842986,-0.040745884,-1.5981044,-0.028104305,-0.05151842,-0.05272163,-0.040749162,-0.040749162,0.03437748,0.029826444,0.79411083,0.009110808,-0.05780437,-0.047408707,-1.5997665,-0.02976644,0.016381204,0.0062755793,-0.018413084,-0.018413084,0.037619974,0.029488346,0.8028874,0.017887354,0.072926655,0.060184896,-1.5534286,0.016571403,0.038040508,0.028842993,0.013105437,0.013105437,0.058141746,0.06713703,0.83347684,0.048476815,-0.057056103,-0.055282455,-1.5990994,-0.029099345
23,0.46,0.0,0.0,0.0,0.0,0.0,0.0,0.0,0.0,-1.0,0.0,0.0,0.0,0.07168508,-0.07202053,-0.028104305,-0.040749162,0.009110808,-0.02976644,-0.018413084,0.017887354,0.016571403,0.013105437,0.048476815,-0.029099345,0.068950996,-0.08534515,-0.07993727,0.03527014,0.1320919,0.16818313,0.16472325,-0.07134387,0.1807154,0.010466969,0.048913505,-0.12002405,-0.36826342,0.34283203,0.16366974,0.21257849,0.026792342,0.012900924,0.26245233,-0.014619127,0.12597951,0.015823465,-0.2629898,0.083342716,0.10164668,-0.106521115,-0.040745884,-0.05272163,0.029826444,-0.047408707,0.0062755793,0.029488346,0.060184896,0.028842993,0.06713703,-0.055282455,0.08640304,0.099075384,0.072286434,0.072286434,-0.09945581,-0.105740726,0.71197075,-0.07302928,-0.03904192,-0.041178256,-1.5993826,-0.029382586,-0.051316086,-0.052330088,-0.039612338,-0.039612338,0.03480516,0.03214385,0.79684335,0.011843324,-0.06236568,-0.049657285,-1.596413,-0.026412964,0.018141583,0.010195196,-0.014531,-0.014531,0.04084867,0.032237418,0.8014752,0.0164752,0.07565202,0.06512374,-1.5494834,0.020516634,0.041855652,0.031011455,0.013381119,0.013381119,0.054064944,0.064854935,0.83389264,0.048892617,-0.056352887,-0.057216857,-1.6013641,-0.031364083
24,0.48,0.0,0.0,0.0,0.0,0.0,0.0,0.0,0.0,-1.0,0.0,0.0,0.0,0.072286434,-0.07302928,-0.029382586,-0.039612338,0.011843324,-0.026412964,-0.014531,0.0164752,0.020516634,0.013381119,0.048892617,-0.031364083,0.030067623,-0.050437573,-0.0639161,0.056841224,0.13662507,0.1676744,0.19410418,-0.070606515,0.19726442,0.0137840845,0.020788908,-0.113237396,-0.3790137,0.34776193,0.17265363,0.18673608,-0.000655061,-0.05848854,0.21700546,0.029599333,0.09409202,0.027101696,-0.2738365,0.10070896,0.099075384,-0.105740726,-0.041178256,-0.052330088,0.03214385,-0.049657285,0.010195196,0.032237418,0.06512374,0.031011455,0.064854935,-0.057216857,0.081195116,0.09550824,0.072072685,0.072072685,-0.096382536,-0.10412548,0.71168333,-0.07331669,-0.038189977,-0.04056602,-1.6003059,-0.030305862,-0.051241625,-0.051885437,-0.038094927,-0.038094927,0.034905862,0.03349505,0.7995962,0.014596164,-0.067272894,-0.053547546,-1.5932387,-0.023238659,0.018857531,0.013698928,-0.010158846,-0.010158846,0.044108275,0.034753595,0.80016255,0.015162528,0.07833065,0.06936416,-1.5452821,0.024717927,0.046096954,0.034404907,0.013765299,0.013765299,0.0498564,0.06174661,0.833711,0.048711002,-0.055223618,-0.05735502,-1.6034297,-0.033429623
25,0.5,0.0,0.0,0.0,0.0,0.0,0.0,0.0,0.0,-1.0,0.0,0.0,0.0,0.072072685,-0.07331669,-0.030305862,-0.038094927,0.014596164,-0.023238659,-0.010158846,0.015162528,0.024717927,0.013765299,0.048711002,-0.033429623,-0.010687463,-0.014369246,-0.046160933,0.07587055,0.13764055,0.15871333,0.21860771,-0.06563366,0.21006584,0.019209016,-0.009081446,-0.10327694,-0.3837533,0.34724772,0.18344653,0.15650006,-0.034398355,-0.1359191,0.16282912,0.068244874,0.054392815,0.04538997,-0.2808625,0.12767301,0.09550824,-0.10412548,-0.04056602,-0.051885437,0.03349505,-0.053547546,0.013698928,0.034753595,0.06936416,0.034404907,0.06174661,-0.05735502,0.07549318,0.09127637,0.07102372,0.07102372,-0.093057446,-0.10201097,0.7121243,-0.07287574,-0.037434697,-0.039842986,-1.6008507,-0.030850649,-0.051525865,-0.05151842,-0.03625864,-0.03625864,0.03457063,0.03437748,0.8022943,0.017294288,-0.072091766,-0.05780437,-1.5904044,-0.020404339,0.01874347,0.016381204,-0.0054181176,-0.0054181176,0.047826346,0.037619974,0.7990322,0.014032185,0.07932383,0.072926655,-1.540915,0.02908504,0.049798258,0.038040508,0.014298429,0.014298429,0.04536401,0.058141746,0.83291,0.047909975,-0.053868968,-0.057056103,-1.6052351,-0.035235047
26,0.52,0.0,0.0,0.0,0.0,0.0,0.0,0.0,0.0,-1.0,0.0,0.0,0.0,0.07102372,-0.07287574,-0.030850649,-0.03625864,0.017294288,-0.020404339,-0.0054181176,0.014032185,0.02908504,0.014298429,0.047909975,-0.035235047,-0.052448288,0.022047155,-0.027237972,0.09181417,0.13490662,0.14171603,0.23703644,-0.056516066,0.21835527,0.026656494,-0.04005161,-0.090270646,-0.37994438,0.3389005,0.1884847,0.12208382,-0.06914227,-0.20682335,0.09922131,0.10470267,0.008875799,0.06222095,-0.28140014,0.15244657,0.09127637,-0.10201097,-0.039842986,-0.05151842,0.03437748,-0.05780437,0.016381204,0.037619974,0.072926655,0.038040508,0.058141746,-0.057056103,0.06950952,0.08640304,0.06913689,0.06913689,-0.08950997,-0.09945581,0.7132839,-0.07171613,-0.03674361,-0.03904192,-1.6010057,-0.031005621,-0.052107435,-0.051316086,-0.034174953,-0.034174953,0.03397088,0.03480516,0.804861,0.019860983,-0.07679185,-0.06236568,-1.5880567,-0.018056631,0.017779276,0.018141583,-0.00045078062,-0.00045078062,0.051633824,0.04084867,0.79816294,0.013162911,0.07936816,0.07565202,-1.5364865,0.033513546,0.053208444,0.041855652,0.015017043,0.015017043,0.040834602,0.054064944,0.8314809,0.046480894,-0.052280504,-0.056352887,-1.6067244,-0.03672433
27,0.54,0.0,0.0,0.0,0.0,0.0,0.0,0.0,0.0,-1.0,0.0,0.0,0.0,0.06913689,-0.07171613,-0.031005621,-0.034174953,0.019860983,-0.018056631,-0.00045078062,0.013162911,0.033513546,0.015017043,0.046480894,-0.03672433,-0.09434138,0.057981312,-0.0077486336,0.10418442,0.12833457,0.11738456,0.24836686,-0.04346287,0.22142313,0.035930704,-0.071453,-0.07446332,-0.36779517,0.32282075,0.18762828,0.08417834,-0.10350158,-0.26871234,0.028161729,0.13791376,-0.04171132,0.07660718,-0.2754479,0.17399809,0.08640304,-0.09945581,-0.03904192,-0.051316086,0.03480516,-0.06236568,0.018141583,0.04084867,0.07565202,0.041855652,0.054064944,-0.056352887,0.063349135,0.081195116,0.06643114,0.06643114,-0.085802995,-0.096382536,0.7151383,-0.06986171,-0.036108665,-0.038189977,-1.6007718,-0.030771732,-0.052992698,-0.051241625,-0.031921715,-0.031921715,0.0331371,0.034905862,0.8072223,0.02222228,-0.08122155,-0.067272894,-1.5863249,-0.016324878,0.01606001,0.018857531,0.0045843353,0.0045843353,0.05539918,0.044108275,0.79762167,0.012621641,0.07842497,0.07833065,-1.5320987,0.0379014,0.056147907,0.046096954,0.015956732,0.015956732,0.036400363,0.0498564,0.8294336,0.044433594,-0.05050693,-0.055223618,-1.6078476,-0.03784752
28,0.56,0.0,0.0,0.0,0.0,0.0,0.0,0.0,0.0,-1.0,0.0,0.0,0.0,0.06643114,-0.06986171,-0.030771732,-0.031921715,0.02222228,-0.016324878,0.0045843353,0.012621641,0.0379014,0.015956732,0.044433594,-0.03784752,-0.13528724,0.09272206,0.01169588,0.11266182,0.11806499,0.08658762,0.2517558,-0.027063766,0.2193949,0.046984464,-0.10236464,-0.056160193,-0.3456937,0.30036634,0.18098067,0.044483524,-0.13534169,-0.32027897,-0.048367016,0.16445181,-0.08947383,0.0899757,-0.26090378,0.19185077,0.081195116,-0.096382536,-0.038189977,-0.051241625,0.034905862,-0.067272894,0.018857531,0.044108275,0.07833065,0.046096954,0.0498564,-0.055223618,0.05725738,0.07549318,0.06294278,0.06294278,-0.081767656,-0.093057446,0.7176467,-0.06735331,-0.03546395,-0.037434697,-1.6001638,-0.030163765,-0.05413046,-0.051525865,-0.02958406,-0.02958406,0.031986963,0.03457063,0.8093076,0.024307549,-0.08537527,-0.072091766,-1.5853108,-0.015310764,0.013828367,0.01874347,0.009520892,0.009520892,0.058830593,0.047826346,0.7974688,0.012468755,0.07653931,0.07932383,-1.5278738,0.042126298,0.05833349,0.049798258,0.017135592,0.017135592,0.032555964,0.04536401,0.82679266,0.04179263,-0.048445094,-0.053868968,-1.6085654,-0.038565397
29,0.58,0.0,0.0,0.0,0.0,0.0,0.0,0.0,0.0,-1.0,0.0,0.0,0.0,0.06294278,-0.06735331,-0.030163765,-0.02958406,0.024307549,-0.015310764,0.009520892,0.012468755,0.042126298,0.017135592,0.04179263,-0.038565397,-0.17441817,0.12541878,0.030398004,0.116882786,0.10426255,0.05070459,0.24682786,-0.0076441728,0.21124193,0.058943078,-0.13204893,-0.03589136,-0.31592998,0.2704844,0.1679427,0.0026966394,-0.16448745,-0.3571146,-0.12580045,0.18693233,-0.14505158,0.09474504,-0.23974545,0.20403996,0.07549318,-0.093057446,-0.037434697,-0.051525865,0.03457063,-0.072091766,0.01874347,0.047826346,0.07932383,0.049798258,0.04536401,-0.053868968,0.05125524,0.06950952,0.058726817,0.058726817,-0.07788441,-0.08950997,0.72075284,-0.06424719,-0.03491292,-0.03674361,-1.599209,-0.029208899,-0.05550551,-0.052107435,-0.027250316,-0.027250316,0.030758556,0.03397088,0.8110542,0.026054204,-0.08876204,-0.07679185,-1.5850861,-0.015086055,0.011021391,0.017779276,0.0141904205,0.0141904205,0.06199499,0.051633824,0.7977507,0.012750685,0.07388879,0.07936816,-1.5239383,0.046061754,0.059818324,0.053208444,0.018558506,0.018558506,0.028991472,0.040834602,0.8235997,0.03859967,-0.046468083,-0.052280504,-1.6088498,-0.03884971
30,0.6,0.0,0.0,0.0,0.0,0.0,0.0,0.0,0.0,-1.0,0.0,0.0,0.0,0.058726817,-0.06424719,-0.029208899,-0.027250316,0.026054204,-0.015086055,0.0141904205,0.012750685,0.046061754,0.018558506,0.03859967,-0.03884971,-0.21079808,0.15530516,0.047745213,0.11668719,0.087334014,0.011233177,0.23347646,0.014095096,0.19677225,0.07114573,-0.15964706,-0.014216499,-0.27815387,0.23422277,0.14952065,-0.03919802,-0.1887676,-0.37857383,-0.20155075,0.20201215,-0.20042928,0.0931586,-0.21109481,0.21046023,0.06950952,-0.08950997,-0.03674361,-0.052107435,0.03397088,-0.07679185,0.017779276,0.051633824,0.07936816,0.053208444,0.040834602,-0.052280504,0.045584265,0.063349135,0.05385598,0.05385598,-0.07406763,-0.085802995,0.7243867,-0.060613334,-0.034343354,-0.036108665,-1.5979449,-0.027944803,-0.057018857,-0.052992698,-0.025009133,-0.025009133,0.029366996,0.0331371,0.81241006,0.02741003,-0.09137306,-0.08122155,-1.5856894,-0.015689373,0.007867515,0.01606001,0.018429339,0.018429339,0.0646759,0.05539918,0.7984969,0.013496876,0.07049011,0.07842497,-1.5204188,0.04958129,0.06038094,0.056147907,0.02021477,0.02021477,0.026061317,0.036400363,0.8199136,0.0349136,-0.044475336,-0.05050693,-1.6086848,-0.038684726
31,0.62,0.0,0.0,0.0,0.0,0.0,0.0,0.0,0.0,-1.0,0.0,0.0,0.0,0.05385598,-0.060613334,-0.027944803,-0.025009133,0.02741003,-0.015689373,0.018429339,0.013496876,0.04958129,0.02021477,0.0349136,-0.038684726,-0.24354178,0.18169299,0.063205205,0.11205918,0.067790255,-0.030168056,0.21194598,0.03730859,0.17597477,0.08281316,-0.18430392,0.0082484,-0.23313174,0.1925426,0.1266444,-0.07982505,-0.20735896,-0.38365865,-0.27236232,0.20858912,-0.25388855,0.084340364,-0.17526308,0.21077678,0.063349135,-0.085802995,-0.036108665,-0.052992698,0.0331371,-0.08122155,0.01606001,0.05539918,0.07842497,0.056147907,0.036400363,-0.05050693,0.040461347,0.05725738,0.048421413,0.048421413,-0.07041966,-0.081767656,0.7284702,-0.05652982,-0.033709347,-0.03546395,-1.5964172,-0.026417136,-0.05860084,-0.05413046,-0.022945803,-0.022945803,0.02779596,0.031986963,0.81333274,0.02833271,-0.0930649,-0.08537527,-1.5871266,-0.01712656,0.004458025,0.013828367,0.022087827,0.022087827,0.06675479,0.058830593,0.79971516,0.014715135,0.06637016,0.07653931,-1.5174372,0.052562833,0.0598729,0.05833349,0.022074683,0.022074683,0.02390733,0.032555964,0.8158155,0.030815482,-0.042470414,-0.048445094,-1.6080652,-0.038065195
32,0.64,0.0,0.0,0.0,0.0,0.0,0.0,0.0,0.0,-1.0,0.0,0.0,0.0,0.048421413,-0.05652982,-0.026417136,-0.022945803,0.02833271,-0.01712656,0.022087827,0.014715135,0.052562833,0.022074683,0.030815482,-0.038065195,-0.27172837,0.20417553,0.076385394,0.10316647,0.046134256,-0.0718569,0.18292443,0.060912654,0.14907739,0.09299566,-0.20490573,0.030975552,-0.18081936,0.14824793,0.10076909,-0.117494084,-0.2204949,-0.37304908,-0.33424053,0.20474645,-0.3032298,0.06697517,-0.13014735,0.20599547,0.05725738,-0.081767656,-0.03546395,-0.05413046,0.031986963,-0.08537527,0.013828367,0.058830593,0.07653931,0.05833349,0.032555964,-0.048445094,0.036244616,0.05125524,0.042529173,0.042529173,-0.06709015,-0.07788441,0.73291236,-0.052087665,-0.033052303,-0.03491292,-1.5946791,-0.024679065,-0.060146328,-0.05550551,-0.021139462,-0.021139462,0.026049692,0.030758556,0.8137948,0.028794765,-0.09361971,-0.08876204,-1.589364,-0.019364,0.0008421689,0.011021391,0.025032923,0.025032923,0.068057954,0.06199499,0.8013935,0.016393483,0.061742663,0.07388879,-1.5151045,0.05489552,0.058186043,0.059818324,0.024092304,0.024092304,0.022789573,0.028991472,0.81140006,0.02640003,-0.040534753,-0.046468083,-1.6070021,-0.037002087
33,0.66,0.0,0.0,0.0,0.0,0.0,0.0,0.0,0.0,-1.0,0.0,0.0,0.0,0.042529173,-0.052087665,-0.024679065,-0.021139462,0.028794765,-0.019364,0.025032923,0.016393483,0.05489552,0.024092304,0.02640003,-0.037002087,-0.29461202,0.22210692,0.08690328,0.09031702,0.023102006,-0.1118712,0.1472548,0.083918825,0.11663401,0.10088104,-0.22077206,0.053156674,-0.12311883,0.0992737,0.072110794,-0.1509712,-0.22619924,-0.34433678,-0.38598305,0.19170511,-0.3455351,0.042629212,-0.08008276,0.1937109,0.05125524,-0.07788441,-0.03491292,-0.05550551,0.030758556,-0.08876204,0.011021391,0.06199499,0.07388879,0.059818324,0.028991472,-0.046468083,0.033130094,0.045584265,0.03629996,0.03629996,-0.06423702,-0.07406763,0.7376141,-0.04738593,-0.03223928,-0.034343354,-1.5927877,-0.02278769,-0.061565164,-0.057018857,-0.019659277,-0.019659277,0.023971904,0.029366996,0.81378216,0.02878213,-0.09305789,-0.09137306,-1.5923319,-0.022331834,-0.0028866827,0.007867515,0.02715559,0.02715559,0.068530306,0.0646759,0.8034982,0.018498182,0.05666106,0.07049011,-1.5135173,0.056482792,0.055414576,0.06038094,0.026204184,0.026204184,0.022591148,0.026061317,0.8067776,0.02177757,-0.038626935,-0.044475336,-1.6055197,-0.0355196
34,0.68,0.0,0.0,0.0,0.0,0.0,0.0,0.0,0.0,-1.0,0.0,0.0,0.0,0.03629996,-0.04738593,-0.02278769,-0.019659277,0.02878213,-0.022331834,0.02715559,0.018498182,0.056482792,0.026204184,0.02177757,-0.0355196,-0.31146067,0.23508777,0.094570026,0.074009225,-0.0006311424,-0.14839362,0.10613339,0.10523406,0.07936157,0.105594054,-0.23112446,0.07412192,-0.060394883,0.048090268,0.04257209,-0.17860703,-0.22526273,-0.29947758,-0.424616,0.16881947,-0.37948447,0.010983551,-0.024388527,0.1754501,0.045584265,-0.07406763,-0.034343354,-0.057018857,0.029366996,-0.09137306,0.007867515,0.0646759,0.07049011,0.06038094,0.026061317,-0.044475336,0.03141281,0.040461347,0.029867988,0.029867988,-0.062059782,-0.07041966,0.7424704,-0.042529643,-0.03131721,-0.033709347,-1.590801,-0.020800948,-0.062762156,-0.05860084,-0.018561618,-0.018561618,0.02155063,0.02779596,0.8132939,0.028293848,-0.09123006,-0.0930649,-1.5959258,-0.025925756,-0.0067216903,0.004458025,0.028374473,0.028374473,0.06808304,0.06675479,0.80597377,0.020973742,0.051287886,0.06637016,-1.5127549,0.057245135,0.051593196,0.0598729,0.028329903,0.028329903,0.02344361,0.02390733,0.80207187,0.017071843,-0.03684317,-0.042470414,-1.6036543,-0.033654213
35,0.7000000000000001,0.0,0.0,0.0,0.0,0.0,0.0,0.0,0.0,-1.0,0.0,0.0,0.0,0.029867988,-0.042529643,-0.020800948,-0.018561618,0.028293848,-0.025925756,0.028374473,0.020973742,0.057245135,0.028329903,0.017071843,-0.033654213,-0.3215985,0.24281514,0.0993344,0.054882936,-0.024414264,-0.17969483,0.060944196,0.12377912,0.03811723,0.106285974,-0.2352865,0.09327082,0.0066022156,-0.0042906404,0.013473672,-0.19926229,-0.21812716,-0.23985878,-0.44879946,0.13656911,-0.4040188,-0.027438248,0.03575219,0.15206835,0.040461347,-0.07041966,-0.033709347,-0.05860084,0.02779596,-0.0930649,0.004458025,0.06675479,0.06637016,0.0598729,0.02390733,-0.042470414,0.031291507,0.036244616,0.023381755,0.023381755,-0.060733043,-0.06709015,0.7473714,-0.03762865,-0.03034284,-0.033052303,-1.5887768,-0.018776774,-0.06365608,-0.060146328,-0.017887212,-0.017887212,0.018781211,0.026049692,0.8123414,0.027341366,-0.08808138,-0.09361971,-1.6000082,-0.030008197,-0.010686755,0.0008421689,0.028637905,0.028637905,0.06671882,0.068057954,0.80874336,0.023743331,0.045776557,0.061742663,-1.5128746,0.05712545,0.04688103,0.058186043,0.030373756,0.030373756,0.02533889,0.022789573,0.7974198,0.01241976,-0.035244267,-0.040534753,-1.6014538,-0.03145373
36,0.72,0.0,0.0,0.0,0.0,0.0,0.0,0.0,0.0,-1.0,0.0,0.0,0.0,0.023381755,-0.03762865,-0.018776774,-0.017887212,0.027341366,-0.030008197,0.028637905,0.023743331,0.05712545,0.030373756,0.01241976,-0.03145373,-0.32431167,0.24504969,0.10120743,0.033720315,-0.04762392,-0.20412473,0.013171565,0.13847849,-0.0059868097,0.10219266,-0.23260546,0.11002623,0.078004695,-0.057187665,-0.01459297,-0.21183538,-0.20525202,-0.16676506,-0.45805493,0.09533061,-0.41707343,-0.071588084,0.099903345,0.123968676,0.036244616,-0.06709015,-0.033052303,-0.060146328,0.026049692,-0.09361971,0.0008421689,0.068057954,0.061742663,0.058186043,0.022789573,-0.040534753,0.03299897,0.033130094,0.0170017,0.0170017,-0.060330592,-0.06423702,0.75220364,-0.032796383,-0.029466175,-0.03223928,-1.5867689,-0.016768813,-0.0641333,-0.061565164,-0.017659178,-0.017659178,0.015651856,0.023971904,0.81094515,0.025945127,-0.08358704,-0.09305789,-1.6044153,-0.034415245,-0.01487045,-0.0028866827,0.027925564,0.027925564,0.064474106,0.068530306,0.81171113,0.026711106,0.04039792,0.05666106,-1.5139098,0.056090236,0.04151583,0.055414576,0.03223009,0.03223009,0.028315369,0.022591148,0.7929643,0.007964253,-0.033829894,-0.038626935,-1.5989748,-0.028974771
37,0.74,0.0,0.0,0.0,0.0,0.0,0.0,0.0,0.0,-1.0,0.0,0.0,0.0,0.0170017,-0.032796383,-0.016768813,-0.017659178,0.025945127,-0.034415245,0.027925564,0.026711106,0.056090236,0.03223009,0.007964253,-0.028974771,-0.3190028,0.24161345,0.10039853,0.011401709,-0.069811374,-0.22035168,-0.035617005,0.14838949,-0.051759284,0.09281668,-0.22277391,0.123949364,0.15251496,-0.10996058,-0.039811842,-0.21567532,-0.18844102,-0.08364321,-0.452094,0.046670128,-0.41827512,-0.11877318,0.16468781,0.09260639,0.033130094,-0.06423702,-0.03223928,-0.061565164,0.023971904,-0.09305789,-0.0028866827,0.068530306,0.05666106,0.055414576,0.022591148,-0.038626935,0.03656653,0.03141281,0.010899197,0.010899197,-0.060971856,-0.062059782,0.75685084,-0.028149188,-0.028748192,-0.03131721,-1.5848258,-0.014825702,-0.06413257,-0.062762156,-0.017881647,-0.017881647,0.012120124,0.02155063,0.8091333,0.024133265,-0.077842556,-0.09123006,-1.6089604,-0.038960338,-0.019303113,-0.0067216903,0.026247676,0.026247676,0.061567117,0.06808304,0.8147651,0.02976507,0.035217535,0.051287886,-1.5158675,0.05413258,0.03571769,0.051593196,0.033787735,0.033787735,0.03223292,0.02344361,0.7888518,0.0038517714,-0.032626178,-0.03684317,-1.5962821,-0.026282072
38,0.76,0.0,0.0,0.0,0.0,0.0,0.0,0.0,0.0,-1.0,0.0,0.0,0.0,0.010899197,-0.028149188,-0.014825702,-0.017881647,0.024133265,-0.038960338,0.026247676,0.02976507,0.05413258,0.033787735,0.0038517714,-0.026282072,-0.30512515,0.23235919,0.09715492,-0.011123415,-0.09059248,-0.22725382,-0.08389442,0.15269868,-0.097885385,0.07788226,-0.20562315,0.13463709,0.22947788,-0.16227068,-0.06190411,-0.21042919,-0.16843076,0.0071510794,-0.4317891,-0.007926071,-0.40687546,-0.16679932,0.22873187,0.058450114,0.03141281,-0.062059782,-0.03131721,-0.062762156,0.02155063,-0.09123006,-0.0067216903,0.06808304,0.051287886,0.051593196,0.02344361,-0.03684317,0.04194331,0.031291507,0.0052537094,0.0052537094,-0.06287151,-0.060733043,0.7611947,-0.02380532,-0.028283007,-0.03034284,-1.5829909,-0.012990832,-0.063645095,-0.06365608,-0.018539276,-0.018539276,0.008234393,0.018781211,0.80694026,0.021940231,-0.070959084,-0.08808138,-1.6134408,-0.0434407,-0.024160571,-0.010686755,0.02364277,0.02364277,0.058158744,0.06671882,0.8177814,0.032781363,0.030651173,0.045776557,-1.5187271,0.05127299,0.030051284,0.04688103,0.034936387,0.034936387,0.03684823,0.02533889,0.7852271,0.0002270937,-0.031784836,-0.035244267,-1.5934469,-0.023446798
39,0.78,0.0,0.0,0.0,0.0,0.0,0.0,0.0,0.0,-1.0,0.0,0.0,0.0,0.0052537094,-0.02380532,-0.012990832,-0.018539276,0.021940231,-0.0434407,0.02364277,0.032781363,0.05127299,0.034936387,0.0002270937,-0.023446798,-0.2822744,0.21719347,0.09174404,-0.03288147,-0.10965113,-0.22401968,-0.13024539,0.15081468,-0.14298196,0.0574326,-0.18123372,0.14176117,0.3074099,-0.21357624,-0.08076124,-0.19617948,-0.14596865,0.10241015,-0.39865565,-0.06615861,-0.382664,-0.21265025,0.28969446,0.022314375,0.031291507,-0.060733043,-0.03034284,-0.06365608,0.018781211,-0.08808138,-0.010686755,0.06671882,0.045776557,0.04688103,0.02533889,-0.035244267,0.04894483,0.03299897,0.00025036093,0.00025036093,-0.06604805,-0.060330592,0.7651179,-0.019882143,-0.028156757,-0.029466175,-1.5813035,-0.011303425,-0.06275903,-0.0641333,-0.0195969,-0.0195969,0.0041912086,0.015651856,0.8044052,0.019405186,-0.063276246,-0.08358704,-1.6176444,-0.047644377,-0.029436141,-0.01487045,0.020173611,0.020173611,0.054456733,0.064474106,0.8206295,0.03562945,0.02686522,0.04039792,-1.522438,0.047562003,0.024934974,0.04151583,0.035573896,0.035573896,0.04192067,0.028315369,0.7822295,-0.002770543,-0.031325866,-0.033829894,-1.5905443,-0.02054429
40,0.8,0.0,0.0,0.0,0.0,0.0,0.0,0.0,0.0,-1.0,0.0,0.0,0.0,0.00025036093,-0.019882143,-0.011303425,-0.0195969,0.019405186,-0.047644377,0.020173611,0.03562945,0.047562003,0.035573896,-0.002770543,-0.02054429,-0.25016743,0.19615781,0.08436925,-0.052881196,-0.12675148,-0.21018311,-0.1734579,0.14240305,-0.18555135,0.031875417,-0.14988305,0.14512405,0.38506967,-0.26260966,-0.09705905,-0.17307541,-0.12189267,0.19870614,-0.35501242,-0.1254799,-0.34503332,-0.2529934,0.3457936,-0.014492798,0.03299897,-0.060330592,-0.029466175,-0.0641333,0.015651856,-0.08358704,-0.01487045,0.064474106,0.04039792,0.04151583,0.028315369,-0.033829894,0.05742739,0.03656653,-0.0039257673,-0.0039257673,-0.07032771,-0.060971856,0.7685056,-0.016494453,-0.028500125,-0.028748192,-1.5797987,-0.009798646,-0.061605465,-0.06413257,-0.021000665,-0.021000665,0.0002923198,0.012120124,0.8015699,0.016569853,-0.05513546,-0.077842556,-1.6213588,-0.0513587,-0.034988545,-0.019303113,0.015923506,0.015923506,0.050512936,0.061567117,0.8231801,0.038180053,0.024006104,0.035217535,-1.526922,0.043078065,0.02059428,0.03571769,0.035612646,0.035612646,0.047302574,0.03223292,0.7799861,-0.0050139427,-0.03129034,-0.032626178,-1.5876516,-0.017651558
41,0.8200000000000001,0.0,0.0,0.0,0.0,0.0,0.0,0.0,0.0,-1.0,0.0,0.0,0.0,-0.0039257673,-0.016494453,-0.009798646,-0.021000665,0.016569853,-0.0513587,0.015923506,0.038180053,0.043078065,0.035612646,-0.0050139427,-0.017651558,-0.20880641,0.16938387,0.07523765,-0.07018815,-0.1417661,-0.18571693,-0.21250528,0.12752943,-0.22419897,0.0019375626,-0.11216973,0.1446378,0.4597477,-0.30855554,-0.110826686,-0.14195585,-0.09727357,0.29185787,-0.30294836,-0.18210903,-0.29540938,-0.28502962,0.394171,-0.05090319,0.03656653,-0.060971856,-0.028748192,-0.06413257,0.012120124,-0.077842556,-0.019303113,0.061567117,0.035217535,0.03571769,0.03223292,-0.032626178,0.06700502,0.04194331,-0.0070963716,-0.0070963716,-0.07553204,-0.06287151,0.7712457,-0.013754308,-0.029356867,-0.028283007,-1.5785081,-0.008508086,-0.060365777,-0.063645095,-0.02268054,-0.02268054,-0.0031027906,0.008234393,0.7984778,0.013477802,-0.046948843,-0.070959084,-1.6243793,-0.054379225,-0.040498998,-0.024160571,0.010989784,0.010989784,0.04642042,0.058158744,0.8253119,0.040311873,0.022102522,0.030651173,-1.5320698,0.03793025,0.017158289,0.030051284,0.034990676,0.034990676,0.05271118,0.03684823,0.77860487,-0.006395161,-0.03170957,-0.031784836,-1.5848472,-0.014847159
42,0.84,0.0,0.0,0.0,0.0,0.0,0.0,0.0,0.0,-1.0,0.0,0.0,0.0,-0.0070963716,-0.013754308,-0.008508086,-0.02268054,0.013477802,-0.054379225,0.010989784,0.040311873,0.03793025,0.034990676,-0.006395161,-0.014847159,-0.1585302,0.13700864,0.0645271,-0.083993755,-0.15460205,-0.15102443,-0.24668609,0.10659187,-0.25739306,-0.031098524,-0.069060385,0.14022058,0.5283536,-0.35140705,-0.12239913,-0.10427525,-0.07246876,0.3779071,-0.24577808,-0.23301587,-0.23297873,-0.3038913,0.4316383,-0.086833924,0.04194331,-0.06287151,-0.028283007,-0.063645095,0.008234393,-0.070959084,-0.024160571,0.058158744,0.030651173,0.030051284,0.03684823,-0.031784836,0.07717865,0.04894483,-0.009098244,-0.009098244,-0.081297405,-0.06604805,0.7732322,-0.011767805,-0.03065712,-0.028156757,-1.5774604,-0.0074603558,-0.059167888,-0.06275903,-0.024554789,-0.024554789,-0.005825948,0.0041912086,0.79517615,0.010176122,-0.0392998,-0.063276246,-1.626521,-0.05652094,-0.045500837,-0.029436141,0.005480097,0.005480097,0.042293657,0.054456733,0.8269185,0.041918457,0.021043113,0.02686522,-1.5377442,0.032255888,0.01458263,0.024934974,0.03367906,0.03367906,0.05796311,0.04192067,0.7781681,-0.006831944,-0.032414947,-0.031325866,-1.5822091,-0.012209058
43,0.86,0.0,0.0,0.0,0.0,0.0,0.0,0.0,0.0,-1.0,0.0,0.0,0.0,-0.009098244,-0.011767805,-0.0074603558,-0.024554789,0.010176122,-0.05652094,0.005480097,0.041918457,0.032255888,0.03367906,-0.006831944,-0.012209058,-0.10009363,0.09932668,0.05238828,-0.09371243,-0.1650835,-0.10708748,-0.27548435,0.08032865,-0.2837196,-0.0655807,-0.02183858,0.13190435,0.5871774,-0.38976267,-0.1320825,-0.062339377,-0.04674692,0.45166844,-0.18542852,-0.27520594,-0.15931246,-0.30659482,0.45559567,-0.121213794,0.04894483,-0.06604805,-0.028156757,-0.06275903,0.0041912086,-0.063276246,-0.029436141,0.054456733,0.02686522,0.024934974,0.04192067,-0.031325866,0.087347925,0.05742739,-0.009790041,-0.009790041,-0.08725918,-0.07032771,0.77437073,-0.010629296,-0.03225658,-0.028500125,-1.5766823,-0.0066822767,-0.05812533,-0.061605465,-0.02653526,-0.02653526,-0.0076356046,0.0002923198,0.7917186,0.006718576,-0.032636188,-0.05513546,-1.6276292,-0.05762911,-0.04950342,-0.034988545,-0.0004892852,-0.0004892852,0.038208757,0.050512936,0.82791156,0.04291153,0.020606225,0.024006104,-1.543783,0.026217103,0.012819327,0.02059428,0.031684805,0.031684805,0.06275814,0.047302574,0.7787286,-0.006271422,-0.033236463,-0.03129034,-1.5798129,-0.009812832
44,0.88,0.0,0.0,0.0,0.0,0.0,0.0,0.0,0.0,-1.0,0.0,0.0,0.0,-0.009790041,-0.010629296,-0.0066822767,-0.02653526,0.006718576,-0.05762911,-0.0004892852,0.04291153,0.026217103,0.031684805,-0.006271422,-0.009812832,-0.03458985,0.056926623,0.03890537,-0.09902351,-0.17287728,-0.055407993,-0.29846913,0.049653016,-0.30193815,-0.099712744,0.02802654,0.119811386,0.6333547,-0.42101663,-0.1405369,-0.018767808,-0.018720161,0.5086858,-0.12284525,-0.3073077,-0.07645555,-0.29234627,0.4647503,-0.15322272,0.05742739,-0.07032771,-0.028500125,-0.061605465,0.0002923198,-0.05513546,-0.034988545,0.050512936,0.024006104,0.02059428,0.047302574,-0.03129034,0.096849896,0.06700502,-0.009061886,-0.009061886,-0.09297379,-0.07553204,0.77458394,-0.0104160905,-0.033978738,-0.029356867,-1.576199,-0.0061990023,-0.05733105,-0.060365777,-0.02853343,-0.02853343,-0.008363832,-0.0031027906,0.7881693,0.0031692982,-0.027370624,-0.046948843,-1.627589,-0.057588935,-0.052006878,-0.040498998,-0.0067925253,-0.0067925253,0.03417683,0.04642042,0.82822454,0.043224514,0.020628257,0.022102522,-1.5500051,0.019994974,0.011815619,0.017158289,0.029050881,0.029050881,0.066902824,0.05271118,0.78030515,-0.004694879,-0.0340073,-0.03170957,-1.5777298,-0.0077297688
45,0.9,0.0,0.0,0.0,0.0,0.0,0.0,0.0,0.0,-1.0,0.0,0.0,0.0,-0.009061886,-0.0104160905,-0.0061990023,-0.02853343,0.0031692982,-0.057588935,-0.0067925253,0.043224514,0.019994974,0.029050881,-0.004694879,-0.0077297688,0.036407724,0.010661505,0.02416618,-0.099908546,-0.17746536,0.00200985,-0.315162,0.015648283,-0.31110653,-0.13169616,0.07882839,0.10415361,0.6628265,-0.44292992,-0.1477547,0.023562944,0.013201678,0.54482675,-0.057730578,-0.3280527,0.012454438,-0.2616997,0.45739287,-0.18207787,0.06700502,-0.07553204,-0.029356867,-0.060365777,-0.0031027906,-0.046948843,-0.040498998,0.04642042,0.022102522,0.017158289,0.05271118,-0.03170957,0.105118334,0.07717865,-0.006845301,-0.006845301,-0.09799018,-0.081297405,0.7738191,-0.011180937,-0.035636537,-0.03065712,-1.576032,-0.00603199,-0.05670471,-0.059167888,-0.030465309,-0.030465309,-0.007990856,-0.005825948,0.7846028,-0.00039720535,-0.023727447,-0.0392998,-1.6263367,-0.05633664,-0.052630395,-0.045500837,-0.0132912565,-0.0132912565,0.030225357,0.042293657,0.82781535,0.042815328,0.021013344,0.021043113,-1.5562192,0.013780832,0.011510868,0.01458263,0.025852349,0.025852349,0.07025075,0.05796311,0.78288054,-0.0021194816,-0.034553785,-0.032414947,-1.5760221,-0.0060220957
46,0.92,0.0,0.0,0.0,0.0,0.0,0.0,0.0,0.0,-1.0,0.0,0.0,0.0,-0.006845301,-0.011180937,-0.00603199,-0.030465309,-0.00039720535,-0.05633664,-0.0132912565,0.042815328,0.013780832,0.025852349,-0.0021194816,-0.0060220957,0.110829264,-0.03824374,0.008350633,-0.09659394,-0.17832378,0.06261187,-0.32493654,-0.020458419,-0.3107087,-0.15992667,0.12876928,0.08538163,0.67153937,-0.4523623,-0.1529199,0.062398802,0.0489092,0.55568254,0.011121678,-0.3364667,0.10320554,-0.21701321,0.43323213,-0.20565657,0.07717865,-0.081297405,-0.03065712,-0.059167888,-0.005825948,-0.0392998,-0.045500837,0.042293657,0.021043113,0.01458263,0.05796311,-0.032414947,0.11168161,0.087347925,-0.0031229288,-0.0031229288,-0.10192775,-0.08725918,0.7720541,-0.01294595,-0.037065797,-0.03225658,-1.5761964,-0.0061963797,-0.056102645,-0.05812533,-0.03225571,-0.03225571,-0.006537717,-0.0076356046,0.7811052,-0.003894806,-0.021719165,-0.032636188,-1.6238664,-0.053866386,-0.051137798,-0.04950342,-0.019831784,-0.019831784,0.026365874,0.038208757,0.8266679,0.04166788,0.021685941,0.020606225,-1.5622339,0.0077661276,0.011785846,0.012819327,0.022191577,0.022191577,0.07272821,0.06275814,0.7863991,0.0013990998,-0.03479876,-0.033236463,-1.574739,-0.004738927
47,0.9400000000000001,0.0,0.0,0.0,0.0,0.0,0.0,0.0,0.0,-1.0,0.0,0.0,0.0,-0.0031229288,-0.01294595,-0.0061963797,-0.03225571,-0.003894806,-0.053866386,-0.019831784,0.04166788,0.0077661276,0.022191577,0.0013990998,-0.004738927,0.18611862,-0.088249385,-0.008220997,-0.08952001,-0.17488053,0.12351097,-0.32702643,-0.057373043,-0.30073756,-0.18303864,0.17592846,0.06415869,0.65569097,-0.4468135,-0.15480025,0.095848724,0.088672414,0.5390174,0.084794395,-0.33232975,0.19096097,-0.16099128,0.39171487,-0.22214854,0.087347925,-0.08725918,-0.03225658,-0.05812533,-0.0076356046,-0.032636188,-0.04950342,0.038208757,0.020606225,0.012819327,0.06275814,-0.033236463,0.11617678,0.096849896,0.002062857,0.002062857,-0.10448394,-0.09297379,0.76930404,-0.01569599,-0.03810188,-0.033978738,-1.5766981,-0.0066980124,-0.055306,-0.05733105,-0.033841703,-0.033841703,-0.004140295,-0.008363832,0.7777733,-0.0072267056,-0.021265946,-0.027370624,-1.6202339,-0.05023384,-0.047497477,-0.052006878,-0.02624278,-0.02624278,0.022656657,0.03417683,0.82479125,0.039791226,0.022598615,0.020628257,-1.5678664,0.0021336079,0.012563694,0.011815619,0.018192763,0.018192763,0.074237674,0.066902824,0.79076743,0.005767405,-0.034709614,-0.0340073,-1.5739124,-0.0039123297
48,0.96,0.0,0.0,0.0,0.0,0.0,0.0,0.0,0.0,-1.0,0.0,0.0,0.0,0.002062857,-0.01569599,-0.0066980124,-0.033841703,-0.0072267056,-0.05023384,-0.02624278,0.039791226,0.0021336079,0.018192763,0.005767405,-0.0039123297,0.2592893,-0.13750246,-0.025078699,-0.07929971,-0.16659589,0.1816251,-0.32054976,-0.09383154,-0.2816239,-0.19994073,0.21841577,0.041327193,0.6121488,-0.42390355,-0.15212205,0.12246869,0.13201448,0.4939634,0.16410431,-0.31632924,0.27169994,-0.09658889,0.33373666,-0.2301248,0.096849896,-0.09297379,-0.033978738,-0.05733105,-0.008363832,-0.027370624,-0.052006878,0.03417683,0.020628257,0.011815619,0.066902824,-0.0340073,0.118472904,0.105118334,0.008605235,0.008605235,-0.10551797,-0.09799018,0.7656259,-0.019374132,-0.038658984,-0.035636537,-1.5775304,-0.0075303316,-0.05413409,-0.05670471,-0.035172738,-0.035172738,-0.0010057501,-0.007990856,0.7747114,-0.010288656,-0.022195056,-0.023727447,-1.6155552,-0.045555115,-0.041880958,-0.052630395,-0.032335542,-0.032335542,0.019154638,0.030225357,0.8222187,0.03721869,0.023842214,0.021013344,-1.5729494,-0.002949357,0.013800908,0.011510868,0.013995894,0.013995894,0.0748447,0.07025075,0.7958568,0.010856748,-0.034341503,-0.034553785,-1.5735549,-0.003554821
49,0.98,0.0,0.0,0.0,0.0,0.0,0.0,0.0,0.0,-1.0,0.0,0.0,0.0,0.008605235,-0.019374132,-0.0075303316,-0.035172738,-0.010288656,-0.045555115,-0.032335542,0.03721869,-0.002949357,0.013995894,0.010856748,-0.003554821,0.32711893,-0.18390587,-0.041617084,-0.06655177,-0.15309604,0.23393606,-0.30463815,-0.1286256,-0.25414586,-0.20984341,0.25446773,0.017877549,0.5397035,-0.38198218,-0.14379755,0.14240201,0.1772398,0.4220945,0.24864459,-0.28938308,0.34236872,-0.026925659,0.26106417,-0.22849175,0.105118334,-0.09799018,-0.035636537,-0.05670471,-0.007990856,-0.023727447,-0.052630395,0.030225357,0.021013344,0.011510868,0.07025075,-0.034553785,0.11877674,0.11168161,0.016332034,0.016332034,-0.10511305,-0.10192775,0.7611208,-0.02387923,-0.038745627,-0.037065797,-1.5786732,-0.008673191,-0.05249768,-0.056102645,-0.036209337,-0.036209337,0.0026472174,-0.006537717,0.7720272,-0.012972832,-0.024309896,-0.021719165,-1.6100001,-0.04000008,-0.034631737,-0.051137798,-0.037907135,-0.037907135,0.015950758,0.026365874,0.81900567,0.034005642,0.025649354,0.021685941,-1.5773368,-0.0073367357,0.015473805,0.011785846,0.009749575,0.009749575,0.07472132,0.07272821,0.8015079,0.016507864,-0.03389785,-0.03479876,-1.5736582,-0.0036581755
50,1.0,0.0,0.0,0.0,0.0,0.0,0.0,0.0,0.0,-1.0,0.0,0.0,0.0,0.016332034,-0.02387923,-0.008673191,-0.036209337,-0.012972832,-0.04000008,-0.037907135,0.034005642,-0.0073367357,0.009749575,0.016507864,-0.0036581755,0.3863399,-0.22525418,-0.057140294,-0.05182991,-0.13420953,0.27775207,-0.27857962,-0.16065152,-0.21937093,-0.21231599,0.28255606,-0.005167702,0.4389704,-0.3207273,-0.12918475,0.1564432,0.22236867,0.32737154,0.33670157,-0.2528375,0.40055996,0.044451572,0.1764214,-0.21727622,0.11168161,-0.10192775,-0.037065797,-0.056102645,-0.006537717,-0.021719165,-0.051137798,0.026365874,0.021685941,0.011785846,0.07272821,-0.03479876,0.11761376,0.11617678,0.025008695,0.025008695,-0.103614256,-0.10448394,0.75593334,-0.029066682,-0.038522877,-0.03810188,-1.580091,-0.010090947,-0.050313544,-0.055306,-0.0369203,-0.0369203,0.0066123046,-0.004140295,0.7698261,-0.015173912,-0.027319804,-0.021265946,-1.6037831,-0.03378308,-0.026234351,-0.047497477,-0.04274708,-0.04274708,0.013133043,0.022656657,0.8152276,0.030227602,0.028401718,0.022598615,-1.5809085,-0.010908484,0.017616585,0.012563694,0.005604604,0.005604604,0.07410202,0.074237674,0.807536,0.02253598,-0.033651832,-0.034709614,-1.5741947,-0.0041946173
51,1.02,0.0,0.0,0.0,0.0,0.0,0.0,0.0,0.0,-1.0,0.0,0.0,0.0,0.025008695,-0.029066682,-0.010090947,-0.0369203,-0.015173912,-0.03378308,-0.04274708,0.030227602,-0.010908484,0.005604604,0.02253598,-0.0041946173,0.43383306,-0.25937188,-0.0708877,-0.035548277,-0.11005473,0.3108518,-0.24199721,-0.18890263,-0.1785848,-0.20724855,0.30140585,-0.026823988,0.3123585,-0.24111886,-0.10791628,0.16605097,0.2646879,0.21497548,0.42497206,-0.20793688,0.44461617,0.11446017,0.08262303,-0.19715166,0.11617678,-0.10448394,-0.03810188,-0.055306,-0.004140295,-0.021265946,-0.047497477,0.022656657,0.022598615,0.012563694,0.074237674,-0.034709614,0.115551114,0.118472904,0.03434681,0.03434681,-0.10147602,-0.10551797,0.7502471,-0.034752905,-0.038189225,-0.038658984,-1.5817335,-0.011733413,-0.0475008,-0.05413409,-0.037280414,-0.037280414,0.010779116,-0.0010057501,0.76820457,-0.016795456,-0.030930765,-0.022195056,-1.597151,-0.027150989,-0.017209493,-0.041880958,-0.046647217,-0.046647217,0.010741673,0.019154638,0.8109777,0.025977671,0.032416467,0.023842214,-1.5835711,-0.013571024,0.020165283,0.013800908,0.0017083487,0.0017083487,0.073267534,0.0748447,0.81373906,0.028739035,-0.03395291,-0.034341503,-1.5751196,-0.005119562
52,1.04,0.0,0.0,0.0,0.0,0.0,0.0,0.0,0.0,-1.0,0.0,0.0,0.0,0.03434681,-0.034752905,-0.011733413,-0.037280414,-0.016795456,-0.027150989,-0.046647217,0.025977671,-0.013571024,0.0017083487,0.028739035,-0.005119562,0.46690583,-0.28431097,-0.082125075,-0.018005652,-0.08107835,0.33160606,-0.19500679,-0.21249793,-0.13312832,-0.19481276,0.31015375,-0.04624466,0.16478133,-0.1459419,-0.08047563,0.17241673,0.30122033,0.09105198,0.5088112,-0.15615644,0.47443733,0.18048006,-0.01614369,-0.16969725,0.118472904,-0.10551797,-0.038658984,-0.05413409,-0.0010057501,-0.022195056,-0.041880958,0.019154638,0.023842214,0.013800908,0.0748447,-0.034341503,0.11315775,0.11877674,0.044019353,0.044019353,-0.09897709,-0.10511305,0.7442755,-0.040724516,-0.037987627,-0.038745627,-1.5835383,-0.013538241,-0.04401188,-0.05249768,-0.03726951,-0.03726951,0.015000071,0.0026472174,0.76724386,-0.017756164,-0.034912422,-0.024309896,-1.5903707,-0.020370603,-0.007864967,-0.034631737,-0.049413744,-0.049413744,0.008863445,0.015950758,0.8063642,0.021364152,0.037741367,0.025649354,-1.5852559,-0.015255809,0.022680514,0.015473805,-0.00180018,-0.00180018,0.07264368,0.07472132,0.8199079,0.034907877,-0.03483734,-0.03389785,-1.5763768,-0.0063767433
53,1.06,0.0,0.0,0.0,0.0,0.0,0.0,0.0,0.0,-1.0,0.0,0.0,0.0,0.044019353,-0.040724516,-0.013538241,-0.03726951,-0.017756164,-0.020370603,-0.049413744,0.021364152,-0.015255809,-0.00180018,0.034907877,-0.0063767433,0.48362702,-0.29858118,-0.09024187,0.0005451478,-0.048033975,0.33901945,-0.13832629,-0.23067668,-0.08423881,-0.17542644,0.3084407,-0.06285943,0.0040907385,-0.040021397,-0.048232336,0.17605814,0.32929292,-0.038059067,0.58272916,-0.09888171,0.49140683,0.24030653,-0.11497569,-0.1377254,0.11877674,-0.10511305,-0.038745627,-0.05249768,0.0026472174,-0.024309896,-0.034631737,0.015950758,0.025649354,0.015473805,0.07472132,-0.03389785,0.11068726,0.11761376,0.053681467,0.053681467,-0.09622643,-0.103614256,0.7382478,-0.046752214,-0.038086988,-0.038522877,-1.585436,-0.015435934,-0.03998325,-0.050313544,-0.036871545,-0.036871545,0.018937659,0.0066123046,0.7670052,-0.017994821,-0.039230846,-0.027319804,-1.5837145,-0.013714433,0.0014843494,-0.026234351,-0.050880454,-0.050880454,0.007876182,0.013133043,0.8015078,0.016507745,0.044139802,0.028401718,-1.5859138,-0.015913725,0.024971642,0.017616585,-0.0047938116,-0.0047938116,0.07243106,0.07410202,0.82583684,0.04083681,-0.03582539,-0.033651832,-1.5779055,-0.007905483
54,1.08,0.0,0.0,0.0,0.0,0.0,0.0,0.0,0.0,-1.0,0.0,0.0,0.0,0.053681467,-0.046752214,-0.015435934,-0.036871545,-0.017994821,-0.013714433,-0.050880454,0.016507745,-0.015913725,-0.0047938116,0.04083681,-0.007905483,0.48310572,-0.30138427,-0.09488696,0.019898271,-0.011932574,0.3328055,-0.07333546,-0.24281906,-0.032896288,-0.14968157,0.2964477,-0.076435134,-0.15954623,0.06981387,-0.013765246,0.17748722,0.34678182,-0.1655311,0.6408802,-0.03765,0.49828067,0.29247445,-0.20879647,-0.10450933,0.11761376,-0.103614256,-0.038522877,-0.050313544,0.0066123046,-0.027319804,-0.026234351,0.013133043,0.028401718,0.017616585,0.07410202,-0.033651832,0.107975304,0.115551114,0.062991485,0.062991485,-0.09340005,-0.10147602,0.732394,-0.052606046,-0.038379557,-0.038189225,-1.587356,-0.017355919,-0.035746966,-0.0475008,-0.036073603,-0.036073603,0.02227201,0.010779116,0.7675268,-0.01747322,-0.04399962,-0.030930765,-1.5774472,-0.0074471235,0.010339528,-0.017209493,-0.050921004,-0.050921004,0.008290006,0.010741673,0.7965378,0.01153779,0.05106298,0.032416467,-1.5855108,-0.0155107975,0.02714577,0.020165283,-0.007161715,-0.007161715,0.07238026,0.073267534,0.8313348,0.046334803,-0.036464598,-0.03395291,-1.579648,-0.009647965
55,1.1,0.0,0.0,0.0,0.0,0.0,0.0,0.0,0.0,-1.0,0.0,0.0,0.0,0.062991485,-0.052606046,-0.017355919,-0.036073603,-0.01747322,-0.0074471235,-0.050921004,0.01153779,-0.0155107975,-0.007161715,0.046334803,-0.009647965,0.46550098,-0.29269236,-0.095996454,0.03989719,0.026079081,0.31336373,-0.0020275563,-0.24849713,0.020143755,-0.118395165,0.27490047,-0.08712696,-0.31620532,0.17623433,0.020179546,0.17722264,0.35276514,-0.28497395,0.6780739,0.025577605,0.4974335,0.33510727,-0.29266644,-0.07369268,0.115551114,-0.10147602,-0.038189225,-0.0475008,0.010779116,-0.030930765,-0.017209493,0.010741673,0.032416467,0.020165283,0.073267534,-0.03395291,0.104762465,0.11315775,0.0716308,0.0716308,-0.09065083,-0.09897709,0.7269326,-0.05806744,-0.038751595,-0.037987627,-1.5892323,-0.019232273,-0.031664077,-0.04401188,-0.03486539,-0.03486539,0.025058042,0.015000071,0.7688215,-0.016178548,-0.049282797,-0.034912422,-1.5718136,-0.0018135309,0.018202439,-0.007864967,-0.049455896,-0.049455896,0.01008687,0.008863445,0.79158896,0.006588936,0.058057282,0.037741367,-1.5840279,-0.014027834,0.02949344,0.022680514,-0.00881916,-0.00881916,0.072029404,0.07264368,0.83623755,0.051237524,-0.03660852,-0.03483734,-1.5815521,-0.011552095
56,1.12,0.0,0.0,0.0,0.0,0.0,0.0,0.0,0.0,-1.0,0.0,0.0,0.0,0.0716308,-0.05806744,-0.019232273,-0.03486539,-0.016178548,-0.0018135309,-0.049455896,0.006588936,-0.014027834,-0.00881916,0.051237524,-0.011552095,0.43196577,-0.27306974,-0.09381733,0.06041059,0.06473236,0.28168106,0.07325545,-0.24744198,0.07414698,-0.08287226,0.24513467,-0.09520367,-0.45681366,0.2737972,0.050723363,0.1755459,0.34649143,-0.39112282,0.69174683,0.08920561,0.48930326,0.3639868,-0.3612186,-0.046262607,0.11315775,-0.09897709,-0.037987627,-0.04401188,0.015000071,-0.034912422,-0.007864967,0.008863445,0.037741367,0.022680514,0.07264368,-0.03483734,0.10078281,0.11068726,0.07931696,0.07931696,-0.08827778,-0.09622643,0.72206277,-0.06293726,-0.038990878,-0.038086988,-1.5910088,-0.02100873,-0.028170846,-0.03998325,-0.03324163,-0.03324163,0.027478125,0.018937659,0.7708721,-0.01412791,-0.0551197,-0.039230846,-1.5670313,0.0029687881,0.02473332,0.0014843494,-0.046457704,-0.046457704,0.013042152,0.007876182,0.7868027,0.0018026829,0.06495079,0.044139802,-1.5814639,-0.011463881,0.03250846,0.024971642,-0.009711973,-0.009711973,0.071020246,0.07243106,0.8404144,0.05541438,-0.036548514,-0.03582539,-1.5835645,-0.013564467
57,1.1400000000000001,0.0,0.0,0.0,0.0,0.0,0.0,0.0,0.0,-1.0,0.0,0.0,0.0,0.07931696,-0.06293726,-0.02100873,-0.03324163,-0.01412791,0.0029687881,-0.046457704,0.0018026829,-0.011463881,-0.009711973,0.05541438,-0.013564467,0.384308,-0.2434895,-0.08882434,0.08118808,0.10253158,0.239114,0.14990959,-0.23931125,0.12819606,-0.04464068,0.20884277,-0.10062052,-0.5757273,0.35892928,0.07585672,0.17140605,0.32628244,-0.4809042,0.68024325,0.15382196,0.47244295,0.37748507,-0.41160274,-0.019262189,0.11068726,-0.09622643,-0.038086988,-0.03998325,0.018937659,-0.039230846,0.0014843494,0.007876182,0.044139802,0.024971642,0.07243106,-0.03582539,0.096053034,0.107975304,0.08580827,0.08580827,-0.0862632,-0.09340005,0.71795607,-0.06704396,-0.03895887,-0.038379557,-1.5926383,-0.022638202,-0.025487497,-0.035746966,-0.031207275,-0.031207275,0.029754128,0.02227201,0.77362865,-0.011371374,-0.06127102,-0.04399962,-1.5632871,0.0067129135,0.029852577,0.010339528,-0.04195734,-0.04195734,0.016914302,0.008290006,0.78233075,-0.0026692748,0.07151164,0.05106298,-1.5778444,-0.007844329,0.03612378,0.02714577,-0.009815031,-0.009815031,0.06915542,0.07238026,0.8437672,0.0587672,-0.036592368,-0.036464598,-1.5856256,-0.015625596
58,1.16,0.0,0.0,0.0,0.0,0.0,0.0,0.0,0.0,-1.0,0.0,0.0,0.0,0.08580827,-0.06704396,-0.022638202,-0.031207275,-0.011371374,0.0067129135,-0.04195734,-0.0026692748,-0.007844329,-0.009815031,0.0587672,-0.015625596,0.3245657,-0.20533541,-0.08147289,0.10171771,0.13782725,0.1872085,0.22501805,-0.22359794,0.18097891,-0.0051528737,0.16764188,-0.1030581,-0.67141277,0.42817107,0.09591032,0.16248181,0.29120427,-0.55300826,0.6415247,0.22082779,0.4435243,0.3767831,-0.44505367,0.009821057,0.107975304,-0.09340005,-0.038379557,-0.035746966,0.02227201,-0.04399962,0.010339528,0.008290006,0.05106298,0.02714577,0.07238026,-0.036464598,0.090541236,0.104762465,0.09090535,0.09090535,-0.08453247,-0.09065083,0.7147497,-0.07025033,-0.038617052,-0.038751595,-1.5940819,-0.024081826,-0.023789492,-0.031664077,-0.02878263,-0.02878263,0.03201331,0.025058042,0.77701217,-0.007987857,-0.06745128,-0.049282797,-1.5607336,0.009266496,0.033424526,0.018202439,-0.036048125,-0.036048125,0.021517085,0.01008687,0.7783292,-0.0066708326,0.077291384,0.058057282,-1.5732259,-0.0032258034,0.040255155,0.02949344,-0.009126959,-0.009126959,0.06618908,0.072029404,0.84622437,0.06122434,-0.03688324,-0.03660852,-1.5876695,-0.01766944
59,1.18,0.0,0.0,0.0,0.0,0.0,0.0,0.0,0.0,-1.0,0.0,0.0,0.0,0.09090535,-0.07025033,-0.024081826,-0.02878263,-0.007987857,0.009266496,-0.036048125,-0.0066708326,-0.0032258034,-0.009126959,0.06122434,-0.01766944,0.25485417,-0.16031894,-0.07217941,0.121232204,0.1691765,0.12768118,0.29546085,-0.2000777,0.23092674,0.03440357,0.12285575,-0.10219101,-0.74381304,0.47895843,0.111386105,0.14659336,0.24368171,-0.6063668,0.57465905,0.28746733,0.40060797,0.3647771,-0.46478254,0.040938873,0.104762465,-0.09065083,-0.038751595,-0.031664077,0.025058042,-0.049282797,0.018202439,0.01008687,0.058057282,0.02949344,0.072029404,-0.03660852,0.08417086,0.10078281,0.09445114,0.09445114,-0.08298934,-0.08827778,0.7125392,-0.07246083,-0.037919022,-0.038990878,-1.5953065,-0.025306463,-0.023185749,-0.028170846,-0.026008908,-0.026008908,0.03419743,0.027478125,0.78092176,-0.004078269,-0.073541485,-0.0551197,-1.559486,0.010514021,0.035347074,0.02473332,-0.028885096,-0.028885096,0.026789736,0.013042152,0.77494985,-0.010050178,0.08186878,0.06495079,-1.5676959,0.0023041964,0.044793606,0.03250846,-0.0076610935,-0.0076610935,0.061939605,0.071020246,0.84773576,0.06273574,-0.037381057,-0.036548514,-1.5896305,-0.019630432
60,1.2,0.0,0.0,0.0,0.0,0.0,0.0,0.0,0.0,-1.0,0.0,0.0,0.0,0.09445114,-0.07246083,-0.025306463,-0.026008908,-0.004078269,0.010514021,-0.028885096,-0.010050178,0.0023041964,-0.0076610935,0.06273574,-0.019630432,0.17728916,-0.110524714,-0.061232295,0.13868612,0.19548073,0.062374927,0.35815147,-0.1689668,0.27650225,0.0732933,0.07557021,-0.098049246,-0.79360026,0.50841314,0.12359176,0.121432684,0.18733673,-0.6403698,0.48095235,0.34962296,0.34448737,0.3459985,-0.47339493,0.070722625,0.10078281,-0.08827778,-0.038990878,-0.028170846,0.027478125,-0.0551197,0.02473332,0.013042152,0.06495079,0.03250846,0.071020246,-0.036548514,0.0769085,0.096053034,0.09633404,0.09633404,-0.081508525,-0.0862632,0.71137774,-0.07362229,-0.03692103,-0.03895887,-1.5962834,-0.026283383,-0.023670487,-0.025487497,-0.022949386,-0.022949386,0.036045965,0.029754128,0.78524244,0.00024241209,-0.07941114,-0.06127102,-1.5596176,0.010382414,0.035528943,0.029852577,-0.020678256,-0.020678256,0.032634046,0.016914302,0.7723317,-0.012668312,0.08492826,0.07151164,-1.5613718,0.008628249,0.049638197,0.03612378,-0.0054453854,-0.0054453854,0.05641251,0.06915542,0.84827054,0.06327051,-0.03788958,-0.036592368,-1.5914507,-0.021450639
61,1.22,0.0,0.0,0.0,0.0,0.0,0.0,0.0,0.0,-1.0,0.0,0.0,0.0,0.09633404,-0.07362229,-0.026283383,-0.022949386,0.00024241209,0.010382414,-0.020678256,-0.012668312,0.008628249,-0.0054453854,0.06327051,-0.021450639,0.094145305,-0.05807169,-0.04884737,0.15297607,0.21603526,-0.0065830126,0.4103421,-0.13090678,0.3161998,0.11078541,0.026738886,-0.091012076,-0.819993,0.516887,0.13328752,0.08680217,0.12613706,-0.65299475,0.36450163,0.40346035,0.2759421,0.32072368,-0.47245398,0.09597639,0.096053034,-0.0862632,-0.03895887,-0.025487497,0.029754128,-0.06127102,0.029852577,0.016914302,0.07151164,0.03612378,0.06915542,-0.036592368,0.06886897,0.090541236,0.096488774,0.096488774,-0.07994994,-0.08453247,0.7112778,-0.07372224,-0.035762094,-0.038617052,-1.5969883,-0.026988268,-0.02522773,-0.023789492,-0.019689092,-0.019689092,0.037309747,0.03201331,0.78985155,0.00485152,-0.084995635,-0.06745128,-1.5611541,0.008845925,0.03395459,0.033424526,-0.01168526,-0.01168526,0.038897894,0.021517085,0.7705941,-0.014405906,0.08652144,0.077291384,-1.5544034,0.015596628,0.054701615,0.040255155,-0.0025221277,-0.0025221277,0.049950335,0.06618908,0.84781295,0.062812924,-0.038267214,-0.03688324,-1.5930836,-0.023083568
62,1.24,0.0,0.0,0.0,0.0,0.0,0.0,0.0,0.0,-1.0,0.0,0.0,0.0,0.096488774,-0.07372224,-0.026988268,-0.019689092,0.00485152,0.008845925,-0.01168526,-0.014405906,0.015596628,-0.0025221277,0.062812924,-0.023083568,0.007736556,-0.0049984492,-0.035245296,0.1630147,0.23045628,-0.076826714,0.4496498,-0.08687851,0.34841782,0.14616288,-0.022879634,-0.081647135,-0.82335883,0.5057951,0.14049786,0.0432022,0.06325392,-0.64273137,0.22953549,0.44607005,0.19457695,0.28931385,-0.46405458,0.11509381,0.090541236,-0.08453247,-0.038617052,-0.023789492,0.03201331,-0.06745128,0.033424526,0.021517085,0.077291384,0.040255155,0.06618908,-0.03688324,0.06016925,0.08417086,0.09489486,0.09489486,-0.07822826,-0.08298934,0.7122141,-0.072785914,-0.034563027,-0.037919022,-1.597401,-0.02740097,-0.027849812,-0.023185749,-0.016332734,-0.016332734,0.03790311,0.03419743,0.7946221,0.009622097,-0.090206124,-0.073541485,-1.5640736,0.00592649,0.030686393,0.035347074,-0.0022024317,-0.0022024317,0.04547612,0.026789736,0.769833,-0.015166998,0.08664021,0.08186878,-1.5469726,0.02302742,0.059830476,0.044793606,0.0010523729,0.0010523729,0.042845305,0.061939605,0.84635925,0.061359227,-0.03848547,-0.037381057,-1.5944943,-0.02449429
63,1.26,0.0,0.0,0.0,0.0,0.0,0.0,0.0,0.0,-1.0,0.0,0.0,0.0,0.09489486,-0.072785914,-0.02740097,-0.016332734,0.009622097,0.00592649,-0.0022024317,-0.015166998,0.02302742,0.0010523729,0.061359227,-0.02449429,-0.07969562,0.046815597,-0.02063704,0.1678179,0.238529,-0.14597198,0.4741414,-0.038053308,0.37153745,0.17872503,-0.07268465,-0.07053601,-0.805103,0.47725216,0.14538169,-0.00807119,0.00036154984,-0.61016905,0.08094482,0.4760169,0.10074365,0.2521484,-0.44988853,0.12812728,0.08417086,-0.08298934,-0.037919022,-0.023185749,0.03419743,-0.073541485,0.035347074,0.026789736,0.08186878,0.044793606,0.061939605,-0.037381057,0.051025912,0.0769085,0.09157455,0.09157455,-0.07629505,-0.081508525,0.7141286,-0.07087141,-0.033436045,-0.03692103,-1.597507,-0.027506948,-0.03149366,-0.023670487,-0.013000274,-0.013000274,0.03779806,0.036045965,0.799423,0.014422953,-0.0949359,-0.07941114,-1.5683073,0.0016927719,0.02595602,0.035528943,0.0074451957,0.0074451957,0.052273955,0.032634046,0.7701175,-0.014882505,0.08525136,0.08492826,-1.5392915,0.030708551,0.06465812,0.049638197,0.005208683,0.005208683,0.03546611,0.05641251,0.84391737,0.058917344,-0.038520765,-0.03788958,-1.595657,-0.025656939
64,1.28,0.0,0.0,0.0,0.0,0.0,0.0,0.0,0.0,-1.0,0.0,0.0,0.0,0.09157455,-0.07087141,-0.027506948,-0.013000274,0.014422953,0.0016927719,0.0074451957,-0.014882505,0.030708551,0.005208683,0.058917344,-0.025656939,-0.16601582,0.09572546,-0.005300455,0.166623,0.24004392,-0.21168458,0.48238137,0.014223769,0.3840593,0.20781554,-0.12209521,-0.05812993,-0.76691693,0.43401176,0.1473932,-0.06467101,-0.06242194,-0.5565303,-0.076082274,0.49208036,-0.0039402843,0.2098589,-0.43033022,0.13646014,0.0769085,-0.081508525,-0.03692103,-0.023670487,0.036045965,-0.07941114,0.035528943,0.032634046,0.08492826,0.049638197,0.05641251,-0.03788958,0.041733332,0.06886897,0.086591765,0.086591765,-0.07403919,-0.07994994,0.7169361,-0.068063915,-0.03242527,-0.035762094,-1.5972997,-0.027299643,-0.03587236,-0.02522773,-0.009822072,-0.009822072,0.036924627,0.037309747,0.8041192,0.019119203,-0.0990115,-0.084995635,-1.5737433,-0.003743291,0.02035109,0.03395459,0.016915468,0.016915468,0.059130874,0.038897894,0.7714864,-0.013513625,0.08241227,0.08652144,-1.5315927,0.038407326,0.06842431,0.054701615,0.009865726,0.009865726,0.028419608,0.049950335,0.84051144,0.055511415,-0.038423765,-0.038267214,-1.5965527,-0.026552677
65,1.3,0.0,0.0,0.0,0.0,0.0,0.0,0.0,0.0,-1.0,0.0,0.0,0.0,0.086591765,-0.068063915,-0.027299643,-0.009822072,0.019119203,-0.003743291,0.016915468,-0.013513625,0.038407326,0.009865726,0.055511415,-0.026552677,-0.24913913,0.14037347,0.010366026,0.1589101,0.23481281,-0.27180538,0.47351366,0.06844288,0.38493976,0.23285216,-0.17029792,-0.04478604,-0.7099469,0.3792361,0.1455147,-0.124123715,-0.12483553,-0.48417062,-0.2357676,0.4931795,-0.114815995,0.16333523,-0.4034308,0.14109877,0.06886897,-0.07994994,-0.035762094,-0.02522773,0.037309747,-0.084995635,0.03395459,0.038897894,0.08652144,0.054701615,0.049950335,-0.038267214,0.032620303,0.06016925,0.080049895,0.080049895,-0.0712013,-0.07822826,0.7205296,-0.06447041,-0.031455338,-0.034563027,-1.5967822,-0.026782155,-0.040668584,-0.027849812,-0.0069340714,-0.0069340714,0.035238873,0.03790311,0.80857533,0.023575306,-0.10236331,-0.090206124,-1.5802312,-0.010231137,0.014505491,0.030686393,0.025861915,0.025861915,0.065699115,0.04547612,0.7739469,-0.011053145,0.078186035,0.08664021,-1.5241216,0.04587841,0.070417024,0.059830476,0.014931502,0.014931502,0.0224587,0.042845305,0.8361849,0.051184893,-0.03824209,-0.03848547,-1.5971698,-0.027169704
66,1.32,0.0,0.0,0.0,0.0,0.0,0.0,0.0,0.0,-1.0,0.0,0.0,0.0,0.080049895,-0.06447041,-0.026782155,-0.0069340714,0.023575306,-0.010231137,0.025861915,-0.011053145,0.04587841,0.014931502,0.051184893,-0.027169704,-0.3270936,0.17967448,0.0258767,0.14440006,0.2228039,-0.32439077,0.44732234,0.1230234,0.37355316,0.25328878,-0.21632509,-0.030850876,-0.6358975,0.31586343,0.13907161,-0.18405338,-0.18538228,-0.3957556,-0.39196068,0.47914726,-0.2277102,0.11309539,-0.36803374,0.1422565,0.06016925,-0.07822826,-0.034563027,-0.027849812,0.03790311,-0.090206124,0.030686393,0.04547612,0.08664021,0.059830476,0.042845305,-0.03848547,0.02418165,0.051025912,0.07208993,0.07208993,-0.06771699,-0.07629505,0.72478575,-0.06021428,-0.030448332,-0.033436045,-1.5959685,-0.025968432,-0.045559008,-0.03149366,-0.0044724783,-0.0044724783,0.03287944,0.03779806,0.81265897,0.02765894,-0.104761325,-0.0949359,-1.5875862,-0.017586112,0.008787535,0.02595602,0.033948753,0.033948753,0.07146581,0.052273955,0.7774744,-0.007525623,0.072590455,0.08525136,-1.5171282,0.052871823,0.06999629,0.06465812,0.02030071,0.02030071,0.018056694,0.03546611,0.83100426,0.046004236,-0.03791966,-0.038520765,-1.5975028,-0.027502775
67,1.34,0.0,0.0,0.0,0.0,0.0,0.0,0.0,0.0,-1.0,0.0,0.0,0.0,0.07208993,-0.06021428,-0.025968432,-0.0044724783,0.02765894,-0.017586112,0.033948753,-0.007525623,0.052871823,0.02030071,0.046004236,-0.027502775,-0.39799803,0.21280739,0.040685464,0.12307964,0.20418166,-0.3677501,0.40434197,0.17637645,0.3496711,0.26846042,-0.2590318,-0.016653456,-0.5462326,0.24666467,0.1276637,-0.24192946,-0.24224949,-0.2942343,-0.5377029,0.45041364,-0.33877406,0.05822339,-0.3228233,0.14020464,0.051025912,-0.07629505,-0.033436045,-0.03149366,0.03779806,-0.0949359,0.02595602,0.052273955,0.08525136,0.06465812,0.03546611,-0.038520765,0.01673742,0.041733332,0.06288882,0.06288882,-0.06371068,-0.07403919,0.72957134,-0.055428684,-0.029373325,-0.03242527,-1.5948833,-0.02488327,-0.050248105,-0.03587236,-0.0025648035,-0.0025648035,0.030162405,0.036924627,0.8162441,0.0312441,-0.10602582,-0.0990115,-1.5955949,-0.02559483,0.0033167899,0.02035109,0.040870506,0.040870506,0.07620274,0.059130874,0.78201246,-0.0029875636,0.06582858,0.08241227,-1.5108578,0.059142232,0.0670482,0.06842431,0.025846625,0.025846625,0.015452858,0.028419608,0.82506526,0.04006523,-0.0373769,-0.038423765,-1.597554,-0.027553916
68,1.36,0.0,0.0,0.0,0.0,0.0,0.0,0.0,0.0,-1.0,0.0,0.0,0.0,0.06288882,-0.055428684,-0.02488327,-0.0025648035,0.0312441,-0.02559483,0.040870506,-0.0029875636,0.059142232,0.025846625,0.04006523,-0.027553916,-0.46005535,0.2392785,0.054260552,0.09538374,0.17925794,-0.40043396,0.34608772,0.22690335,0.31352243,0.2772957,-0.2969513,-0.0025553638,-0.44232684,0.17490593,0.111600734,-0.29363388,-0.29413778,-0.1823571,-0.66416323,0.4073966,-0.443739,-0.004799402,-0.2652111,0.13475013,0.041733332,-0.07403919,-0.03242527,-0.03587236,0.036924627,-0.0990115,0.02035109,0.059130874,0.08241227,0.06842431,0.028419608,-0.038423765,0.01097776,0.032620303,0.052657254,0.052657254,-0.059667774,-0.0712013,0.7347521,-0.050247908,-0.028236069,-0.031455338,-1.5935594,-0.023559332,-0.054467816,-0.040668584,-0.001321136,-0.001321136,0.02701572,0.035238873,0.81921405,0.03421402,-0.1058679,-0.10236331,-1.6040219,-0.034021854,-0.0017167106,0.014505491,0.046370406,0.046370406,0.07954411,0.065699115,0.7874704,0.002470374,0.058595322,0.078186035,-1.5055425,0.064457536,0.061784778,0.070417024,0.03141482,0.03141482,0.014966752,0.0224587,0.81850046,0.033500433,-0.036841813,-0.03824209,-1.5973327,-0.027332664
69,1.3800000000000001,0.0,0.0,0.0,0.0,0.0,0.0,0.0,0.0,-1.0,0.0,0.0,0.0,0.052657254,-0.050247908,-0.023559332,-0.001321136,0.03421402,-0.034021854,0.046370406,0.002470374,0.064457536,0.03141482,0.033500433,-0.027332664,-0.51157844,0.2590394,0.06619653,0.062183373,0.14849558,-0.4213512,0.2749949,0.27289757,0.26576757,0.27840993,-0.32824117,0.011064989,-0.32576442,0.104836226,0.09220882,-0.33530217,-0.3397612,-0.06388152,-0.76338005,0.34961802,-0.5387161,-0.07850592,-0.19221696,0.12585331,0.032620303,-0.0712013,-0.031455338,-0.040668584,0.035238873,-0.10236331,0.014505491,0.065699115,0.078186035,0.070417024,0.0224587,-0.03824209,0.0076608434,0.02418165,0.041639138,0.041639138,-0.05625397,-0.06771699,0.7401983,-0.044801712,-0.027157508,-0.030448332,-1.5920349,-0.022034883,-0.057994213,-0.045559008,-0.00082631974,-0.00082631974,0.023303445,0.03287944,0.8214667,0.036466658,-0.10395884,-0.104761325,-1.6126151,-0.042615056,-0.0064312965,0.008787535,0.050252058,0.050252058,0.081263095,0.07146581,0.7937198,0.008719802,0.051522225,0.072590455,-1.5013942,0.0686059,0.054502092,0.06999629,0.036819275,0.036819275,0.016771724,0.018056694,0.81148076,0.026480734,-0.03641585,-0.03791966,-1.5968546,-0.026854515
70,1.4000000000000001,0.0,0.0,0.0,0.0,0.0,0.0,0.0,0.0,-1.0,0.0,0.0,0.0,0.041639138,-0.044801712,-0.022034883,-0.00082631974,0.036466658,-0.042615056,0.050252058,0.008719802,0.0686059,0.036819275,0.026480734,-0.026854515,-0.5509058,0.27231053,0.07622288,0.024740815,0.11263195,-0.42965776,0.19408256,0.31247276,0.20741943,0.27022275,-0.3509844,0.023908194,-0.19732013,0.038936485,0.0708592,-0.36362132,-0.3767467,0.05857887,-0.83077395,0.2759736,-0.6206813,-0.16424946,-0.10374556,0.11436007,0.02418165,-0.06771699,-0.030448332,-0.045559008,0.03287944,-0.104761325,0.008787535,0.07146581,0.072590455,0.06999629,0.018056694,-0.03791966,0.007190548,0.01673742,0.030107275,0.030107275,-0.053928815,-0.06371068,0.7457865,-0.03921354,-0.026361227,-0.029373325,-1.5903516,-0.02035153,-0.06067356,-0.050248105,-0.0011337716,-0.0011337716,0.018971037,0.030162405,0.82292235,0.037922323,-0.09998468,-0.10602582,-1.6211114,-0.05111134,-0.011163928,0.0033167899,0.05238463,0.05238463,0.081504494,0.07620274,0.800597,0.015596986,0.045109335,0.06582858,-1.4985954,0.071404696,0.0458476,0.0670482,0.041848063,0.041848063,0.020608641,0.015452858,0.8042119,0.019211888,-0.036083627,-0.0373769,-1.596139,-0.026138902
71,1.42,0.0,0.0,0.0,0.0,0.0,0.0,0.0,0.0,-1.0,0.0,0.0,0.0,0.030107275,-0.03921354,-0.02035153,-0.0011337716,0.037922323,-0.05111134,0.05238463,0.015596986,0.071404696,0.041848063,0.019211888,-0.026138902,-0.5765932,0.2794092,0.08416882,-0.015372597,0.072783664,-0.42481154,0.10662857,0.34385964,0.13994187,0.25143933,-0.36344206,0.035778504,-0.059520435,-0.021973502,0.048552796,-0.37615818,-0.40184936,0.18197975,-0.8649341,0.1881404,-0.6858176,-0.2589031,-0.002046287,0.101318136,0.01673742,-0.06371068,-0.029373325,-0.050248105,0.030162405,-0.10602582,0.0033167899,0.07620274,0.06582858,0.0670482,0.015452858,-0.0373769,0.009610862,0.01097776,0.018364213,0.018364213,-0.05309294,-0.059667774,0.7513954,-0.033604622,-0.026033334,-0.028236069,-1.588553,-0.0185529,-0.062421862,-0.054467816,-0.0022610552,-0.0022610552,0.014066044,0.02701572,0.823524,0.038523972,-0.09391955,-0.1058679,-1.6292411,-0.059241056,-0.016234495,-0.0017167106,0.052706797,0.052706797,0.080541044,0.07954411,0.80790395,0.02290392,0.0396798,0.058595322,-1.4972839,0.07271612,0.036670566,0.061784778,0.04627483,0.04627483,0.026076443,0.014966752,0.7969312,0.011931181,-0.0358462,-0.036841813,-1.5952122,-0.025212169
72,1.44,0.0,0.0,0.0,0.0,0.0,0.0,0.0,0.0,-1.0,0.0,0.0,0.0,0.018364213,-0.033604622,-0.0185529,-0.0022610552,0.038523972,-0.059241056,0.052706797,0.02290392,0.07271612,0.04627483,0.011931181,-0.025212169,-0.587153,0.28044614,0.08993391,-0.056364182,0.030081313,-0.4064871,0.016108356,0.36534673,0.0655736,0.22133829,-0.3640356,0.046338327,0.08757117,-0.07989173,0.02599023,-0.37138355,-0.4152987,0.30415756,-0.86509657,0.087216474,-0.7274813,-0.35678822,0.11085272,0.085490584,0.01097776,-0.059667774,-0.028236069,-0.054467816,0.02701572,-0.1058679,-0.0017167106,0.07954411,0.058595322,0.061784778,0.014966752,-0.036841813,0.015163541,0.0076608434,0.0067432253,0.0067432253,-0.054382317,-0.05625397,0.7568992,-0.028100848,-0.02629596,-0.027157508,-1.5866851,-0.016685009,-0.06302631,-0.057994213,-0.004187528,-0.004187528,0.008386169,0.023303445,0.82323563,0.038235605,-0.08563935,-0.10395884,-1.636732,-0.06673193,-0.022117361,-0.0064312965,0.051223338,0.051223338,0.07865454,0.081263095,0.8154128,0.030412793,0.03570438,0.051522225,-1.4975406,0.07245946,0.027759772,0.054502092,0.049871497,0.049871497,0.03290394,0.016771724,0.7899011,0.0049010515,-0.035932753,-0.03641585,-1.5941076,-0.024107575
73,1.46,0.0,0.0,0.0,0.0,0.0,0.0,0.0,0.0,-1.0,0.0,0.0,0.0,0.0067432253,-0.028100848,-0.016685009,-0.004187528,0.038235605,-0.06673193,0.051223338,0.030412793,0.07245946,0.049871497,0.0049010515,-0.024107575,-0.58104944,0.275188,0.093395814,-0.096323654,-0.014418393,-0.37454414,-0.074172966,0.37544358,-0.012833059,0.17983332,-0.35150638,0.05522823,0.24391988,-0.13801266,0.0030018748,-0.34879142,-0.41813335,0.4233122,-0.8339373,-0.024221957,-0.7407568,-0.4518439,0.23150976,0.06678057,0.0076608434,-0.05625397,-0.027157508,-0.057994213,0.023303445,-0.10395884,-0.0064312965,0.081263095,0.051522225,0.054502092,0.016771724,-0.03641585,0.024265997,0.007190548,-0.004397449,-0.004397449,-0.058032446,-0.053928815,0.7621641,-0.02283591,-0.027384214,-0.026361227,-1.5847985,-0.014798403,-0.06257494,-0.06067356,-0.0068544536,-0.0068544536,0.0020072572,0.018971037,0.8220417,0.037041664,-0.07514294,-0.09998468,-1.6433127,-0.07331264,-0.029125586,-0.011163928,0.047996283,0.047996283,0.07581934,0.081504494,0.8228771,0.037877083,0.033219416,0.045109335,-1.4993814,0.07061863,0.019635528,0.0458476,0.052426003,0.052426003,0.040766973,0.020608641,0.78339535,-0.0016046762,-0.036548097,-0.036083627,-1.5928642,-0.022864103
74,1.48,0.0,0.0,0.0,0.0,0.0,0.0,0.0,0.0,-1.0,0.0,0.0,0.0,-0.004397449,-0.02283591,-0.014798403,-0.0068544536,0.037041664,-0.07331264,0.047996283,0.037877083,0.07061863,0.052426003,-0.0016046762,-0.022864103,-0.5570337,0.26324686,0.09433305,-0.13334627,-0.059697572,-0.32903355,-0.1613528,0.3732145,-0.09203912,0.12772533,-0.32528582,0.06217198,0.40640044,-0.19767968,-0.021281898,-0.30904406,-0.4110492,0.5376419,-0.7765755,-0.14060487,-0.72300434,-0.5358979,0.35318702,0.046070077,0.007190548,-0.053928815,-0.026361227,-0.06067356,0.018971037,-0.09998468,-0.011163928,0.081504494,0.045109335,0.0458476,0.020608641,-0.036083627,0.036747485,0.009610862,-0.014686597,-0.014686597,-0.06386723,-0.05309294,0.76704705,-0.017952979,-0.029377393,-0.026033334,-1.5829492,-0.012949109,-0.06131533,-0.062421862,-0.01016744,-0.01016744,-0.0046822615,0.014066044,0.8199472,0.034947157,-0.06308989,-0.09391955,-1.648721,-0.07872093,-0.03725646,-0.016234495,0.043134946,0.043134946,0.072173,0.080541044,0.83004475,0.04504472,0.03204614,0.0396798,-1.502755,0.06724501,0.012865048,0.036670566,0.05376188,0.05376188,0.04922133,0.026076443,0.7776835,-0.0073165298,-0.03775825,-0.0358462,-1.5915247,-0.021524668
75,1.5,0.0,0.0,0.0,0.0,0.0,0.0,0.0,0.0,-1.0,0.0,0.0,0.0,-0.014686597,-0.017952979,-0.012949109,-0.01016744,0.034947157,-0.07872093,0.043134946,0.04504472,0.06724501,0.05376188,-0.0073165298,-0.021524668,-0.5144574,0.24414761,0.09246712,-0.16564932,-0.10472648,-0.27041727,-0.24306682,0.35838327,-0.16868317,0.06679392,-0.2855929,0.06696896,0.56910115,-0.2595698,-0.047315028,-0.2538712,-0.39426246,0.6433873,-0.6985017,-0.25557905,-0.6741404,-0.6002225,0.46847242,0.024140334,0.009610862,-0.05309294,-0.026033334,-0.062421862,0.014066044,-0.09391955,-0.016234495,0.080541044,0.0396798,0.036670566,0.026076443,-0.0358462,0.05175574,0.015163541,-0.0237487,-0.0237487,-0.0714692,-0.054382317,0.77139026,-0.013609767,-0.032227494,-0.02629596,-1.5811987,-0.01119864,-0.05949113,-0.06302631,-0.013997841,-0.013997841,-0.01117374,0.008386169,0.81697327,0.031973243,-0.05065632,-0.08563935,-1.6527101,-0.08271003,-0.046125405,-0.022117361,0.03678248,0.03678248,0.06818564,0.07865454,0.83667105,0.051671028,0.0320996,0.03570438,-1.5075406,0.06245947,0.007877637,0.027759772,0.053754743,0.053754743,0.057895668,0.03290394,0.7730178,-0.0119822025,-0.03943534,-0.035932753,-1.5901384,-0.020138383
76,1.52,0.0,0.0,0.0,0.0,0.0,0.0,0.0,0.0,-1.0,0.0,0.0,0.0,-0.0237487,-0.013609767,-0.01119864,-0.013997841,0.031973243,-0.08271003,0.03678248,0.051671028,0.06245947,0.053754743,-0.0119822025,-0.020138383,-0.45310515,0.21715914,0.08752562,-0.19152,-0.14869669,-0.19945432,-0.3176233,0.33131617,-0.23927753,-0.00035697222,-0.2332837,0.06931376,0.72784007,-0.3258819,-0.074951775,-0.18448502,-0.37013444,0.7379737,-0.6066469,-0.36315832,-0.5940777,-0.63781923,0.5715884,9.501279e-05,0.015163541,-0.054382317,-0.02629596,-0.06302631,0.008386169,-0.08563935,-0.022117361,0.07865454,0.03570438,0.027759772,0.03290394,-0.035932753,0.06867482,0.024265997,-0.031209484,-0.031209484,-0.08049267,-0.058032446,0.7750233,-0.009976745,-0.035824277,-0.027384214,-1.5796155,-0.009615421,-0.057677437,-0.06257494,-0.018189989,-0.018189989,-0.016987674,0.0020072572,0.813157,0.028156996,-0.038822368,-0.07514294,-1.6550553,-0.08505523,-0.05512436,-0.029125586,0.02910459,0.02910459,0.06403132,0.07581934,0.8425257,0.057525694,0.03295127,0.033219416,-1.5135541,0.056445956,0.0046816063,0.019635528,0.05234198,0.05234198,0.066313654,0.040766973,0.76962113,-0.015378892,-0.04140747,-0.036548097,-1.5887618,-0.018761754
77,1.54,0.0,0.0,0.0,0.0,0.0,0.0,0.0,0.0,-1.0,0.0,0.0,0.0,-0.031209484,-0.009976745,-0.009615421,-0.018189989,0.028156996,-0.08505523,0.02910459,0.057525694,0.056445956,0.05234198,-0.015378892,-0.018761754,-0.3730392,0.18165089,0.07915974,-0.20960741,-0.19081324,-0.11725985,-0.38389456,0.2927322,-0.30067334,-0.07063829,-0.16983443,0.068830974,0.87999934,-0.39545667,-0.10480738,-0.104755975,-0.33904734,0.8183707,-0.50673085,-0.46022224,-0.48704395,-0.6450683,0.6571151,-0.026612524,0.024265997,-0.058032446,-0.027384214,-0.06257494,0.0020072572,-0.07514294,-0.029125586,0.07581934,0.033219416,0.019635528,0.040766973,-0.036548097,0.08681213,0.036747485,-0.036710564,-0.036710564,-0.09049881,-0.06386723,0.777772,-0.007228017,-0.040048182,-0.029377393,-1.5782738,-0.008273721,-0.056498352,-0.06131533,-0.022571495,-0.022571495,-0.021447726,-0.0046822615,0.8085556,0.023555577,-0.028298326,-0.06308989,-1.6555709,-0.08557081,-0.063412905,-0.03725646,0.020283144,0.020283144,0.059672352,0.072173,0.84740156,0.062401533,0.034130234,0.03204614,-1.5205604,0.04943967,0.0030173068,0.012865048,0.04953075,0.04953075,0.07407701,0.04922133,0.76767397,-0.017326057,-0.043519508,-0.03775825,-1.5874578,-0.017457724
78,1.56,0.0,0.0,0.0,0.0,0.0,0.0,0.0,0.0,-1.0,0.0,0.0,0.0,-0.036710564,-0.007228017,-0.008273721,-0.022571495,0.023555577,-0.08557081,0.020283144,0.062401533,0.04943967,0.04953075,-0.017326057,-0.017457724,-0.27505407,0.13743737,0.067084454,-0.21907532,-0.23006961,-0.025780372,-0.44107234,0.24379289,-0.35031635,-0.1405615,-0.09735946,0.06520155,1.0188758,-0.4640081,-0.13618238,-0.019841075,-0.29931283,0.8773044,-0.4020458,-0.542937,-0.3595079,-0.6192909,0.71966684,-0.055343997,0.036747485,-0.06386723,-0.029377393,-0.06131533,-0.0046822615,-0.06308989,-0.03725646,0.072173,0.03204614,0.012865048,0.04922133,-0.03775825,0.10508832,0.05175574,-0.03993376,-0.03993376,-0.10073655,-0.0714692,0.7794711,-0.005528927,-0.04473672,-0.032227494,-1.57725,-0.0072499514,-0.056174193,-0.05949113,-0.026963497,-0.026963497,-0.02410081,-0.01117374,0.80325174,0.018251717,-0.019795649,-0.05065632,-1.654133,-0.08413291,-0.070029154,-0.046125405,0.010515703,0.010515703,0.05507383,0.06818564,0.85112774,0.06612772,0.035329413,0.0320996,-1.5282849,0.041715145,0.002531324,0.007877637,0.045401137,0.045401137,0.08082703,0.057895668,0.7673049,-0.017695129,-0.045414064,-0.03943534,-1.5862913,-0.01629126
79,1.58,0.0,0.0,0.0,0.0,0.0,0.0,0.0,0.0,-1.0,0.0,0.0,0.0,-0.03993376,-0.005528927,-0.0072499514,-0.026963497,0.018251717,-0.08413291,0.010515703,0.06612772,0.041715145,0.045401137,-0.017695129,-0.01629126,-0.16115986,0.084954984,0.051186174,-0.21960007,-0.26519403,0.07189689,-0.4883721,0.18630934,-0.38622442,-0.2064805,-0.01845327,0.05832552,1.1335661,-0.52576816,-0.167414,0.06528692,-0.24882026,0.90492755,-0.29306838,-0.60571265,-0.21753423,-0.5601568,0.755514,-0.08398569,0.05175574,-0.0714692,-0.032227494,-0.05949113,-0.01117374,-0.05065632,-0.046125405,0.06818564,0.0320996,0.007877637,0.057895668,-0.03943534,0.1220338,0.06867482,-0.04061912,-0.04061912,-0.11005498,-0.08049267,0.7799743,-0.0050257444,-0.049338378,-0.035824277,-1.5766187,-0.006618619,-0.056625854,-0.057677437,-0.031195905,-0.031195905,-0.024671111,-0.016987674,0.7973572,0.012357175,-0.013882495,-0.038822368,-1.6506958,-0.08069575,-0.07408677,-0.05512436,1.8141232e-05,1.8141232e-05,0.05016494,0.06403132,0.85357606,0.06857604,0.03619648,0.03295127,-1.5364308,0.033569217,0.0029565808,0.0046816063,0.040100075,0.040100075,0.0863163,0.066313654,0.76858157,-0.016418457,-0.04659942,-0.04140747,-1.5853243,-0.015324235
80,1.6,0.0,0.0,0.0,0.0,0.0,0.0,0.0,0.0,-1.0,0.0,0.0,0.0,-0.04061912,-0.0050257444,-0.006618619,-0.031195905,0.012357175,-0.08069575,1.8141232e-05,0.06857604,0.033569217,0.040100075,-0.016418457,-0.015324235,-0.03426799,0.025159426,0.03156735,-0.21162042,-0.2947272,0.17185676,-0.5248781,0.12241461,-0.40729636,-0.265053,0.06383249,0.048349194,1.2164385,-0.57610875,-0.19648017,0.1435252,-0.18625265,0.89462435,-0.17884609,-0.646173,-0.06984844,-0.47162184,0.76128805,-0.110247515,0.06867482,-0.08049267,-0.035824277,-0.057677437,-0.016987674,-0.038822368,-0.05512436,0.06403132,0.03295127,0.0046816063,0.066313654,-0.04140747,0.13638337,0.08681213,-0.038581405,-0.038581405,-0.11730171,-0.09049881,0.77916515,-0.0058348775,-0.053348735,-0.040048182,-1.5764478,-0.006447792,-0.057427745,-0.056498352,-0.0351224,-0.0351224,-0.023193724,-0.021447726,0.7910188,0.006018758,-0.010471236,-0.028298326,-1.645301,-0.07530093,-0.07479019,-0.063412905,-0.010969729,-0.010969729,0.044782802,0.059672352,0.85466224,0.06966221,0.03643806,0.034130234,-1.5446976,0.02530241,0.003877711,0.0030173068,0.03382914,0.03382914,0.09040357,0.07407701,0.771505,-0.013495028,-0.04672428,-0.043519508,-1.5846115,-0.014611483
81,1.62,0.0,0.0,0.0,0.0,0.0,0.0,0.0,0.0,-1.0,0.0,0.0,0.0,-0.038581405,-0.0058348775,-0.006447792,-0.0351224,0.006018758,-0.07530093,-0.010969729,0.06966221,0.02530241,0.03382914,-0.013495028,-0.014611483,0.101885706,-0.0404564,0.008540276,-0.19632463,-0.31692055,0.26973844,-0.54939353,0.054310106,-0.413338,-0.31354663,0.146172,0.035634913,1.2608566,-0.6104042,-0.22149046,0.20813386,-0.10942207,0.84355867,-0.057090808,-0.6643716,0.07487311,-0.36035448,0.73545057,-0.1321897,0.08681213,-0.09049881,-0.040048182,-0.056498352,-0.021447726,-0.028298326,-0.063412905,0.059672352,0.034130234,0.0030173068,0.07407701,-0.043519508,0.14714552,0.10508832,-0.033729557,-0.033729557,-0.121537335,-0.10073655,0.7769714,-0.008028626,-0.0563099,-0.04473672,-1.576795,-0.0067949295,-0.05798642,-0.056174193,-0.03862744,-0.03862744,-0.019856703,-0.02410081,0.78441906,-0.0005809665,-0.009199355,-0.019795649,-1.6380831,-0.06808305,-0.07162766,-0.070029154,-0.02217764,-0.02217764,0.038684763,0.05507383,0.8543461,0.06934607,0.035972256,0.035329413,-1.5527955,0.017204523,0.0050833193,0.002531324,0.026829725,0.026829725,0.09303482,0.08082703,0.77600735,-0.008992672,-0.045664165,-0.045414064,-1.5841936,-0.014193535
82,1.6400000000000001,0.0,0.0,0.0,0.0,0.0,0.0,0.0,0.0,-1.0,0.0,0.0,0.0,-0.033729557,-0.008028626,-0.0067949295,-0.03862744,-0.0005809665,-0.06808305,-0.02217764,0.06934607,0.017204523,0.026829725,-0.008992672,-0.014193535,0.24259232,-0.10968697,-0.01735957,-0.17525192,-0.32998517,0.36089647,-0.5603956,-0.015805855,-0.4048915,-0.34997085,0.22511704,0.020900363,1.2590834,-0.6225905,-0.24049433,0.25627142,-0.018518198,0.7505153,0.07480683,-0.66104335,0.20980811,-0.23403959,0.67794025,-0.1466654,0.10508832,-0.10073655,-0.04473672,-0.056174193,-0.02410081,-0.019795649,-0.070029154,0.05507383,0.035329413,0.002531324,0.08082703,-0.045414064,0.15381353,0.1220338,-0.026088417,-0.026088417,-0.12219489,-0.11005498,0.7733834,-0.011616647,-0.057895496,-0.049338378,-1.5776968,-0.007696748,-0.057873074,-0.056625854,-0.04162716,-0.04162716,-0.014916923,-0.024671111,0.7777732,-0.0072268248,-0.009752292,-0.013882495,-1.6292695,-0.05926943,-0.06433456,-0.07408677,-0.03330086,-0.03330086,0.0315663,0.05016494,0.85262936,0.06762934,0.035073254,0.03619648,-1.5604599,0.0095402,0.0065043685,0.0029565808,0.019369032,0.019369032,0.094344065,0.0863163,0.7819534,-0.0030466318,-0.043578822,-0.04659942,-1.5840878,-0.014087796
83,1.6600000000000001,0.0,0.0,0.0,0.0,0.0,0.0,0.0,0.0,-1.0,0.0,0.0,0.0,-0.026088417,-0.011616647,-0.007696748,-0.04162716,-0.0072268248,-0.05926943,-0.03330086,0.06762934,0.0095402,0.019369032,-0.0030466318,-0.014087796,0.38205704,-0.1794008,-0.045090377,-0.1499861,-0.33229324,0.4406786,-0.556161,-0.08583733,-0.38321698,-0.3730346,0.29730254,0.0052854903,1.2026566,-0.604873,-0.24901357,0.2880208,0.084407195,0.61691236,0.21820012,-0.6378312,0.32853705,-0.09973458,0.59062564,-0.15003312,0.1220338,-0.11005498,-0.049338378,-0.056625854,-0.024671111,-0.013882495,-0.07408677,0.05016494,0.03619648,0.0029565808,0.0863163,-0.04659942,0.15605235,0.13638337,-0.01581237,-0.01581237,-0.119095035,-0.11730171,0.7684697,-0.016530335,-0.057852514,-0.053348735,-1.5791608,-0.009160757,-0.056817655,-0.057427745,-0.044063672,-0.044063672,-0.008967608,-0.023193724,0.7713198,-0.01368022,-0.011995565,-0.010471236,-1.6191676,-0.049167514,-0.053426627,-0.07479019,-0.043998934,-0.043998934,0.02364357,0.044782802,0.84955084,0.06455082,0.0340224,0.03643806,-1.5674633,0.0025367737,0.008225895,0.003877711,0.01172361,0.01172361,0.09452977,0.09040357,0.78914607,0.0041460395,-0.040626053,-0.04672428,-1.5842842,-0.014284134
