verayannn/SpotDMouse/P2-Terrain_Challenge/mp2/misc/openloop_scheduled_forward_0.15.csv
step,time,obs_0,obs_1,obs_2,obs_3,obs_4,obs_5,obs_6,obs_7,obs_8,obs_9,obs_10,obs_11,obs_12,obs_13,obs_14,obs_15,obs_16,obs_17,obs_18,obs_19,obs_20,obs_21,obs_22,obs_23,obs_24,obs_25,obs_26,obs_27,obs_28,obs_29,obs_30,obs_31,obs_32,obs_33,obs_34,obs_35,obs_36,obs_37,obs_38,obs_39,obs_40,obs_41,obs_42,obs_43,obs_44,obs_45,obs_46,obs_47,obs_48,obs_49,obs_50,obs_51,obs_52,obs_53,obs_54,obs_55,obs_56,obs_57,obs_58,obs_59,action_0,delayed_action_0,joint_pos_0,joint_pos_rel_0,action_1,delayed_action_1,joint_pos_1,joint_pos_rel_1,action_2,delayed_action_2,joint_pos_2,joint_pos_rel_2,action_3,delayed_action_3,joint_pos_3,joint_pos_rel_3,action_4,delayed_action_4,joint_pos_4,joint_pos_rel_4,action_5,delayed_action_5,joint_pos_5,joint_pos_rel_5,action_6,delayed_action_6,joint_pos_6,joint_pos_rel_6,action_7,delayed_action_7,joint_pos_7,joint_pos_rel_7,action_8,delayed_action_8,joint_pos_8,joint_pos_rel_8,action_9,delayed_action_9,joint_pos_9,joint_pos_rel_9,action_10,delayed_action_10,joint_pos_10,joint_pos_rel_10,action_11,delayed_action_11,joint_pos_11,joint_pos_rel_11
0,0.0,0.105000004,0.0,0.0,0.0,0.0,0.0,0.0,0.0,-1.0,0.15,0.0,0.0,0.0,0.0,0.0,0.0,0.0,0.0,0.0,0.0,0.0,0.0,0.0,0.0,0.0,0.0,0.0,0.0,0.0,0.0,0.0,0.0,0.0,0.0,0.0,0.0,0.0,0.0,0.0,0.0,0.0,0.0,0.0,0.0,0.0,0.0,0.0,0.0,0.0,0.0,0.0,0.0,0.0,0.0,0.0,0.0,0.0,0.0,0.0,0.0,0.08115257,0.0,0.0,0.0,-0.08070316,0.0,0.785,0.0,-0.02844841,0.0,-1.57,0.0,0.028246833,0.0,0.0,0.0,-0.06234045,0.0,0.785,0.0,-0.106237866,0.0,-1.57,0.0,-0.10704582,0.0,0.0,0.0,0.21794398,0.0,0.785,0.0,0.18422255,0.0,-1.57,0.0,0.13053231,0.0,0.0,0.0,0.15662692,0.0,0.785,0.0,0.039215844,0.0,-1.57,0.0
1,0.02,0.105000004,0.0,0.0,0.0,0.0,0.0,0.0,0.0,-1.0,0.15,0.0,0.0,0.0,0.0,0.0,0.0,0.0,0.0,0.0,0.0,0.0,0.0,0.0,0.0,0.0,0.0,0.0,0.0,0.0,0.0,0.0,0.0,0.0,0.0,0.0,0.0,0.0,0.0,0.0,0.0,0.0,0.0,0.0,0.0,0.0,0.0,0.0,0.0,0.0,0.0,0.0,0.0,0.0,0.0,0.0,0.0,0.0,0.0,0.0,0.0,0.08115257,0.0,0.0,0.0,-0.08070316,0.0,0.785,0.0,-0.02844841,0.0,-1.57,0.0,0.028246833,0.0,0.0,0.0,-0.06234045,0.0,0.785,0.0,-0.106237866,0.0,-1.57,0.0,-0.10704582,0.0,0.0,0.0,0.21794398,0.0,0.785,0.0,0.18422255,0.0,-1.57,0.0,0.13053231,0.0,0.0,0.0,0.15662692,0.0,0.785,0.0,0.039215844,0.0,-1.57,0.0
2,0.04,0.105000004,0.0,0.0,0.0,0.0,0.0,0.0,0.0,-1.0,0.15,0.0,0.0,0.0,0.0,0.0,0.0,0.0,0.0,0.0,0.0,0.0,0.0,0.0,0.0,0.0,0.0,0.0,0.0,0.0,0.0,0.0,0.0,0.0,0.0,0.0,0.0,0.0,0.0,0.0,0.0,0.0,0.0,0.0,0.0,0.0,0.0,0.0,0.0,0.0,0.0,0.0,0.0,0.0,0.0,0.0,0.0,0.0,0.0,0.0,0.0,0.08115257,0.0,0.0,0.0,-0.08070316,0.0,0.785,0.0,-0.02844841,0.0,-1.57,0.0,0.028246833,0.0,0.0,0.0,-0.06234045,0.0,0.785,0.0,-0.106237866,0.0,-1.57,0.0,-0.10704582,0.0,0.0,0.0,0.21794398,0.0,0.785,0.0,0.18422255,0.0,-1.57,0.0,0.13053231,0.0,0.0,0.0,0.15662692,0.0,0.785,0.0,0.039215844,0.0,-1.57,0.0
3,0.06,0.105000004,0.0,0.0,0.0,0.0,0.0,0.0,0.0,-1.0,0.15,0.0,0.0,0.0,0.0,0.0,0.0,0.0,0.0,0.0,0.0,0.0,0.0,0.0,0.0,0.0,0.0,0.0,0.0,0.0,0.0,0.0,0.0,0.0,0.0,0.0,0.0,0.0,0.0,0.0,0.0,0.0,0.0,0.0,0.0,0.0,0.0,0.0,0.0,0.0,0.0,0.0,0.0,0.0,0.0,0.0,0.0,0.0,0.0,0.0,0.0,0.08115257,0.08115257,0.0012984411,0.0012984411,-0.08070316,-0.08070316,0.78370875,-0.001291275,-0.02844841,-0.02844841,-1.5704552,-0.00045514107,0.028246833,0.028246833,0.0004519493,0.0004519493,-0.06234045,-0.06234045,0.7840026,-0.0009974241,-0.106237866,-0.106237866,-1.5716999,-0.0016998053,-0.10704582,-0.10704582,-0.0017127331,-0.0017127331,0.21794398,0.21794398,0.78848714,0.0034871101,0.18422255,0.18422255,-1.5670525,0.002947569,0.13053231,0.13053231,0.002088517,0.002088517,0.15662692,0.15662692,0.78750604,0.0025060177,0.039215844,0.039215844,-1.5693727,0.0006273985
4,0.08,0.105000004,0.0,0.0,0.0,0.0,0.0,0.0,0.0,-1.0,0.15,0.0,0.0,0.0012984411,-0.001291275,-0.00045514107,0.0004519493,-0.0009974241,-0.0016998053,-0.0017127331,0.0034871101,0.002947569,0.002088517,0.0025060177,0.0006273985,0.06492206,-0.06456251,-0.022758674,0.022597466,-0.0498724,-0.08499031,-0.08563665,0.17435522,0.14737797,0.10442585,0.12530155,0.03137264,0.5959845,-0.59268343,-0.20892516,0.20744474,-0.457829,-0.7802111,-0.7861446,1.6005808,1.3529296,0.9586293,1.1502684,0.28800172,0.08115257,-0.08070316,-0.02844841,0.028246833,-0.06234045,-0.106237866,-0.10704582,0.21794398,0.18422255,0.13053231,0.15662692,0.039215844,0.029853009,0.08115257,0.0037888512,0.0037888512,-0.06420252,-0.08070316,0.7812321,-0.0037679076,0.016794719,-0.02844841,-1.5713282,-0.0013281107,-0.08300646,0.028246833,0.001318788,0.001318788,-0.090854585,-0.06234045,0.7820895,-0.0029105544,-0.12471264,-0.106237866,-1.5749601,-0.00496006,-0.026099995,-0.10704582,-0.0049977554,-0.0049977554,0.18377858,0.21794398,0.7951754,0.010175347,0.1404627,0.18422255,-1.5613991,0.00860095,0.16950656,0.13053231,0.0060942923,0.0060942923,0.13368016,0.15662692,0.7923126,0.007312596,-0.009351468,0.039215844,-1.5681692,0.0018308163
5,0.1,0.105000004,0.0,0.0,0.0,0.0,0.0,0.0,0.0,-1.0,0.15,0.0,0.0,0.0037888512,-0.0037679076,-0.0013281107,0.001318788,-0.0029105544,-0.00496006,-0.0049977554,0.010175347,0.00860095,0.0060942923,0.007312596,0.0018308163,0.12452051,-0.123830855,-0.043651186,0.04334194,-0.09565529,-0.1630114,-0.16425112,0.3344133,0.28267092,0.20028877,0.2403284,0.06017281,0.5263387,-0.52342314,-0.18451138,0.18320309,-0.40432748,-0.6890365,-0.6942769,1.41354,1.194829,0.8466054,1.0158498,0.25434697,0.08115257,-0.08070316,-0.02844841,0.028246833,-0.06234045,-0.106237866,-0.10704582,0.21794398,0.18422255,0.13053231,0.15662692,0.039215844,0.03752959,0.08115257,0.0073319385,0.0073319385,-0.07604346,-0.08070316,0.77770865,-0.0072913766,0.014320083,-0.02844841,-1.5725702,-0.0025701523,-0.07778311,0.028246833,0.002552033,0.002552033,-0.08243485,-0.06234045,0.7793677,-0.005632341,-0.11932,-0.106237866,-1.5795984,-0.009598374,-0.02698905,-0.10704582,-0.009671332,-0.009671332,0.19181117,0.21794398,0.8046907,0.019690692,0.14436865,0.18422255,-1.553356,0.016644001,0.16719897,0.13053231,0.011793278,0.011793278,0.13599828,0.15662692,0.7991509,0.014150858,-0.0035261265,0.039215844,-1.566457,0.0035430193
6,0.12,0.105000004,0.0,0.0,0.0,0.0,0.0,0.0,0.0,-1.0,0.15,0.0,0.0,0.0073319385,-0.0072913766,-0.0025701523,0.002552033,-0.005632341,-0.009598374,-0.009671332,0.019690692,0.016644001,0.011793278,0.014150858,0.0035430193,0.17715438,-0.17617317,-0.062102325,0.06166225,-0.13608804,-0.23191506,-0.23367882,0.47576728,0.40215382,0.2849493,0.34191337,0.08560751,0.44333237,-0.44087648,-0.15541315,0.15431102,-0.34056252,-0.58037156,-0.5847858,1.1906174,1.0063988,0.7130914,0.85564506,0.21423435,0.08115257,-0.08070316,-0.02844841,0.028246833,-0.06234045,-0.106237866,-0.10704582,0.21794398,0.18422255,0.13053231,0.15662692,0.039215844,0.045605972,0.08115257,0.0117616905,0.0117616905,-0.09037957,-0.08070316,0.77330345,-0.011696577,0.011034615,-0.02844841,-1.574123,-0.0041229725,-0.0709628,0.028246833,0.0040939,0.0040939,-0.06971383,-0.06234045,0.7759648,-0.00903523,-0.112860106,-0.106237866,-1.5853975,-0.0153974295,-0.02807565,-0.10704582,-0.01551448,-0.01551448,0.20095848,0.21794398,0.8165873,0.031587303,0.1496588,0.18422255,-1.5433002,0.0266999,0.16408712,0.13053231,0.018918447,0.018918447,0.13771902,0.15662692,0.80770046,0.022700429,0.0034356737,0.039215844,-1.5643164,0.0056836605
7,0.14,0.105000004,0.0,0.0,0.0,0.0,0.0,0.0,0.0,-1.0,0.15,0.0,0.0,0.0117616905,-0.011696577,-0.0041229725,0.0040939,-0.00903523,-0.0153974295,-0.01551448,0.031587303,0.0266999,0.018918447,0.022700429,0.0056836605,0.22148761,-0.22026081,-0.07764364,0.07709335,-0.17014429,-0.28995222,-0.2921574,0.594829,0.50279367,0.35625845,0.4274779,0.10703094,0.35028973,-0.34834948,-0.12279737,0.12192559,-0.26908818,-0.4585681,-0.46205616,0.9407409,0.79518443,0.5634341,0.67606974,0.1692724,0.08115257,-0.08070316,-0.02844841,0.028246833,-0.06234045,-0.106237866,-0.10704582,0.21794398,0.18422255,0.13053231,0.15662692,0.039215844,0.053244736,0.029853009,0.016071228,0.016071228,-0.10576709,-0.06420252,0.7684655,-0.016534507,0.006879829,0.016794719,-1.5751976,-0.005197525,-0.06340729,-0.08300646,0.0040995656,0.0040995656,-0.054086883,-0.090854585,0.7715675,-0.013432503,-0.10614606,-0.12471264,-1.5924093,-0.0224092,-0.029421065,-0.026099995,-0.020986607,-0.020986607,0.21044236,0.18377858,0.8298187,0.0448187,0.15531307,0.1404627,-1.5323541,0.037645936,0.15991202,0.16950656,0.027794072,0.027794072,0.13909431,0.13368016,0.817235,0.032234967,0.011444638,-0.009351468,-1.5626143,0.0073857307
8,0.16,0.105000004,0.0,0.0,0.0,0.0,0.0,0.0,0.0,-1.0,0.15,0.0,0.0,0.016071228,-0.016534507,-0.005197525,0.0040995656,-0.013432503,-0.0224092,-0.020986607,0.0448187,0.037645936,0.027794072,0.032234967,0.0073857307,0.21547693,-0.24189529,-0.05372896,0.00028327852,-0.21986432,-0.3505889,-0.27360636,0.6615708,0.5473043,0.44378126,0.4767275,0.08510435,-0.12605405,-0.12812062,0.24438234,-0.72978634,-0.40198404,-0.46385998,0.26378894,0.4223446,0.247714,0.68945676,0.31531858,-0.23553582,0.029853009,-0.06420252,0.016794719,-0.08300646,-0.090854585,-0.12471264,-0.026099995,0.18377858,0.1404627,0.16950656,0.13368016,-0.009351468,0.068238035,0.03752959,0.020251485,0.020251485,-0.09158213,-0.07604346,0.7631819,-0.021818101,0.000838615,0.014320083,-1.575823,-0.005822897,-0.0022478066,-0.07778311,0.0027292322,0.0027292322,-0.050587144,-0.08243485,0.766501,-0.018499017,-0.08519945,-0.11932,-1.6002625,-0.03026247,-0.06865102,-0.02698905,-0.02594538,-0.02594538,0.21331464,0.19181117,0.84402335,0.05902332,0.14583384,0.14436865,-1.5208501,0.04914999,0.14797293,0.16719897,0.03801169,0.03801169,0.16654344,0.13599828,0.8274373,0.042437255,0.037738983,-0.0035261265,-1.5612901,0.0087099075
9,0.18,0.105000004,0.0,0.0,0.0,0.0,0.0,0.0,0.0,-1.0,0.15,0.0,0.0,0.020251485,-0.021818101,-0.005822897,0.0027292322,-0.018499017,-0.03026247,-0.02594538,0.05902332,0.04914999,0.03801169,0.042437255,0.0087099075,0.20901279,-0.2641801,-0.031270362,-0.06851667,-0.253327,-0.39266065,-0.24793871,0.7102313,0.5752005,0.5108808,0.5101138,0.06621099,-0.12829342,-0.12716822,0.22336261,-0.6316743,-0.23683138,-0.2740295,0.32318303,0.23500085,0.08094909,0.4739643,0.15393302,-0.2006737,0.03752959,-0.07604346,0.014320083,-0.07778311,-0.08243485,-0.11932,-0.02698905,0.19181117,0.14436865,0.16719897,0.13599828,-0.0035261265,0.07210241,0.045605972,0.024304375,0.024304375,-0.10891376,-0.09037957,0.7574146,-0.027585447,-0.0073520914,0.011034615,-1.5760542,-0.006054163,-0.004433211,-0.0709628,0.00020467513,0.00020467513,-0.04052875,-0.06971383,0.76116437,-0.023835659,-0.07732643,-0.112860106,-1.6085604,-0.03856039,-0.06992038,-0.02807565,-0.030275173,-0.030275173,0.22291552,0.20095848,0.85884434,0.07384431,0.15431407,0.1496588,-1.5090995,0.06090057,0.14374433,0.16408712,0.049127445,0.049127445,0.170442,0.13771902,0.83797497,0.05297494,0.041570153,0.0034356737,-1.5602559,0.009744167
10,0.2,0.105000004,0.0,0.0,0.0,0.0,0.0,0.0,0.0,-1.0,0.15,0.0,0.0,0.024304375,-0.027585447,-0.006054163,0.00020467513,-0.023835659,-0.03856039,-0.030275173,0.07384431,0.06090057,0.049127445,0.05297494,0.009744167,0.20264456,-0.2883658,-0.0115624275,-0.12622786,-0.2668333,-0.41489583,-0.21648969,0.74104923,0.58752763,0.5557878,0.5268837,0.05171308,-0.1253445,-0.13748671,0.19092563,-0.5078633,-0.04292345,-0.078467466,0.3680424,0.055634283,-0.07090159,0.24876392,-0.009288597,-0.15427832,0.045605972,-0.09037957,0.011034615,-0.0709628,-0.06971383,-0.112860106,-0.02807565,0.20095848,0.1496588,0.16408712,0.13771902,0.0034356737,0.07565439,0.053244736,0.028228797,0.028228797,-0.12528816,-0.10576709,0.7511261,-0.033873916,-0.016695805,0.006879829,-1.57597,-0.005970001,-0.0087597035,-0.06340729,-0.0032147202,-0.0032147202,-0.03202648,-0.054086883,0.7559919,-0.02900815,-0.07083976,-0.10614606,-1.6169078,-0.046907783,-0.0687186,-0.029421065,-0.033890408,-0.033890408,0.23299263,0.21044236,0.8739283,0.08892828,0.16380322,0.15531307,-1.4974003,0.07259977,0.14000337,0.15991202,0.060673926,0.060673926,0.17370604,0.13909431,0.84851605,0.06351602,0.043827225,0.011444638,-1.559402,0.0105980635
11,0.22,0.105000004,0.0,0.0,0.0,0.0,0.0,0.0,0.0,-1.0,0.15,0.0,0.0,0.028228797,-0.033873916,-0.005970001,-0.0032147202,-0.02900815,-0.046907783,-0.033890408,0.08892828,0.07259977,0.060673926,0.06351602,0.0105980635,0.19622111,-0.3144245,0.004206199,-0.17096977,-0.25862414,-0.4173713,-0.18076178,0.7541998,0.58496076,0.5773241,0.52705514,0.04269241,-0.12381341,-0.14694214,0.14845537,-0.37033787,0.16074708,0.1100414,0.3972589,-0.11641302,-0.21157256,0.019851303,-0.1670291,-0.09935867,0.053244736,-0.10576709,0.006879829,-0.06340729,-0.054086883,-0.10614606,-0.029421065,0.21044236,0.15531307,0.15991202,0.13909431,0.011444638,0.079584904,0.068238035,0.032145485,0.032145485,-0.14075196,-0.09158213,0.7447707,-0.04022932,-0.02751235,0.000838615,-1.5756856,-0.005685568,-0.01498555,-0.0022478066,-0.0063962396,-0.0063962396,-0.024008673,-0.050587144,0.75119686,-0.033803165,-0.06519846,-0.08519945,-1.6247001,-0.054700017,-0.06520928,-0.06865102,-0.037338804,-0.037338804,0.24361117,0.21331464,0.8888254,0.10382539,0.17475432,0.14583384,-1.4862759,0.08372414,0.13692349,0.14797293,0.072069086,0.072069086,0.1760322,0.16654344,0.8591623,0.074162245,0.044183154,0.037738983,-1.5583261,0.011673927
12,0.24,0.105000004,0.0,0.0,0.0,0.0,0.0,0.0,0.0,-1.0,0.15,0.0,0.0,0.032145485,-0.04022932,-0.005685568,-0.0063962396,-0.033803165,-0.054700017,-0.037338804,0.10382539,0.08372414,0.072069086,0.074162245,0.011673927,0.19583441,-0.31777078,0.014218705,-0.15907598,-0.23974964,-0.38960978,-0.17241986,0.7448563,0.55622005,0.56975794,0.53231156,0.05379212,-0.06634069,0.06989708,0.09056788,0.16389537,0.25602803,0.38841033,0.13442263,-0.32711717,-0.45102644,-0.25420094,-0.12040381,0.08823341,0.068238035,-0.09158213,0.000838615,-0.0022478066,-0.050587144,-0.08519945,-0.06865102,0.21331464,0.14583384,0.14797293,0.16654344,0.037738983,0.085491195,0.07210241,0.035991322,0.035991322,-0.17611709,-0.10891376,0.7382778,-0.046722233,-0.04690676,-0.0073520914,-1.5753511,-0.0053510666,-0.032415487,-0.004433211,-0.009284935,-0.009284935,0.0005935505,-0.04052875,0.74707484,-0.037925184,-0.060172938,-0.07732643,-1.6315895,-0.06158948,-0.05454194,-0.06992038,-0.040538665,-0.040538665,0.25480306,0.22291552,0.9032219,0.11822188,0.18410423,0.15431407,-1.4759179,0.09408212,0.12453244,0.14374433,0.082888186,0.082888186,0.1632182,0.170442,0.8696301,0.08463007,0.030202502,0.041570153,-1.5570126,0.0129874945
13,0.26,0.105000004,0.0,0.0,0.0,0.0,0.0,0.0,0.0,-1.0,0.15,0.0,0.0,0.035991322,-0.046722233,-0.0053510666,-0.009284935,-0.037925184,-0.06158948,-0.040538665,0.11822188,0.09408212,0.082888186,0.08463007,0.0129874945,0.19229184,-0.32464635,0.016722986,-0.14443476,-0.2061001,-0.3444705,-0.15999308,0.71982527,0.51790166,0.54095495,0.52339,0.06568038,-0.095187776,0.038568676,0.018438663,0.18531065,0.3856228,0.53905463,0.16925211,-0.46813846,-0.5297524,-0.44673377,-0.25224027,0.09192139,0.07210241,-0.10891376,-0.0073520914,-0.004433211,-0.04052875,-0.07732643,-0.06992038,0.22291552,0.15431407,0.14374433,0.170442,0.041570153,0.09352464,0.07565439,0.039703615,0.039703615,-0.18719149,-0.12528816,0.7316,-0.05340004,-0.05667328,-0.016695805,-1.5751293,-0.005129218,-0.03695185,-0.0087597035,-0.011872233,-0.011872233,0.009096261,-0.03202648,0.7438601,-0.0411399,-0.05462499,-0.07083976,-1.637297,-0.06729698,-0.04890286,-0.0687186,-0.043380793,-0.043380793,0.26591173,0.23299263,0.91684335,0.13184333,0.1967407,0.16380322,-1.4664676,0.10353243,0.121898,0.14000337,0.09275396,0.09275396,0.16511829,0.17370604,0.87964565,0.09464562,0.029865416,0.043827225,-1.555479,0.014521003
14,0.28,0.105000004,0.0,0.0,0.0,0.0,0.0,0.0,0.0,-1.0,0.15,0.0,0.0,0.039703615,-0.05340004,-0.005129218,-0.011872233,-0.0411399,-0.06729698,-0.043380793,0.13184333,0.10353243,0.09275396,0.09464562,0.014521003,0.18561465,-0.33388898,0.011091953,-0.1293649,-0.16073602,-0.28537554,-0.14210644,0.6810731,0.47251785,0.49328882,0.50077724,0.0766782,-0.122830056,0.019040097,-0.057044387,0.18456055,0.48239416,0.65272236,0.21539712,-0.58608866,-0.58235115,-0.6106809,-0.3750701,0.07994322,0.07565439,-0.12528816,-0.016695805,-0.0087597035,-0.03202648,-0.07083976,-0.0687186,0.23299263,0.16380322,0.14000337,0.17370604,0.043827225,0.10132936,0.079584904,0.043233138,0.043233138,-0.19592321,-0.14075196,0.72471285,-0.060287178,-0.06555023,-0.02751235,-1.5751946,-0.005194545,-0.041184902,-0.01498555,-0.014190024,-0.014190024,0.017920379,-0.024008673,0.7417385,-0.043261528,-0.050491214,-0.06519846,-1.6416088,-0.07160878,-0.042988446,-0.06520928,-0.045735978,-0.045735978,0.27628937,0.24361117,0.92946255,0.14446253,0.20939603,0.17475432,-1.4580067,0.11199331,0.11998867,0.13692349,0.1013491,0.1013491,0.16696368,0.1760322,0.88894826,0.103948236,0.029967712,0.044183154,-1.55378,0.016220093
15,0.3,0.105000004,0.0,0.0,0.0,0.0,0.0,0.0,0.0,-1.0,0.15,0.0,0.0,0.043233138,-0.060287178,-0.005194545,-0.014190024,-0.043261528,-0.07160878,-0.045735978,0.14446253,0.11199331,0.1013491,0.103948236,0.016220093,0.17647605,-0.34435603,-0.003265744,-0.11588952,-0.10608229,-0.21559033,-0.11775927,0.6309591,0.42304358,0.42975682,0.46513113,0.08495729,-0.143289,0.010757196,-0.13535291,0.16510074,0.55315655,0.73194826,0.26898104,-0.67799026,-0.60537976,-0.7410761,-0.48747987,0.051465906,0.079584904,-0.14075196,-0.02751235,-0.01498555,-0.024008673,-0.06519846,-0.06520928,0.24361117,0.17475432,0.13692349,0.1760322,0.044183154,0.10811542,0.085491195,0.04657058,0.04657058,-0.2021302,-0.17611709,0.7172814,-0.067718625,-0.07302194,-0.04690676,-1.575841,-0.0058408976,-0.044989984,-0.032415487,-0.016456492,-0.016456492,0.02701411,0.0005935505,0.7411168,-0.043883204,-0.04791773,-0.060172938,-1.6443764,-0.074376345,-0.036976494,-0.05454194,-0.047382522,-0.047382522,0.285303,0.25480306,0.9409048,0.15590477,0.2220821,0.18410423,-1.4506071,0.11939299,0.11895044,0.12453244,0.10826383,0.10826383,0.16867581,0.1632182,0.8970709,0.11207086,0.03107419,0.030202502,-1.5522016,0.017798424
16,0.32,0.105000004,0.0,0.0,0.0,0.0,0.0,0.0,0.0,-1.0,0.15,0.0,0.0,0.04657058,-0.067718625,-0.0058408976,-0.016456492,-0.043883204,-0.074376345,-0.047382522,0.15590477,0.11939299,0.10826383,0.11207086,0.017798424,0.16687217,-0.3715724,-0.03231655,-0.1133234,-0.031084895,-0.1383752,-0.0823273,0.5721136,0.36998546,0.34573638,0.40613192,0.07891919,-0.14463581,-0.1396523,-0.26564103,0.060641684,0.72242206,0.7778248,0.36294848,-0.74210864,-0.62244695,-0.90882987,-0.6904546,-0.082615264,0.085491195,-0.17611709,-0.04690676,-0.032415487,0.0005935505,-0.060172938,-0.05454194,0.25480306,0.18410423,0.12453244,0.1632182,0.030202502,0.115541,0.09352464,0.04974729,0.04974729,-0.20332503,-0.18719149,0.70939344,-0.075606585,-0.083613746,-0.05667328,-1.5771748,-0.0071747303,-0.048557054,-0.03695185,-0.018674258,-0.018674258,0.031500917,0.009096261,0.74207604,-0.042923987,-0.04444228,-0.05462499,-1.6454995,-0.075499415,-0.0327242,-0.04890286,-0.048212945,-0.048212945,0.29648376,0.26591173,0.95104057,0.16604054,0.24042189,0.1967407,-1.4442501,0.12574995,0.1193355,0.121898,0.11331874,0.11331874,0.17384128,0.16511829,0.90384305,0.11884302,0.039842445,0.029865416,-1.5507939,0.019206166
17,0.34,0.105000004,0.0,0.0,0.0,0.0,0.0,0.0,0.0,-1.0,0.15,0.0,0.0,0.04974729,-0.075606585,-0.0071747303,-0.018674258,-0.042923987,-0.075499415,-0.048212945,0.16604054,0.12574995,0.11331874,0.11884302,0.019206166,0.15883535,-0.39439717,-0.06669392,-0.110888325,0.04795949,-0.05615432,-0.041521188,0.5067896,0.3178499,0.25274584,0.33860663,0.07038815,-0.12717715,-0.09062795,-0.30524367,0.058617484,0.7355741,0.79906756,0.4009448,-0.78274983,-0.59699905,-0.9642887,-0.7498449,-0.10356871,0.09352464,-0.18719149,-0.05667328,-0.03695185,0.009096261,-0.05462499,-0.04890286,0.26591173,0.1967407,0.121898,0.16511829,0.029865416,0.11881035,0.10132936,0.052794516,0.052794516,-0.20791706,-0.19592321,0.7011845,-0.083815515,-0.088678665,-0.06555023,-1.5792612,-0.009261131,-0.05219053,-0.041184902,-0.020842519,-0.020842519,0.041799482,0.017920379,0.74464756,-0.040352464,-0.04487261,-0.050491214,-1.6449583,-0.074958205,-0.025933865,-0.042988446,-0.048146848,-0.048146848,0.30359557,0.27628937,0.9597769,0.17477685,0.2521051,0.20939603,-1.4388846,0.13111544,0.12018613,0.11998867,0.11641453,0.11641453,0.17342432,0.16696368,0.909145,0.12414497,0.03986172,0.029967712,-1.5495917,0.020408392
18,0.36,0.105000004,0.0,0.0,0.0,0.0,0.0,0.0,0.0,-1.0,0.15,0.0,0.0,0.052794516,-0.083815515,-0.009261131,-0.020842519,-0.040352464,-0.074958205,-0.048146848,0.17477685,0.13111544,0.11641453,0.12414497,0.020408392,0.15236141,-0.41044533,-0.104319915,-0.10841302,0.12857619,0.027059585,0.003304828,0.43681675,0.2682744,0.1547895,0.26509842,0.06011311,-0.1102581,-0.021114778,-0.32406455,0.05820759,0.72471434,0.78187275,0.42478958,-0.8045233,-0.5568152,-0.9801179,-0.78315914,-0.11684854,0.10132936,-0.19592321,-0.06555023,-0.041184902,0.017920379,-0.050491214,-0.042988446,0.27628937,0.20939603,0.11998867,0.16696368,0.029967712,0.11946029,0.10811542,0.055729806,0.055729806,-0.21189514,-0.2021302,0.6928341,-0.09216595,-0.09242631,-0.07302194,-1.5821153,-0.01211524,-0.05604386,-0.044989984,-0.022955244,-0.022955244,0.053346556,0.02701411,0.748814,-0.03618604,-0.04604458,-0.04791773,-1.6428121,-0.07281208,-0.018718667,-0.036976494,-0.04713498,-0.04713498,0.31015775,0.285303,0.9670484,0.18204838,0.26318598,0.2220821,-1.4344298,0.13557029,0.12233915,0.11895044,0.117533475,0.117533475,0.17112757,0.16867581,0.912908,0.12790799,0.03904004,0.03107419,-1.5486054,0.02139461
19,0.38,0.105000004,0.0,0.0,0.0,0.0,0.0,0.0,0.0,-1.0,0.15,0.0,0.0,0.055729806,-0.09216595,-0.01211524,-0.022955244,-0.03618604,-0.07281208,-0.04713498,0.18204838,0.13557029,0.117533475,0.12790799,0.02139461,0.14676444,-0.4175224,-0.14270362,-0.10563633,0.20832263,0.10730546,0.050593346,0.36357534,0.2227417,0.05594714,0.18815218,0.049313456,-0.100135766,0.06637476,-0.31897944,0.060182203,0.6909284,0.72799784,0.43305105,-0.8121378,-0.50383836,-0.95690566,-0.7911977,-0.11837621,0.10811542,-0.2021302,-0.07302194,-0.044989984,0.02701411,-0.04791773,-0.036976494,0.285303,0.2220821,0.11895044,0.16867581,0.03107419,0.11771238,0.115541,0.058583632,0.058583632,-0.21535233,-0.20332503,0.68459725,-0.10040277,-0.09475196,-0.083613746,-1.5857768,-0.015776753,-0.060194295,-0.048557054,-0.02500468,-0.02500468,0.06585166,0.031500917,0.7544341,-0.030565917,-0.047794558,-0.04444228,-1.6391544,-0.06915438,-0.011172958,-0.0327242,-0.045188975,-0.045188975,0.3163336,0.29648376,0.9728745,0.1878745,0.27350688,0.24042189,-1.4306892,0.13931084,0.12588787,0.1193355,0.116744764,0.116744764,0.16684355,0.17384128,0.9151713,0.1301713,0.037191484,0.039842445,-1.5477157,0.022284389
20,0.4,0.105000004,0.0,0.0,0.0,0.0,0.0,0.0,0.0,-1.0,0.15,0.0,0.0,0.058583632,-0.10040277,-0.015776753,-0.02500468,-0.030565917,-0.06915438,-0.045188975,0.1878745,0.13931084,0.116744764,0.1301713,0.022284389,0.14269133,-0.4118408,-0.18307497,-0.10247176,0.2810049,0.18288577,0.09730028,0.29130617,0.18702975,-0.03943538,0.113164775,0.0444903,-0.08435575,0.1857645,-0.32494354,0.06285431,0.6005597,0.6594898,0.41257986,-0.77977496,-0.39911216,-0.8935145,-0.7485933,-0.06005643,0.115541,-0.20332503,-0.083613746,-0.048557054,0.031500917,-0.04444228,-0.0327242,0.29648376,0.24042189,0.1193355,0.17384128,0.039842445,0.11545072,0.11881035,0.061321057,0.061321057,-0.22047728,-0.20791706,0.6766585,-0.108341515,-0.09350862,-0.088678665,-1.5901692,-0.020169139,-0.065238714,-0.05219053,-0.026986541,-0.026986541,0.08210865,0.041799482,0.76142013,-0.023579895,-0.050099224,-0.04487261,-1.6341846,-0.06418455,-0.0008328557,-0.025933865,-0.042309165,-0.042309165,0.3215514,0.30359557,0.97725487,0.19225484,0.28405643,0.2521051,-1.42756,0.14244008,0.13000299,0.12018613,0.114182636,0.114182636,0.16004254,0.17342432,0.91593075,0.13093072,0.03161336,0.03986172,-1.5469457,0.023054361
21,0.42,0.105000004,0.0,0.0,0.0,0.0,0.0,0.0,0.0,-1.0,0.15,0.0,0.0,0.061321057,-0.108341515,-0.020169139,-0.026986541,-0.023579895,-0.06418455,-0.042309165,0.19225484,0.14244008,0.114182636,0.13093072,0.023054361,0.13687123,-0.396938,-0.21962129,-0.09909311,0.34929967,0.24849047,0.14399053,0.2190181,0.15646492,-0.12810633,0.03797195,0.038500108,-0.09908975,0.26859647,-0.2769119,0.063806966,0.5370239,0.5437273,0.39748043,-0.75682217,-0.34043378,-0.80138,-0.7264826,-0.0692264,0.11881035,-0.20791706,-0.088678665,-0.05219053,0.041799482,-0.04487261,-0.025933865,0.30359557,0.2521051,0.12018613,0.17342432,0.03986172,0.110565625,0.11946029,0.0638707,0.0638707,-0.22258508,-0.21189514,0.66919327,-0.11580676,-0.09317189,-0.09242631,-1.5951754,-0.025175333,-0.06982371,-0.05604386,-0.028902443,-0.028902443,0.09444791,0.053346556,0.76966494,-0.015335083,-0.052081548,-0.04604458,-1.628146,-0.058146,0.005881749,-0.018718667,-0.03851895,-0.03851895,0.32661808,0.31015775,0.9802266,0.19522655,0.29358461,0.26318598,-1.4249343,0.14506578,0.13650589,0.12233915,0.1100522,0.1100522,0.15235896,0.17112757,0.9152005,0.13020045,0.029211009,0.03904004,-1.5463272,0.02367282
22,0.44,0.105000004,0.0,0.0,0.0,0.0,0.0,0.0,0.0,-1.0,0.15,0.0,0.0,0.0638707,-0.11580676,-0.025175333,-0.028902443,-0.015335083,-0.058146,-0.03851895,0.19522655,0.14506578,0.1100522,0.13020045,0.02367282,0.12748222,-0.37326077,-0.25031063,-0.09579507,0.41223973,0.30192554,0.18951073,0.14858568,0.13128632,-0.2065219,-0.036513753,0.030920196,-0.12998995,0.34437767,-0.21144977,0.06198575,0.46601358,0.41101652,0.37179852,-0.71665543,-0.2812079,-0.678861,-0.6959298,-0.08190449,0.11946029,-0.21189514,-0.09242631,-0.05604386,0.053346556,-0.04604458,-0.018718667,0.31015775,0.26318598,0.12233915,0.17112757,0.03904004,0.10489402,0.11771238,0.0661324,0.0661324,-0.22340468,-0.21535233,0.6623615,-0.12263852,-0.09164754,-0.09475196,-1.6006417,-0.030641675,-0.07447332,-0.060194295,-0.03076078,-0.03076078,0.10579094,0.06585166,0.7790418,-0.0059581995,-0.053964183,-0.047794558,-1.6213135,-0.0513134,0.011720359,-0.011172958,-0.03386441,-0.03386441,0.33121285,0.3163336,0.9818638,0.19686377,0.30258828,0.27350688,-1.4227058,0.14729428,0.14430968,0.12588787,0.104620814,0.104620814,0.14314635,0.16684355,0.9130098,0.1280098,0.026508661,0.037191484,-1.5459023,0.0240978
23,0.46,0.105000004,0.0,0.0,0.0,0.0,0.0,0.0,0.0,-1.0,0.15,0.0,0.0,0.0661324,-0.12263852,-0.030641675,-0.03076078,-0.0059581995,-0.0513134,-0.03386441,0.19686377,0.14729428,0.104620814,0.1280098,0.0240978,0.1130849,-0.34158874,-0.27331623,-0.09291685,0.46884522,0.34162718,0.23272716,0.08186083,0.111422256,-0.271569,-0.10953395,0.021250788,-0.17296176,0.4101924,-0.13109167,0.057076544,0.38772207,0.26784417,0.33608332,-0.6600815,-0.22436461,-0.53104556,-0.65864146,-0.09865907,0.11771238,-0.21535233,-0.09475196,-0.060194295,0.06585166,-0.047794558,-0.011172958,0.3163336,0.27350688,0.12588787,0.16684355,0.037191484,0.09872268,0.11545072,0.068011984,0.068011984,-0.22256318,-0.22047728,0.6562681,-0.1287319,-0.08893465,-0.09350862,-1.6063503,-0.03635025,-0.079104036,-0.065238714,-0.032585673,-0.032585673,0.11528462,0.08210865,0.7894543,0.004454255,-0.055836894,-0.050099224,-1.6139821,-0.04398203,0.01633507,-0.0008328557,-0.028372258,-0.028372258,0.3352615,0.3215514,0.98226434,0.19726431,0.3108211,0.28405643,-1.4207573,0.14924276,0.15332209,0.13000299,0.09819318,0.09819318,0.13276634,0.16004254,0.9093931,0.124393046,0.023697788,0.03161336,-1.5457639,0.024236202
24,0.48,0.105000004,0.0,0.0,0.0,0.0,0.0,0.0,0.0,-1.0,0.15,0.0,0.0,0.068011984,-0.1287319,-0.03635025,-0.032585673,0.004454255,-0.04398203,-0.028372258,0.19726431,0.14924276,0.09819318,0.124393046,0.024236202,0.09397939,-0.30466944,-0.28543073,-0.09124473,0.52062297,0.36656797,0.27460757,0.020026915,0.09742543,-0.32138148,-0.18083891,0.006922448,-0.2115757,0.4482274,-0.0237504,0.04508342,0.32528937,0.1196354,0.3099895,-0.59383094,-0.16414545,-0.37037626,-0.61952907,-0.13833365,0.11545072,-0.22047728,-0.09350862,-0.065238714,0.08210865,-0.050099224,-0.0008328557,0.3215514,0.28405643,0.13000299,0.16004254,0.03161336,0.092389,0.110565625,0.06939026,0.06939026,-0.21854493,-0.22258508,0.65103745,-0.13396257,-0.085596435,-0.09317189,-1.6121011,-0.042101026,-0.08268277,-0.06982371,-0.03439376,-0.03439376,0.12008762,0.09444791,0.80071473,0.015714705,-0.05804134,-0.052081548,-1.6064432,-0.036443114,0.01864513,0.005881749,-0.022152694,-0.022152694,0.33881178,0.32661808,0.98155826,0.19655824,0.3183502,0.29358461,-1.4189847,0.1510154,0.16369797,0.13650589,0.09112885,0.09112885,0.123340994,0.15235896,0.9044143,0.11941427,0.022107342,0.029211009,-1.5459405,0.024059534
25,0.5,0.105000004,0.0,0.0,0.0,0.0,0.0,0.0,0.0,-1.0,0.15,0.0,0.0,0.06939026,-0.13396257,-0.042101026,-0.03439376,0.015714705,-0.036443114,-0.022152694,0.19655824,0.1510154,0.09112885,0.11941427,0.024059534,0.06891374,-0.261533,-0.28753626,-0.090404384,0.5630234,0.37694556,0.3109782,-0.03530287,0.08863341,-0.3532168,-0.24893862,-0.008832762,-0.26017603,0.49348697,0.07200986,0.036912676,0.22263679,-0.022035623,0.24600796,-0.51433575,-0.11188644,-0.18940608,-0.56728697,-0.14684781,0.110565625,-0.22258508,-0.09317189,-0.06982371,0.09444791,-0.052081548,0.005881749,0.32661808,0.29358461,0.13650589,0.15235896,0.029211009,0.08679769,0.10489402,0.07015744,0.07015744,-0.21398297,-0.22340468,0.64678067,-0.13821936,-0.080778874,-0.09164754,-1.6176834,-0.04768336,-0.086628154,-0.07447332,-0.036202416,-0.036202416,0.12402348,0.10579094,0.812602,0.027601957,-0.06069211,-0.053964183,-1.5989784,-0.028978348,0.021234632,0.011720359,-0.015347697,-0.015347697,0.34202078,0.33121285,0.979897,0.194897,0.32317477,0.30258828,-1.4172916,0.15270841,0.17225279,0.14430968,0.08381056,0.08381056,0.11371655,0.14314635,0.89815354,0.11315352,0.01819321,0.026508661,-1.5464541,0.02354598
26,0.52,0.105000004,0.0,0.0,0.0,0.0,0.0,0.0,0.0,-1.0,0.15,0.0,0.0,0.07015744,-0.13821936,-0.04768336,-0.036202416,0.027601957,-0.028978348,-0.015347697,0.194897,0.15270841,0.08381056,0.11315352,0.02354598,0.03835886,-0.21283995,-0.27911592,-0.0904328,0.5943615,0.37323594,0.3402499,-0.08306061,0.08464768,-0.36591437,-0.3130374,-0.025679521,-0.30254632,0.53069246,0.16931069,0.028668482,0.107515715,-0.15467751,0.16920108,-0.4271186,-0.06495263,-0.0035343051,-0.5087664,-0.15182737,0.10489402,-0.22340468,-0.09164754,-0.07447332,0.10579094,-0.053964183,0.011720359,0.33121285,0.30258828,0.14430968,0.14314635,0.026508661,0.08154116,0.09872268,0.07022078,0.07022078,-0.20704114,-0.22256318,0.64359874,-0.14140129,-0.075133495,-0.08893465,-1.6228837,-0.052883625,-0.09008698,-0.079104036,-0.038027827,-0.038027827,0.124954194,0.11528462,0.82485616,0.039856136,-0.06442319,-0.055836894,-1.591853,-0.02185297,0.023142666,0.01633507,-0.008130461,-0.008130461,0.3444933,0.3352615,0.9774464,0.19244635,0.3259411,0.3108211,-1.4155968,0.15440321,0.17969245,0.15332209,0.0766294,0.0766294,0.10574801,0.13276634,0.89070916,0.105709136,0.013817104,0.023697788,-1.5473163,0.02268374
27,0.54,0.105000004,0.0,0.0,0.0,0.0,0.0,0.0,0.0,-1.0,0.15,0.0,0.0,0.07022078,-0.14140129,-0.052883625,-0.038027827,0.039856136,-0.02185297,-0.008130461,0.19244635,0.15440321,0.0766294,0.105709136,0.02268374,0.0031671599,-0.1590975,-0.26001447,-0.09127052,0.6127079,0.35626996,0.36086178,-0.1225336,0.08473868,-0.35905787,-0.37221807,-0.043110833,-0.33533466,0.5614642,0.26466796,0.021248197,-0.021775628,-0.27518278,0.08033705,-0.3357831,-0.026252244,0.18003522,-0.44310617,-0.1518016,0.09872268,-0.22256318,-0.08893465,-0.079104036,0.11528462,-0.055836894,0.01633507,0.3352615,0.3108211,0.15332209,0.13276634,0.023697788,0.07647218,0.092389,0.06951212,0.06951212,-0.19755977,-0.21854493,0.641604,-0.14339602,-0.068801545,-0.085596435,-1.6275012,-0.057501197,-0.093131214,-0.08268277,-0.039868,-0.039868,0.12302877,0.12008762,0.8371436,0.052143574,-0.06954485,-0.05804134,-1.5853132,-0.0153131485,0.02469398,0.01864513,-0.0007155901,-0.0007155901,0.34607944,0.33881178,0.97438097,0.18938094,0.32651857,0.3183502,-1.4138341,0.15616596,0.18559901,0.16369797,0.069974326,0.069974326,0.099916965,0.123340994,0.8822278,0.09722775,0.009055929,0.022107342,-1.5485076,0.021492481
28,0.56,0.105000004,0.0,0.0,0.0,0.0,0.0,0.0,0.0,-1.0,0.15,0.0,0.0,0.06951212,-0.14339602,-0.057501197,-0.039868,0.052143574,-0.0153131485,-0.0007155901,0.18938094,0.15616596,0.069974326,0.09722775,0.021492481,-0.035433248,-0.09973653,-0.23087701,-0.092008695,0.6143728,0.32698813,0.37074354,-0.15327168,0.08813667,-0.33275366,-0.42406902,-0.059563383,-0.3553653,0.59584486,0.3506871,0.022430176,-0.18078259,-0.38281435,-0.024761284,-0.24296522,0.0040769577,0.3563714,-0.3568818,-0.1372391,0.092389,-0.21854493,-0.085596435,-0.08268277,0.12008762,-0.05804134,0.01864513,0.33881178,0.3183502,0.16369797,0.123340994,0.022107342,0.07167381,0.08679769,0.06800327,0.06800327,-0.18650198,-0.21398297,0.64087397,-0.14412606,-0.061712734,-0.080778874,-1.6313404,-0.061340332,-0.09607808,-0.086628154,-0.04172644,-0.04172644,0.11947402,0.12402348,0.8491325,0.06413245,-0.07614247,-0.06069211,-1.5795815,-0.009581447,0.026601583,0.021234632,0.00669119,0.00669119,0.34634045,0.34202078,0.9708809,0.1858809,0.32507882,0.32317477,-1.411986,0.15801406,0.18958077,0.17225279,0.06416887,0.06416887,0.09597949,0.11371655,0.8728787,0.087878644,0.0035054334,0.01819321,-1.550036,0.019964099
29,0.58,0.105000004,0.0,0.0,0.0,0.0,0.0,0.0,0.0,-1.0,0.15,0.0,0.0,0.06800327,-0.14412606,-0.061340332,-0.04172644,0.06413245,-0.009581447,0.00669119,0.1858809,0.15801406,0.06416887,0.087878644,0.019964099,-0.07544282,-0.03650242,-0.19195431,-0.09292198,0.5994432,0.2865861,0.370339,-0.175001,0.09240408,-0.29027265,-0.4674567,-0.076418586,-0.35594934,0.61240464,0.43119177,0.021058802,-0.33365333,-0.47552648,-0.12235149,-0.1504279,0.010970736,0.4964567,-0.26259714,-0.13567033,0.08679769,-0.21398297,-0.080778874,-0.086628154,0.12402348,-0.06069211,0.021234632,0.34202078,0.32317477,0.17225279,0.11371655,0.01819321,0.066423416,0.08154116,0.06569841,0.06569841,-0.17378536,-0.20704114,0.6414798,-0.14352024,-0.055418007,-0.075133495,-1.6342268,-0.06422675,-0.09847519,-0.09008698,-0.043598104,-0.043598104,0.11371708,0.124954194,0.8604689,0.0754689,-0.08282674,-0.06442319,-1.5748606,-0.0048605204,0.027655154,0.023142666,0.013883796,0.013883796,0.34603283,0.3444933,0.96711963,0.18211961,0.3227866,0.3259411,-1.4100717,0.15992832,0.19194767,0.17969245,0.059475366,0.059475366,0.09427999,0.10574801,0.86287683,0.077876806,-0.0014298833,0.013817104,-1.5519056,0.01809442
30,0.6,0.105000004,0.0,0.0,0.0,0.0,0.0,0.0,0.0,-1.0,0.15,0.0,0.0,0.06569841,-0.14352024,-0.06422675,-0.043598104,0.0754689,-0.0048605204,0.013883796,0.18211961,0.15992832,0.059475366,0.077876806,0.01809442,-0.11524298,0.030291475,-0.14431892,-0.09358316,0.56682247,0.23604865,0.3596303,-0.18806577,0.095714256,-0.23467526,-0.50009125,-0.093486555,-0.34122378,0.6248489,0.49871892,0.023665395,-0.49127978,-0.5556407,-0.21681456,-0.063934684,0.0008184075,0.60327137,-0.14999881,-0.13223088,0.08154116,-0.20704114,-0.075133495,-0.09008698,0.124954194,-0.06442319,0.023142666,0.3444933,0.3259411,0.17969245,0.10574801,0.013817104,0.061013617,0.07647218,0.06263,0.06263,-0.16073108,-0.19755977,0.64348704,-0.14151299,-0.049676485,-0.068801545,-1.6360145,-0.06601441,-0.100573555,-0.093131214,-0.045471143,-0.045471143,0.107330546,0.12302877,0.87079203,0.085792005,-0.08946451,-0.06954485,-1.5713328,-0.0013327599,0.028429717,0.02469398,0.020667594,0.020667594,0.34492117,0.34607944,0.9632558,0.1782558,0.31996742,0.32651857,-1.4081466,0.16185343,0.19272506,0.18559901,0.056082908,0.056082908,0.0939508,0.099916965,0.8524817,0.0674817,-0.006342446,0.009055929,-1.554116,0.015884042
31,0.62,0.105000004,0.0,0.0,0.0,0.0,0.0,0.0,0.0,-1.0,0.15,0.0,0.0,0.06263,-0.14151299,-0.06601441,-0.045471143,0.085792005,-0.0013327599,0.020667594,0.1782558,0.16185343,0.056082908,0.0674817,0.015884042,-0.15342054,0.1003615,-0.08938149,-0.093652,0.5161541,0.17638722,0.3391899,-0.19319028,0.09625806,-0.16962287,-0.519756,-0.11051862,-0.31359226,0.63354933,0.55050814,0.029314574,-0.64651906,-0.6232278,-0.3027246,0.013138145,-0.025635665,0.67227703,-0.02049365,-0.12643853,0.07647218,-0.19755977,-0.068801545,-0.093131214,0.12302877,-0.06954485,0.02469398,0.34607944,0.32651857,0.18559901,0.099916965,0.009055929,0.05549959,0.07167381,0.058857627,0.058857627,-0.14810771,-0.18650198,0.64693826,-0.13806176,-0.044777997,-0.061712734,-1.6365876,-0.06658757,-0.102324024,-0.09607808,-0.047332704,-0.047332704,0.100851685,0.11947402,0.8797652,0.09476519,-0.09561803,-0.07614247,-1.5691571,0.0008429289,0.028582014,0.026601583,0.026876464,0.026876464,0.3431169,0.34634045,0.95942247,0.17442244,0.31713626,0.32507882,-1.4062958,0.16370428,0.19224714,0.18958077,0.054098714,0.054098714,0.09490228,0.09597949,0.8419826,0.056982577,-0.0108656045,0.0035054334,-1.556668,0.013332009
32,0.64,0.105000004,0.0,0.0,0.0,0.0,0.0,0.0,0.0,-1.0,0.15,0.0,0.0,0.058857627,-0.13806176,-0.06658757,-0.047332704,0.09476519,0.0008429289,0.026876464,0.17442244,0.16370428,0.054098714,0.056982577,0.013332009,-0.18861845,0.17256263,-0.02865956,-0.09307804,0.44865844,0.10878624,0.31044352,-0.1916677,0.09254265,-0.09920976,-0.5249554,-0.12760279,-0.27402234,0.63069105,0.58602893,0.03523762,-0.7847797,-0.6770204,-0.37243253,0.07579811,-0.064909935,0.7006716,0.11859207,-0.12146701,0.07167381,-0.18650198,-0.061712734,-0.09607808,0.11947402,-0.07614247,0.026601583,0.34634045,0.32507882,0.18958077,0.09597949,0.0035054334,0.05002339,0.066423416,0.05445321,0.05445321,-0.1365807,-0.17378536,0.65185434,-0.13314569,-0.04103104,-0.055418007,-1.635888,-0.06588793,-0.103577405,-0.09847519,-0.049162142,-0.049162142,0.094010636,0.11371708,0.88707674,0.10207671,-0.100716226,-0.08282674,-1.5684423,0.0015577078,0.027684376,0.027655154,0.032357328,0.032357328,0.34080848,0.34603283,0.9557358,0.17073578,0.31457284,0.3227866,-1.4046115,0.16538858,0.19073565,0.19194767,0.053553734,0.053553734,0.09734283,0.09427999,0.8316935,0.046693444,-0.014467312,-0.0014298833,-1.559542,0.010458112
33,0.66,0.105000004,0.0,0.0,0.0,0.0,0.0,0.0,0.0,-1.0,0.15,0.0,0.0,0.05445321,-0.13314569,-0.06588793,-0.049162142,0.10207671,0.0015577078,0.032357328,0.17073578,0.16538858,0.053553734,0.046693444,0.010458112,-0.220221,0.24580505,0.034979112,-0.09147196,0.3655749,0.035736762,0.27404314,-0.18433395,0.08421793,-0.027249083,-0.51445574,-0.1436977,-0.22975352,0.6171459,0.5933732,0.04452875,-0.90627813,-0.70540655,-0.43349758,0.12865742,-0.10603376,0.69234616,0.2643728,-0.10691931,0.066423416,-0.17378536,-0.055418007,-0.09847519,0.11371708,-0.08282674,0.027655154,0.34603283,0.3227866,0.19194767,0.09427999,-0.0014298833,0.045085017,0.061013617,0.049502727,0.049502727,-0.12694287,-0.16073108,0.6582136,-0.12678641,-0.037621416,-0.049676485,-1.6339098,-0.06390977,-0.10477832,-0.100573555,-0.0509361,-0.0509361,0.08743602,0.107330546,0.8924735,0.10747349,-0.10491461,-0.08946451,-1.5692446,0.00075542927,0.025926955,0.028429717,0.036983587,0.036983587,0.33797976,0.34492117,0.9522886,0.1672886,0.31248653,0.31996742,-1.4031843,0.16681576,0.18816465,0.19272506,0.054405883,0.054405883,0.10097924,0.0939508,0.82192785,0.03692782,-0.017418912,-0.006342446,-1.5627084,0.0072916746
34,0.68,0.105000004,0.0,0.0,0.0,0.0,0.0,0.0,0.0,-1.0,0.15,0.0,0.0,0.049502727,-0.12678641,-0.06390977,-0.0509361,0.10747349,0.00075542927,0.036983587,0.1672886,0.16681576,0.054405883,0.03692782,0.0072916746,-0.24752419,0.31796303,0.098909706,-0.08869778,0.26983786,-0.04011395,0.23131303,-0.17235751,0.07135931,0.04260744,-0.48828185,-0.15831971,-0.18017259,0.58375245,0.57569015,0.054738045,-0.9958504,-0.7077453,-0.47995615,0.16893098,-0.14499171,0.65000266,0.4049018,-0.08824623,0.061013617,-0.16073108,-0.049676485,-0.100573555,0.107330546,-0.08946451,0.028429717,0.34492117,0.31996742,0.19272506,0.0939508,-0.006342446,0.040698867,0.05549959,0.044103675,0.044103675,-0.11945666,-0.14810771,0.6659424,-0.119057655,-0.034541376,-0.044777997,-1.6307019,-0.060701847,-0.10586499,-0.102324024,-0.052628588,-0.052628588,0.080408424,0.100851685,0.8957749,0.110774875,-0.10796537,-0.09561803,-1.5715609,-0.0015608072,0.023108877,0.028582014,0.040652372,0.040652372,0.3349034,0.3431169,0.94915044,0.16415042,0.3105853,0.31713626,-1.4020923,0.16790771,0.18490075,0.19224714,0.05655039,0.05655039,0.1059549,0.09490228,0.8129872,0.027987182,-0.019247798,-0.0108656045,-1.5661236,0.0038764477
35,0.7000000000000001,0.105000004,0.0,0.0,0.0,0.0,0.0,0.0,0.0,-1.0,0.15,0.0,0.0,0.044103675,-0.119057655,-0.060701847,-0.052628588,0.110774875,-0.0015608072,0.040652372,0.16415042,0.16790771,0.05655039,0.027987182,0.0038764477,-0.26995265,0.38643703,0.16039737,-0.08462436,0.1650697,-0.11581135,0.18343925,-0.1569079,0.054595158,0.107225366,-0.44703045,-0.17076296,-0.12668572,0.5268428,0.53280604,0.0657774,-1.0481197,-0.6820655,-0.51350147,0.19698231,-0.17673072,0.5795582,0.5349385,-0.06356719,0.05549959,-0.14810771,-0.044777997,-0.102324024,0.100851685,-0.09561803,0.028582014,0.3431169,0.31713626,0.19224714,0.09490228,-0.0108656045,0.037030473,0.05002339,0.03836363,0.03836363,-0.114036985,-0.1365807,0.67490923,-0.11009079,-0.031531148,-0.04103104,-1.6263684,-0.05636835,-0.10686879,-0.103577405,-0.054209575,-0.054209575,0.07248896,0.094010636,0.8968706,0.11187059,-0.10993042,-0.100716226,-1.5753227,-0.005322695,0.019421138,0.027684376,0.043279793,0.043279793,0.33162045,0.34080848,0.9463693,0.16136926,0.30859017,0.31457284,-1.401395,0.16860509,0.18102832,0.19073565,0.05982983,0.05982983,0.11232766,0.09734283,0.8051555,0.02015549,-0.020055367,-0.014467312,-1.5697236,0.00027644634
36,0.72,0.105000004,0.0,0.0,0.0,0.0,0.0,0.0,0.0,-1.0,0.15,0.0,0.0,0.03836363,-0.11009079,-0.05636835,-0.054209575,0.11187059,-0.005322695,0.043279793,0.16136926,0.16860509,0.05982983,0.02015549,0.00027644634,-0.28700218,0.44834286,0.21667555,-0.07904933,0.054784887,-0.18809637,0.13137099,-0.13905637,0.034871303,0.16397199,-0.39158416,-0.18000092,-0.07012987,0.44463557,0.46530685,0.07825862,-1.0652372,-0.6265176,-0.5366872,0.21408805,-0.19853458,0.48662192,0.65204704,-0.0301606,0.05002339,-0.1365807,-0.04103104,-0.103577405,0.094010636,-0.100716226,0.027684376,0.34080848,0.31457284,0.19073565,0.09734283,-0.014467312,0.034431227,0.045085017,0.032404315,0.032404315,-0.11057135,-0.12694287,0.6849196,-0.10008043,-0.028396435,-0.037621416,-1.6210498,-0.05104971,-0.10776524,-0.10477832,-0.05565326,-0.05565326,0.06342919,0.08743602,0.8957306,0.11073059,-0.11097931,-0.10491461,-1.5804049,-0.010404825,0.015019752,0.025926955,0.04480572,0.04480572,0.32803318,0.33797976,0.9439711,0.15897107,0.30647868,0.31248653,-1.4011279,0.16887212,0.17655891,0.18816465,0.064041376,0.064041376,0.120325364,0.10097924,0.7986861,0.013686061,-0.019966071,-0.017418912,-1.5734311,-0.0034310818
37,0.74,0.105000004,0.0,0.0,0.0,0.0,0.0,0.0,0.0,-1.0,0.15,0.0,0.0,0.032404315,-0.10008043,-0.05104971,-0.05565326,0.11073059,-0.010404825,0.04480572,0.15897107,0.16887212,0.064041376,0.013686061,-0.0034310818,-0.29796585,0.50051665,0.26593393,-0.0721842,-0.05699843,-0.25410697,0.07629633,-0.11991054,0.013348725,0.21057738,-0.32347035,-0.18537827,-0.008805966,0.33548558,0.3828564,0.08831769,-1.0437015,-0.5457866,-0.54762405,0.22025648,-0.20873697,0.3753665,0.7505919,0.00823555,0.045085017,-0.12694287,-0.037621416,-0.10477832,0.08743602,-0.10491461,0.025926955,0.33797976,0.31248653,0.18816465,0.10097924,-0.017418912,0.032977123,0.040698867,0.026357207,0.026357207,-0.10875992,-0.11945666,0.6957207,-0.08927935,-0.025399096,-0.034541376,-1.6149161,-0.044916034,-0.10827193,-0.10586499,-0.056937695,-0.056937695,0.052646298,0.080408424,0.8923908,0.10739076,-0.11121794,-0.10796537,-1.5866274,-0.016627312,0.0099662095,0.023108877,0.04519131,0.04519131,0.32424727,0.3349034,0.94196415,0.15696412,0.3041124,0.3105853,-1.4013089,0.16869116,0.17195024,0.18490075,0.068951435,0.068951435,0.13011387,0.1059549,0.7937975,0.008797467,-0.018967738,-0.019247798,-1.5771515,-0.0071514845
38,0.76,0.105000004,0.0,0.0,0.0,0.0,0.0,0.0,0.0,-1.0,0.15,0.0,0.0,0.026357207,-0.08927935,-0.044916034,-0.056937695,0.10739076,-0.016627312,0.04519131,0.15696412,0.16869116,0.068951435,0.008797467,-0.0071514845,-0.30235538,0.5400542,0.30668366,-0.06422176,-0.16699068,-0.31112626,0.019279461,-0.100346036,-0.009045891,0.24550292,-0.24443063,-0.18601784,0.055053312,0.20278935,0.28898376,0.0961941,-0.99148923,-0.44212365,-0.5478297,0.21797392,-0.2098535,0.25323153,0.8290949,0.053450514,0.040698867,-0.11945666,-0.034541376,-0.10586499,0.080408424,-0.10796537,0.023108877,0.3349034,0.3105853,0.18490075,0.1059549,-0.019247798,0.03310392,0.037030473,0.020361513,0.020361513,-0.10864151,-0.114036985,0.707014,-0.077986,-0.02269984,-0.031531148,-1.6081563,-0.03815627,-0.1081886,-0.10686879,-0.0580458,-0.0580458,0.040245425,0.07248896,0.88694125,0.10194123,-0.110776775,-0.10993042,-1.5937656,-0.023765564,0.004288122,0.019421138,0.044422235,0.044422235,0.3202243,0.33162045,0.94034064,0.15534061,0.30150923,0.30859017,-1.4019414,0.16805863,0.1672914,0.18102832,0.074306,0.074306,0.14167124,0.11232766,0.790669,0.0056689978,-0.017281776,-0.020055367,-1.5807779,-0.010777831
39,0.78,0.105000004,0.0,0.0,0.0,0.0,0.0,0.0,0.0,-1.0,0.15,0.0,0.0,0.020361513,-0.077986,-0.03815627,-0.0580458,0.10194123,-0.023765564,0.044422235,0.15534061,0.16805863,0.074306,0.0056689978,-0.010777831,-0.29978475,0.56466883,0.33799025,-0.055405393,-0.27247524,-0.35691068,-0.0384537,-0.08117497,-0.031627312,0.26772812,-0.1564229,-0.1813188,0.120351955,0.05314531,0.18925644,0.10148521,-0.9149108,-0.32073975,-0.5361598,0.20810132,-0.20440309,0.12546657,0.886129,0.10266235,0.037030473,-0.114036985,-0.031531148,-0.10686879,0.07248896,-0.10993042,0.019421138,0.33162045,0.30859017,0.18102832,0.11232766,-0.020055367,0.035126716,0.034431227,0.014564933,0.014564933,-0.110285886,-0.11057135,0.71846914,-0.06653088,-0.020623438,-0.028396435,-1.6009679,-0.030967832,-0.10722563,-0.10776524,-0.05896528,-0.05896528,0.026556905,0.06342919,0.87951696,0.09451693,-0.10960465,-0.11097931,-1.6015621,-0.03156209,-0.0019630939,0.015019752,0.04251042,0.04251042,0.31596148,0.32803318,0.93907595,0.15407592,0.29874143,0.30647868,-1.4030166,0.16698349,0.16271833,0.17655891,0.07983998,0.07983998,0.15474631,0.120325364,0.7894408,0.0044407845,-0.014889022,-0.019966071,-1.5841975,-0.014197469
40,0.8,0.105000004,0.0,0.0,0.0,0.0,0.0,0.0,0.0,-1.0,0.15,0.0,0.0,0.014564933,-0.06653088,-0.030967832,-0.05896528,0.09451693,-0.03156209,0.04251042,0.15407592,0.16698349,0.07983998,0.0044407845,-0.014197469,-0.28982896,0.5727559,0.35942367,-0.04597404,-0.37121406,-0.3898237,-0.095590785,-0.063234635,-0.053756766,0.27669924,-0.061411895,-0.17098123,0.18732536,-0.10645487,0.08860253,0.104309574,-0.81922996,-0.18792926,-0.51221335,0.19066826,-0.19302747,-0.0033180476,0.922256,0.15292111,0.034431227,-0.11057135,-0.028396435,-0.10776524,0.06342919,-0.11097931,0.015019752,0.32803318,0.30647868,0.17655891,0.120325364,-0.019966071,0.039336614,0.032977123,0.00911974,0.00911974,-0.11369356,-0.10875992,0.7297403,-0.055259705,-0.019454189,-0.025399096,-1.5935543,-0.023554206,-0.10523634,-0.10827193,-0.05968425,-0.05968425,0.011910286,0.052646298,0.8702817,0.08528167,-0.107576035,-0.11121794,-1.6097383,-0.039738297,-0.008564174,0.0099662095,0.039493322,0.039493322,0.31147978,0.32424727,0.938132,0.15313196,0.29591155,0.3041124,-1.4045156,0.16548443,0.15836407,0.17195024,0.08529359,0.08529359,0.16888057,0.13011387,0.7902137,0.005213678,-0.0118684005,-0.018967738,-1.5872953,-0.017295241
41,0.8200000000000001,0.105000004,0.0,0.0,0.0,0.0,0.0,0.0,0.0,-1.0,0.15,0.0,0.0,0.00911974,-0.055259705,-0.023554206,-0.05968425,0.08528167,-0.039738297,0.039493322,0.15313196,0.16548443,0.08529359,0.005213678,-0.017295241,-0.2722597,0.5635596,0.37068164,-0.03594843,-0.46176344,-0.40880755,-0.15085495,-0.047196582,-0.07495256,0.2726805,0.038644515,-0.15489033,0.254031,-0.26770356,-0.011667192,0.10674681,-0.7124548,-0.049527265,-0.476736,0.16746482,-0.17737511,-0.12543581,0.9381696,0.20242801,0.032977123,-0.10875992,-0.025399096,-0.10827193,0.052646298,-0.11121794,0.0099662095,0.32424727,0.3041124,0.17195024,0.13011387,-0.018967738,0.04635329,0.03310392,0.0041846363,0.0041846363,-0.11909989,-0.10864151,0.740478,-0.044522047,-0.019410543,-0.02269984,-1.5861207,-0.016120672,-0.10249813,-0.1081886,-0.060188394,-0.060188394,-0.0026042946,0.040245425,0.8594231,0.074423075,-0.10440617,-0.110776775,-1.6180065,-0.048006415,-0.0153252855,0.004288122,0.035431903,0.035431903,0.30661958,0.3202243,0.93745863,0.15245861,0.29313278,0.30150923,-1.406411,0.163589,0.1540177,0.1672914,0.09042179,0.09042179,0.1833822,0.14167124,0.79304785,0.008047819,-0.0084321555,-0.017281776,-1.5899613,-0.019961238
42,0.84,0.105000004,0.0,0.0,0.0,0.0,0.0,0.0,0.0,-1.0,0.15,0.0,0.0,0.0041846363,-0.044522047,-0.016120672,-0.060188394,0.074423075,-0.048006415,0.035431903,0.15245861,0.163589,0.09042179,0.008047819,-0.019961238,-0.24675517,0.53688395,0.37167442,-0.025207087,-0.5429296,-0.41340724,-0.20307101,-0.033668466,-0.094772704,0.25640985,0.14170744,-0.13329884,0.3212548,-0.42522126,-0.10950512,0.11010905,-0.59734106,0.08859296,-0.43106994,0.13929078,-0.15796453,-0.23662233,0.9337516,0.24777508,0.03310392,-0.10864151,-0.02269984,-0.1081886,0.040245425,-0.110776775,0.004288122,0.3202243,0.30150923,0.1672914,0.14167124,-0.017281776,0.0564062,0.035126716,-7.559266e-05,-7.559266e-05,-0.12670839,-0.110285886,0.7503389,-0.034661114,-0.020721741,-0.020623438,-1.578873,-0.008872986,-0.099279836,-0.10722563,-0.06045691,-0.06045691,-0.016218398,0.026556905,0.8471508,0.062150776,-0.099969916,-0.10960465,-1.6260787,-0.056078672,-0.022040248,-0.0019630939,0.030408323,0.030408323,0.30148837,0.31596148,0.9369956,0.1519956,0.29032704,0.29874143,-1.4086667,0.16133332,0.14963295,0.16271833,0.095003575,0.095003575,0.19754021,0.15474631,0.7979587,0.012958646,-0.0044894046,-0.014889022,-1.5920935,-0.022093415
43,0.86,0.105000004,0.0,0.0,0.0,0.0,0.0,0.0,0.0,-1.0,0.15,0.0,0.0,-7.559266e-05,-0.034661114,-0.008872986,-0.06045691,0.062150776,-0.056078672,0.030408323,0.1519956,0.16133332,0.095003575,0.012958646,-0.022093415,-0.21301146,0.49304634,0.362385,-0.013425804,-0.61361456,-0.4036103,-0.25117898,-0.023149632,-0.112783395,0.22908916,0.24554259,-0.106607124,0.38872895,-0.5742324,-0.20421228,0.11621843,-0.47515035,0.22222713,-0.3766484,0.10733707,-0.13501075,-0.33285517,0.90786076,0.2876862,0.035126716,-0.110285886,-0.020623438,-0.10722563,0.026556905,-0.10960465,-0.0019630939,0.31596148,0.29874143,0.16271833,0.15474631,-0.014889022,0.069180064,0.039336614,-0.0034910054,-0.0034910054,-0.13647044,-0.11369356,0.75899684,-0.026003182,-0.023472585,-0.019454189,-1.572015,-0.0020149946,-0.09576729,-0.10523634,-0.06046116,-0.06046116,-0.028107379,0.011910286,0.83369386,0.048693836,-0.09438629,-0.107576035,-1.633674,-0.06367397,-0.028502632,-0.008564174,0.024525829,0.024525829,0.29613677,0.31147978,0.9366756,0.15167558,0.28739706,0.29591155,-1.4112377,0.15876234,0.14521398,0.15836407,0.09884998,0.09884998,0.21064475,0.16888057,0.8049114,0.019911349,-9.690906e-06,-0.0118684005,-1.593602,-0.02360189
44,0.88,0.105000004,0.0,0.0,0.0,0.0,0.0,0.0,0.0,-1.0,0.15,0.0,0.0,-0.0034910054,-0.026003182,-0.0020149946,-0.06046116,0.048693836,-0.06367397,0.024525829,0.15167558,0.15876234,0.09884998,0.019911349,-0.02360189,-0.17077065,0.43289694,0.34289914,-0.00021252874,-0.6728468,-0.3797648,-0.2941247,-0.016001264,-0.1285483,0.19232023,0.3476361,-0.075422086,0.45593435,-0.70994633,-0.29484358,0.12559412,-0.34739542,0.3480569,-0.3138643,0.07302977,-0.10863082,-0.41084725,0.8586451,0.32039347,0.039336614,-0.11369356,-0.019454189,-0.10523634,0.011910286,-0.107576035,-0.008564174,0.31147978,0.29591155,0.15836407,0.16888057,-0.0118684005,0.08408756,0.04635329,-0.0058822827,-0.0058822827,-0.14832553,-0.11909989,0.7661484,-0.018851638,-0.027873002,-0.019410543,-1.5657461,0.0042539835,-0.092445016,-0.10249813,-0.060170412,-0.060170412,-0.03740922,-0.0026042946,0.8193099,0.034309864,-0.08791413,-0.10440617,-1.6405225,-0.07052243,-0.034275413,-0.0153252855,0.01790743,0.01790743,0.29105917,0.30661958,0.9364239,0.15142387,0.28417796,0.29313278,-1.4140704,0.15592968,0.14067997,0.1540177,0.10180515,0.10180515,0.2217627,0.1833822,0.8138134,0.028813362,0.005055862,-0.0084321555,-1.5944146,-0.02441454
45,0.9,0.105000004,0.0,0.0,0.0,0.0,0.0,0.0,0.0,-1.0,0.15,0.0,0.0,-0.0058822827,-0.018851638,0.0042539835,-0.060170412,0.034309864,-0.07052243,0.01790743,0.15142387,0.15592968,0.10180515,0.028813362,-0.02441454,-0.11956387,0.3575773,0.31344968,0.01453745,-0.719198,-0.34242308,-0.33092,-0.012586512,-0.14163439,0.14775841,0.44510186,-0.04063368,0.52472484,-0.8299613,-0.38007346,0.13547283,-0.2101928,0.46432143,-0.24366112,0.03646751,-0.0789955,-0.47062,0.7834925,0.34349227,0.04635329,-0.11909989,-0.019410543,-0.10249813,-0.0026042946,-0.10440617,-0.0153252855,0.30661958,0.29313278,0.1540177,0.1833822,-0.0084321555,0.100451164,0.0564062,-0.007063264,-0.007063264,-0.1619986,-0.12670839,0.7715183,-0.013481736,-0.034193,-0.020721741,-1.5602582,0.009741902,-0.08954604,-0.099279836,-0.059557226,-0.059557226,-0.04366136,-0.016218398,0.80428773,0.019287705,-0.08067087,-0.099969916,-1.6463714,-0.07637131,-0.039290223,-0.022040248,0.010694268,0.010694268,0.28669623,0.30148837,0.936163,0.15116298,0.2811117,0.29032704,-1.4171059,0.15289414,0.13662718,0.14963295,0.103748925,0.103748925,0.22998576,0.19754021,0.82450897,0.03950894,0.010865891,-0.0044894046,-1.5944772,-0.024477124
46,0.92,0.105000004,0.0,0.0,0.0,0.0,0.0,0.0,0.0,-1.0,0.15,0.0,0.0,-0.007063264,-0.013481736,0.009741902,-0.059557226,0.019287705,-0.07637131,0.010694268,0.15116298,0.15289414,0.103748925,0.03950894,-0.024477124,-0.05904907,0.26849434,0.2743935,0.030659368,-0.7511086,-0.29244193,-0.36065808,-0.013044661,-0.1517785,0.09718861,0.5347775,-0.0031302683,0.59378636,-0.9322065,-0.45884055,0.14334723,-0.06279638,0.56840307,-0.16710123,-0.0001781851,-0.0478004,-0.51151353,0.68078953,0.35728374,0.0564062,-0.12670839,-0.020721741,-0.099279836,-0.016218398,-0.099969916,-0.022040248,0.30148837,0.29032704,0.14963295,0.19754021,-0.0044894046,0.11743034,0.069180064,-0.006852291,-0.006852291,-0.17697567,-0.13647044,0.7748676,-0.010132432,-0.042416446,-0.023472585,-1.555732,0.014268041,-0.08703454,-0.09576729,-0.058601145,-0.058601145,-0.046534944,-0.028107379,0.7889497,0.003949702,-0.07285338,-0.09438629,-1.6509941,-0.08099401,-0.04317487,-0.028502632,0.0030435063,0.0030435063,0.28305623,0.29613677,0.9358161,0.15081608,0.27820158,0.28739706,-1.4202839,0.14971614,0.13301276,0.14521398,0.10459897,0.10459897,0.23505677,0.21064475,0.8367758,0.051775753,0.01732085,-9.690906e-06,-1.5937536,-0.023753524
47,0.9400000000000001,0.105000004,0.0,0.0,0.0,0.0,0.0,0.0,0.0,-1.0,0.15,0.0,0.0,-0.006852291,-0.010132432,0.014268041,-0.058601145,0.003949702,-0.08099401,0.0030435063,0.15081608,0.14971614,0.10459897,0.051775753,-0.023753524,0.010548659,0.16746405,0.22630875,0.04780413,-0.7668994,-0.2311348,-0.3825381,-0.01734381,-0.15890248,0.04250208,0.61334014,0.036181822,0.6578028,-1.0133766,-0.5292234,0.14757793,0.09539523,0.65638083,-0.08544811,-0.03529153,-0.016829813,-0.5331228,0.55007565,0.36188728,0.069180064,-0.13647044,-0.023472585,-0.09576729,-0.028107379,-0.09438629,-0.028502632,0.29613677,0.28739706,0.14521398,0.21064475,-9.690906e-06,0.13292228,0.08408756,-0.005087192,-0.005087192,-0.1912871,-0.14832553,0.77600044,-0.008999586,-0.052195333,-0.027873002,-1.5523347,0.017665386,-0.08454676,-0.092445016,-0.05729675,-0.05729675,-0.04587454,-0.03740922,0.7736537,-0.01134634,-0.06518131,-0.08791413,-1.6542004,-0.08420038,-0.045546737,-0.034275413,-0.0048705162,-0.0048705162,0.27957836,0.29105917,0.9353174,0.15031737,0.27540627,0.28417796,-1.4235471,0.1464529,0.13002202,0.14067997,0.10431022,0.10431022,0.23729704,0.2217627,0.85032064,0.06532061,0.024229059,0.005055862,-1.5922251,-0.022225022
48,0.96,0.105000004,0.0,0.0,0.0,0.0,0.0,0.0,0.0,-1.0,0.15,0.0,0.0,-0.005087192,-0.008999586,0.017665386,-0.05729675,-0.01134634,-0.08420038,-0.0048705162,0.15031737,0.1464529,0.10431022,0.06532061,-0.022225022,0.088254936,0.056642286,0.16986603,0.06521974,-0.7648013,-0.16031903,-0.39570114,-0.024935042,-0.16316077,-0.0144374035,0.67724204,0.07642309,0.7099681,-1.0709323,-0.5905635,0.144578,0.2646686,0.72405183,0.0015755296,-0.064137325,0.011758077,-0.53630507,0.39035046,0.35783607,0.08408756,-0.14832553,-0.027873002,-0.092445016,-0.03740922,-0.08791413,-0.034275413,0.29105917,0.28417796,0.14067997,0.2217627,0.005055862,0.14539093,0.100451164,-0.0016403396,-0.0016403396,-0.20327964,-0.1619986,0.77477264,-0.010227382,-0.06271549,-0.034193,-1.5502195,0.019780517,-0.08180982,-0.08954604,-0.055656813,-0.055656813,-0.0421209,-0.04366136,0.758787,-0.02621305,-0.05825974,-0.08067087,-1.6558428,-0.08584273,-0.046239514,-0.039290223,-0.012861625,-0.012861625,0.27618408,0.28669623,0.9346206,0.1496206,0.27266252,0.2811117,-1.4268359,0.14316416,0.12766072,0.13662718,0.10288402,0.10288402,0.23705734,0.22998576,0.86477774,0.07977772,0.031414192,0.010865891,-1.589888,-0.019887924
49,0.98,0.105000004,0.0,0.0,0.0,0.0,0.0,0.0,0.0,-1.0,0.15,0.0,0.0,-0.0016403396,-0.010227382,0.019780517,-0.055656813,-0.02621305,-0.08584273,-0.012861625,0.1496206,0.14316416,0.10288402,0.07977772,-0.019887924,0.17234263,-0.061389394,0.105753675,0.08199672,-0.7433362,-0.08211914,-0.39955544,-0.034839127,-0.16443801,-0.07131014,0.7228555,0.11685471,0.74368346,-1.1016562,-0.6429094,0.13314232,0.44178605,0.7691766,0.09124194,-0.082940355,0.040486217,-0.51747173,0.20201448,0.34670684,0.100451164,-0.1619986,-0.034193,-0.08954604,-0.04366136,-0.08067087,-0.039290223,0.28669623,0.2811117,0.13662718,0.22998576,0.010865891,0.15389772,0.11743034,0.0035655468,0.0035655468,-0.21205884,-0.17697567,0.7711019,-0.013898134,-0.07310889,-0.042416446,-1.5495218,0.020478249,-0.07881968,-0.08703454,-0.05371041,-0.05371041,-0.035717297,-0.046534944,0.74475783,-0.040242195,-0.052436873,-0.07285338,-1.6558217,-0.08582163,-0.045057356,-0.04317487,-0.020732405,-0.020732405,0.27286267,0.28305623,0.9336997,0.1486997,0.26993224,0.27820158,-1.4300902,0.13990986,0.1258807,0.13301276,0.10036504,0.10036504,0.23431374,0.23505677,0.87972003,0.094720006,0.038529757,0.01732085,-1.5867542,-0.01675415
50,1.0,0.105000004,0.0,0.0,0.0,0.0,0.0,0.0,0.0,-1.0,0.15,0.0,0.0,0.0035655468,-0.013898134,0.020478249,-0.05371041,-0.040242195,-0.08582163,-0.020732405,0.1486997,0.13990986,0.10036504,0.094720006,-0.01675415,0.26029432,-0.18353659,0.034884095,0.09732015,-0.7014564,0.0010525212,-0.39353898,-0.04604511,-0.16271749,-0.12594885,0.74711376,0.15668935,0.75224674,-1.1016665,-0.6844247,0.11443015,0.62232417,0.7897932,0.18308899,-0.091722585,0.06841357,-0.4787642,-0.008622909,0.3282887,0.11743034,-0.17697567,-0.042416446,-0.08703454,-0.046534944,-0.07285338,-0.04317487,0.28305623,0.27820158,0.13301276,0.23505677,0.01732085,0.15792763,0.13292228,0.010523798,0.010523798,-0.2172837,-0.1912871,0.76499885,-0.020001173,-0.08299378,-0.052195333,-1.5503495,0.019650578,-0.07558906,-0.08454676,-0.05149534,-0.05149534,-0.026798662,-0.04587454,0.7319839,-0.053016126,-0.047824092,-0.06518131,-1.6540983,-0.08409822,-0.041978545,-0.045546737,-0.028274957,-0.028274957,0.2694781,0.27957836,0.93253976,0.14753973,0.26728684,0.27540627,-1.4332525,0.1367476,0.12477773,0.13002202,0.09684069,0.09684069,0.22917832,0.23729704,0.8946809,0.10968089,0.045398686,0.024229059,-1.5828533,-0.012853265
51,1.02,0.105000004,0.0,0.0,0.0,0.0,0.0,0.0,0.0,-1.0,0.15,0.0,0.0,0.010523798,-0.020001173,0.019650578,-0.05149534,-0.053016126,-0.08409822,-0.028274957,0.14753973,0.1367476,0.09684069,0.10968089,-0.012853265,0.34791255,-0.30515248,-0.041381553,0.11075339,-0.6386958,0.086169496,-0.3771276,-0.05799971,-0.15811232,-0.17621785,0.7480437,0.19504476,0.7210412,-1.0577023,-0.71128094,0.092174664,0.8006091,0.78103673,0.2765892,-0.09500928,0.094345465,-0.42116594,-0.23053965,0.30196226,0.13292228,-0.1912871,-0.052195333,-0.08454676,-0.04587454,-0.06518131,-0.045546737,0.27957836,0.27540627,0.13002202,0.23729704,0.024229059,0.15678465,0.14539093,0.019123629,0.019123629,-0.21788108,-0.20327964,0.7565885,-0.028411508,-0.09182265,-0.06271549,-1.552768,0.01723206,-0.071964666,-0.08180982,-0.04905213,-0.04905213,-0.015058372,-0.0421209,0.72087127,-0.06412876,-0.04500845,-0.05825974,-1.6507021,-0.08070207,-0.03727264,-0.046239514,-0.035275415,-0.035275415,0.2657391,0.27618408,0.9311354,0.14613539,0.26483148,0.27266252,-1.4362699,0.13373017,0.12470307,0.12766072,0.09243622,0.09243622,0.22166313,0.23705734,0.9091769,0.12417686,0.051853154,0.031414192,-1.5782335,-0.008233428
52,1.04,0.105000004,0.0,0.0,0.0,0.0,0.0,0.0,0.0,-1.0,0.15,0.0,0.0,0.019123629,-0.028411508,0.01723206,-0.04905213,-0.06412876,-0.08070207,-0.035275415,0.14613539,0.13373017,0.09243622,0.12417686,-0.008233428,0.4299916,-0.42051667,-0.12092582,0.122160405,-0.55563194,0.16981038,-0.35002288,-0.07021604,-0.15087295,-0.22022349,0.72479796,0.23098916,0.6421535,-0.9613945,-0.7169743,0.069275334,0.96690863,0.74025005,0.36950198,-0.093585566,0.11705291,-0.34758192,-0.45277014,0.26755443,0.14539093,-0.20327964,-0.06271549,-0.08180982,-0.0421209,-0.05825974,-0.046239514,0.27618408,0.27266252,0.12766072,0.23705734,0.031414192,0.15050721,0.15389772,0.029143877,0.029143877,-0.21397492,-0.21205884,0.7461149,-0.038885117,-0.099067695,-0.07310889,-1.5567868,0.013213277,-0.06818859,-0.07881968,-0.04642253,-0.04642253,-0.00075346604,-0.035717297,0.7117949,-0.07320511,-0.04423599,-0.052436873,-1.6457323,-0.07573223,-0.031110946,-0.045057356,-0.041517954,-0.041517954,0.26179078,0.27286267,0.9294908,0.14449078,0.26264456,0.26993224,-1.4390969,0.13090312,0.12611203,0.1258807,0.0873081,0.0873081,0.21183647,0.23431374,0.9227234,0.13772339,0.05752973,0.038529757,-1.5729648,-0.002964735
53,1.06,0.105000004,0.0,0.0,0.0,0.0,0.0,0.0,0.0,-1.0,0.15,0.0,0.0,0.029143877,-0.038885117,0.013213277,-0.04642253,-0.07320511,-0.07573223,-0.041517954,0.14449078,0.13090312,0.0873081,0.13772339,-0.002964735,0.5010124,-0.52367955,-0.20093796,0.13148005,-0.45381814,0.2484937,-0.31212696,-0.08223172,-0.14135176,-0.2564057,0.6773261,0.2634371,0.5143735,-0.8124696,-0.6958147,0.046463035,1.1124529,0.66797423,0.4598919,-0.08783521,0.13568404,-0.26168114,-0.6677274,0.2239562,0.15389772,-0.21205884,-0.07310889,-0.07881968,-0.035717297,-0.052436873,-0.045057356,0.27286267,0.26993224,0.1258807,0.23431374,0.038529757,0.1397889,0.15792763,0.04025735,0.04025735,-0.20669284,-0.2172837,0.7339328,-0.051067233,-0.10438912,-0.08299378,-1.5623553,0.0076447725,-0.06476186,-0.07558906,-0.043648314,-0.043648314,0.015567701,-0.026798662,0.7050862,-0.079913855,-0.045313314,-0.047824092,-1.6393527,-0.06935263,-0.023767576,-0.041978545,-0.04679145,-0.04679145,0.25801575,0.2694781,0.92761636,0.14261633,0.2609696,0.26728684,-1.441695,0.12830508,0.12940069,0.12477773,0.08163898,0.08163898,0.19976304,0.22917832,0.9348523,0.14985228,0.062126223,0.045398686,-1.5671382,0.0028618574
54,1.08,0.105000004,0.0,0.0,0.0,0.0,0.0,0.0,0.0,-1.0,0.15,0.0,0.0,0.04025735,-0.051067233,0.0076447725,-0.043648314,-0.079913855,-0.06935263,-0.04679145,0.14261633,0.12830508,0.08163898,0.14985228,0.0028618574,0.55567366,-0.60910636,-0.2784273,0.13871086,-0.33543795,0.31898126,-0.26367474,-0.09372292,-0.12989976,-0.2834562,0.606445,0.29132777,0.34146664,-0.6166409,-0.64705265,0.024305105,1.2319518,0.5675582,0.5446722,-0.07917519,0.15036285,-0.1662737,-0.8674324,0.17173609,0.15792763,-0.2172837,-0.08299378,-0.07558906,-0.026798662,-0.047824092,-0.041978545,0.2694781,0.26728684,0.12477773,0.22917832,0.045398686,0.1257198,0.15678465,0.052035466,0.052035466,-0.19712189,-0.21788108,0.7205078,-0.064492226,-0.107371874,-0.09182265,-1.5693592,0.00064086914,-0.06215067,-0.071964666,-0.040767495,-0.040767495,0.033130776,-0.015058372,0.7010292,-0.083970845,-0.04807213,-0.04500845,-1.6317929,-0.06179285,-0.015469499,-0.03727264,-0.050900303,-0.050900303,0.25492758,0.2657391,0.9255237,0.14052367,0.2598644,0.26483148,-1.4440315,0.12596858,0.13474114,0.12470307,0.07563611,0.07563611,0.18540417,0.22166313,0.9451261,0.16012609,0.0653393,0.051853154,-1.5608649,0.009135127
55,1.1,0.105000004,0.0,0.0,0.0,0.0,0.0,0.0,0.0,-1.0,0.15,0.0,0.0,0.052035466,-0.064492226,0.00064086914,-0.040767495,-0.083970845,-0.06179285,-0.050900303,0.14052367,0.12596858,0.07563611,0.16012609,0.009135127,0.58890593,-0.6712483,-0.35019568,0.14404088,-0.20285061,0.37798965,-0.20544279,-0.10463163,-0.11682766,-0.3001433,0.51368964,0.31366497,0.12725683,-0.3755489,-0.5697371,0.004542142,1.3244916,0.43962342,0.6189451,-0.07015027,0.16156897,-0.06248157,-1.0455573,0.11183093,0.15678465,-0.21788108,-0.09182265,-0.071964666,-0.015058372,-0.04500845,-0.03727264,0.2657391,0.26483148,0.12470307,0.22166313,0.051853154,0.109259985,0.15050721,0.06396766,0.06396766,-0.18639213,-0.21397492,0.70639426,-0.07860577,-0.10776972,-0.099067695,-1.5776185,-0.0076184273,-0.06066851,-0.06818859,-0.037817176,-0.037817176,0.05132937,-0.00075346604,0.69985,-0.08515,-0.052069947,-0.04423599,-1.6233416,-0.053341508,-0.0063546747,-0.031110946,-0.053672682,-0.053672682,0.25307828,0.26179078,0.9232276,0.13822758,0.25912037,0.26264456,-1.4460799,0.1239202,0.14221993,0.12611203,0.06953082,0.06953082,0.16836469,0.21183647,0.9531516,0.16815156,0.06676494,0.05752973,-1.5542772,0.01572287
56,1.12,0.105000004,0.0,0.0,0.0,0.0,0.0,0.0,0.0,-1.0,0.15,0.0,0.0,0.06396766,-0.07860577,-0.0076184273,-0.037817176,-0.08515,-0.053341508,-0.053672682,0.13822758,0.1239202,0.06953082,0.16815156,0.01572287,0.59660965,-0.7056783,-0.41296542,0.14751595,-0.058957547,0.42256996,-0.13861892,-0.114805326,-0.102420375,-0.3052643,0.4012726,0.32938927,-0.117729686,-0.10126815,-0.46416396,-0.014191896,1.3858507,0.2882916,0.6791848,-0.05991263,0.1696432,0.049035214,-1.1963695,0.043976925,0.15050721,-0.21397492,-0.099067695,-0.06818859,-0.00075346604,-0.04423599,-0.031110946,0.26179078,0.26264456,0.12611203,0.21183647,0.05752973,0.09207571,0.1397889,0.0754929,0.0754929,-0.17600295,-0.20669284,0.69219464,-0.092805386,-0.10567244,-0.10438912,-1.5868913,-0.016891241,-0.060353782,-0.06476186,-0.034840412,-0.034840412,0.06913307,0.015567701,0.7017037,-0.0832963,-0.056597464,-0.045313314,-1.6143308,-0.044330716,0.0030278862,-0.023767576,-0.0549692,-0.0549692,0.25289074,0.25801575,0.9207513,0.13575125,0.25904718,0.2609696,-1.4478158,0.12218428,0.15180863,0.12940069,0.06357623,0.06357623,0.14873418,0.19976304,0.9585911,0.17359108,0.06631962,0.062126223,-1.5475279,0.022472143
57,1.1400000000000001,0.105000004,0.0,0.0,0.0,0.0,0.0,0.0,0.0,-1.0,0.15,0.0,0.0,0.0754929,-0.092805386,-0.016891241,-0.034840412,-0.0832963,-0.044330716,-0.0549692,0.13575125,0.12218428,0.06357623,0.17359108,0.022472143,0.57626206,-0.7099794,-0.46363902,0.14883815,0.09268446,0.45053717,-0.06482574,-0.12381659,-0.08679597,-0.29772985,0.27197692,0.33746415,-0.37770632,0.18633337,-0.33303416,-0.035067372,1.4109398,0.12151601,0.72177947,-0.04598565,0.17620668,0.16685075,-1.3153412,-0.031277083,0.1397889,-0.20669284,-0.10438912,-0.06476186,0.015567701,-0.045313314,-0.023767576,0.25801575,0.2609696,0.12940069,0.19976304,0.062126223,0.075127095,0.1257198,0.08603763,0.08603763,-0.1661833,-0.19712189,0.67852086,-0.10647917,-0.10115116,-0.107371874,-1.5968778,-0.02687776,-0.060412105,-0.06215067,-0.031892005,-0.031892005,0.0842233,0.033130776,0.70666033,-0.078339696,-0.06155795,-0.04807213,-1.6051211,-0.035121083,0.011724748,-0.015469499,-0.054689385,-0.054689385,0.25465852,0.25492758,0.91813356,0.13313353,0.25941446,0.2598644,-1.449217,0.12078309,0.16346546,0.13474114,0.058040783,0.058040783,0.1279038,0.18540417,0.9611702,0.17617017,0.06423717,0.0653393,-1.5407897,0.029210329
58,1.16,0.105000004,0.0,0.0,0.0,0.0,0.0,0.0,0.0,-1.0,0.15,0.0,0.0,0.08603763,-0.10647917,-0.02687776,-0.031892005,-0.078339696,-0.035121083,-0.054689385,0.13313353,0.12078309,0.058040783,0.17617017,0.029210329,0.52723616,-0.6836893,-0.49932852,0.14742036,0.24782892,0.4604818,0.013990656,-0.13088574,-0.07005955,-0.2767724,0.1289557,0.33690697,-0.63446176,0.46853647,-0.17926602,-0.060643442,1.3945668,-0.052880358,0.7442788,-0.025273496,0.18141496,0.2876628,-1.3999671,-0.11310413,0.1257198,-0.19712189,-0.107371874,-0.06215067,0.033130776,-0.04807213,-0.015469499,0.25492758,0.2598644,0.13474114,0.18540417,0.0653393,0.060027976,0.109259985,0.095050074,0.095050074,-0.1571424,-0.18639213,0.66595584,-0.119044185,-0.094292484,-0.10776972,-1.6072292,-0.03722918,-0.05989952,-0.06066851,-0.029041171,-0.029041171,0.095597535,0.05132937,0.71469724,-0.070302784,-0.06698008,-0.052069947,-1.5960813,-0.026081204,0.019047558,-0.0063546747,-0.052775178,-0.052775178,0.2581388,0.25307828,0.91543573,0.1304357,0.25944993,0.25912037,-1.4502672,0.11973286,0.1759966,0.14221993,0.05320032,0.05320032,0.10770381,0.16836469,0.9606767,0.1756767,0.060464617,0.06676494,-1.534255,0.035745025
59,1.18,0.105000004,0.0,0.0,0.0,0.0,0.0,0.0,0.0,-1.0,0.15,0.0,0.0,0.095050074,-0.119044185,-0.03722918,-0.029041171,-0.070302784,-0.026081204,-0.052775178,0.1304357,0.11973286,0.05320032,0.1756767,0.035745025,0.45062214,-0.6282519,-0.5175735,0.14254175,0.4018445,0.45199552,0.095710404,-0.13489242,-0.052513152,-0.2420231,-0.024672627,0.32673696,-0.87203234,0.7276954,-0.0077042105,-0.091960214,1.3345573,-0.22525771,0.74571025,0.005101657,0.18349458,0.4075659,-1.4515737,-0.2011702,0.109259985,-0.18639213,-0.10776972,-0.06066851,0.05132937,-0.052069947,-0.0063546747,0.25307828,0.25912037,0.14221993,0.16836469,0.06676494,0.048043977,0.09207571,0.1020435,0.1020435,-0.1491887,-0.17600295,0.6550124,-0.1299876,-0.085276805,-0.10567244,-1.6175625,-0.04756248,-0.058971528,-0.060353782,-0.026369222,-0.026369222,0.10366237,0.06913307,0.7256881,-0.059311926,-0.07299539,-0.056597464,-1.5875643,-0.017564297,0.024203092,0.0030278862,-0.04921943,-0.04921943,0.26261422,0.25289074,0.91274506,0.12774503,0.2589219,0.25904718,-1.4509517,0.11904836,0.18809481,0.15180863,0.04932841,0.04932841,0.08944903,0.14873418,0.95696604,0.17196602,0.054967504,0.06631962,-1.5281297,0.041870356
60,1.2,0.105000004,0.0,0.0,0.0,0.0,0.0,0.0,0.0,-1.0,0.15,0.0,0.0,0.1020435,-0.1299876,-0.04756248,-0.026369222,-0.059311926,-0.017564297,-0.04921943,0.12774503,0.11904836,0.04932841,0.17196602,0.041870356,0.34967148,-0.547171,-0.516666,0.13359751,0.54954314,0.4258477,0.17778748,-0.13453236,-0.034222253,-0.19359554,-0.18553434,0.30626383,-1.0709261,0.9453632,0.1739538,-0.12772146,1.2272836,-0.38467488,0.72284025,0.04647131,0.18471557,0.5220123,-1.4688154,-0.29249996,0.09207571,-0.17600295,-0.10567244,-0.060353782,0.06913307,-0.056597464,0.0030278862,0.25289074,0.25904718,0.15180863,0.14873418,0.06631962,0.039512593,0.075127095,0.1066239,0.1066239,-0.14187008,-0.1661833,0.64611685,-0.13888317,-0.07390148,-0.10115116,-1.6274756,-0.057475567,-0.057391185,-0.060412105,-0.023953648,-0.023953648,0.108149365,0.0842233,0.739375,-0.04562503,-0.079875745,-0.06155795,-1.5798961,-0.00989604,0.027309522,0.011724748,-0.04407885,-0.04407885,0.26777792,0.25465852,0.9101756,0.1251756,0.25726184,0.25941446,-1.4512608,0.11873925,0.19860469,0.16346546,0.046687033,0.046687033,0.07423034,0.1279038,0.94998443,0.1649844,0.04794846,0.06423717,-1.5226227,0.047377348
61,1.22,0.105000004,0.0,0.0,0.0,0.0,0.0,0.0,0.0,-1.0,0.15,0.0,0.0,0.1066239,-0.13888317,-0.057475567,-0.023953648,-0.04562503,-0.00989604,-0.04407885,0.1251756,0.11873925,0.046687033,0.1649844,0.047377348,0.22901998,-0.44477898,-0.49565372,0.1207787,0.6843437,0.3834118,0.257029,-0.12847093,-0.015456965,-0.13206886,-0.3490802,0.27534777,-1.2194756,1.1150534,0.35822612,-0.16042782,1.0616148,-0.5258333,0.6705451,0.09869458,0.183216,0.62676555,-1.4419798,-0.3818145,0.075127095,-0.1661833,-0.10115116,-0.060412105,0.0842233,-0.06155795,0.011724748,0.25465852,0.25941446,0.16346546,0.1279038,0.06423717,0.03437497,0.060027976,0.10852376,0.10852376,-0.13459745,-0.1571424,0.63959605,-0.14540398,-0.060151942,-0.094292484,-1.6365625,-0.066562414,-0.055173356,-0.05989952,-0.021850727,-0.021850727,0.10945588,0.095597535,0.7553671,-0.029632926,-0.087862305,-0.06698008,-1.5733663,-0.003366232,0.028943405,0.019047558,-0.037480015,-0.037480015,0.2734733,0.2581388,0.90785927,0.12285924,0.25400004,0.25944993,-1.451203,0.118797064,0.20650363,0.1759966,0.045499686,0.045499686,0.06241247,0.10770381,0.9397957,0.15479565,0.03959838,0.060464617,-1.5179397,0.052060366
62,1.24,0.105000004,0.0,0.0,0.0,0.0,0.0,0.0,0.0,-1.0,0.15,0.0,0.0,0.10852376,-0.14540398,-0.066562414,-0.021850727,-0.029632926,-0.003366232,-0.037480015,0.12285924,0.118797064,0.045499686,0.15479565,0.052060366,0.09499313,-0.32604086,-0.45434403,0.10514599,0.79960454,0.32649076,0.32994175,-0.115817316,0.002893053,-0.05936739,-0.50943816,0.23414832,-1.303653,1.2323449,0.5378314,-0.18215752,0.83910465,-0.64522666,0.58708984,0.15727103,0.17340013,0.70966154,-1.3603809,-0.46632305,0.060027976,-0.1571424,-0.094292484,-0.05989952,0.095597535,-0.06698008,0.019047558,0.2581388,0.25944993,0.1759966,0.10770381,0.060464617,0.03235148,0.048043977,0.107624575,0.107624575,-0.12739432,-0.1491887,0.6356672,-0.14933282,-0.045601077,-0.085276805,-1.6444294,-0.07442939,-0.05271816,-0.058971528,-0.020097274,-0.020097274,0.10804728,0.10366237,0.7731664,-0.011833608,-0.0963737,-0.07299539,-1.5682231,0.0017769337,0.02937074,0.024203092,-0.029624512,-0.029624512,0.27965742,0.26261422,0.9059291,0.12092906,0.2500074,0.2589219,-1.4508067,0.119193316,0.21148647,0.18809481,0.045925234,0.045925234,0.054497145,0.08944903,0.9265941,0.14159405,0.03053146,0.054967504,-1.5142773,0.055722713
63,1.26,0.105000004,0.0,0.0,0.0,0.0,0.0,0.0,0.0,-1.0,0.15,0.0,0.0,0.107624575,-0.14933282,-0.07442939,-0.020097274,-0.011833608,0.0017769337,-0.029624512,0.12092906,0.119193316,0.045925234,0.14159405,0.055722713,-0.044959366,-0.19644336,-0.39334846,0.087672636,0.8899669,0.25715584,0.39277515,-0.09650984,0.019810587,0.02127733,-0.6600801,0.18311825,-1.3151616,1.2940377,0.7053298,-0.19405216,0.5736533,-0.7409722,0.47122937,0.21430393,0.15437655,0.7593161,-1.2198725,-0.5433833,0.048043977,-0.1491887,-0.085276805,-0.058971528,0.10366237,-0.07299539,0.024203092,0.26261422,0.2589219,0.18809481,0.08944903,0.054967504,0.032232337,0.039512593,0.10395856,0.10395856,-0.119508095,-0.14187008,0.6344435,-0.1505565,-0.031230919,-0.07390148,-1.6507038,-0.080703735,-0.050531846,-0.057391185,-0.01870664,-0.01870664,0.10394403,0.108149365,0.7921848,0.0071848035,-0.1048485,-0.079875745,-1.564672,0.005328059,0.029051706,0.027309522,-0.02077685,-0.02077685,0.2860455,0.26777792,0.90451014,0.119510114,0.24555463,0.25726184,-1.4501283,0.119871736,0.21303375,0.19860469,0.04803757,0.04803757,0.05101597,0.07423034,0.91070926,0.12570924,0.021351391,0.04794846,-1.511814,0.058186054
64,1.28,0.105000004,0.0,0.0,0.0,0.0,0.0,0.0,0.0,-1.0,0.15,0.0,0.0,0.10395856,-0.1505565,-0.080703735,-0.01870664,0.0071848035,0.005328059,-0.02077685,0.119510114,0.119871736,0.04803757,0.12570924,0.058186054,-0.18330064,-0.061184794,-0.31371513,0.069531694,0.95092183,0.17755438,0.44238323,-0.07094851,0.033920154,0.105616845,-0.7942423,0.12316469,-1.2555859,1.3045354,0.85690606,-0.1945891,0.2747775,-0.8130318,0.32971412,0.26553577,0.123186186,0.767428,-1.0203841,-0.6089723,0.039512593,-0.14187008,-0.07390148,-0.057391185,0.108149365,-0.079875745,0.027309522,0.26777792,0.25726184,0.19860469,0.07423034,0.04794846,0.032682974,0.03437497,0.09769917,0.09769917,-0.11026866,-0.13459745,0.63594526,-0.14905477,-0.017895065,-0.060151942,-1.6550443,-0.085044265,-0.04910526,-0.055173356,-0.0176697,-0.0176697,0.09736472,0.10945588,0.8117737,0.026773691,-0.113194205,-0.087862305,-1.5628748,0.0071252584,0.028278112,0.028943405,-0.011243614,-0.011243614,0.2921333,0.2734733,0.90371335,0.11871332,0.24092622,0.25400004,-1.4492557,0.12074435,0.21107545,0.20650363,0.051811147,0.051811147,0.051786344,0.06241247,0.8925946,0.10759455,0.012320289,0.03959838,-1.5107023,0.0592978
65,1.3,0.105000004,0.0,0.0,0.0,0.0,0.0,0.0,0.0,-1.0,0.15,0.0,0.0,0.09769917,-0.14905477,-0.085044265,-0.0176697,0.026773691,0.0071252584,-0.011243614,0.11871332,0.12074435,0.051811147,0.10759455,0.0592978,-0.31296933,0.07508692,-0.21702504,0.051847048,0.9794448,0.089861974,0.47666174,-0.039838657,0.043629326,0.1886788,-0.905735,0.055587545,-1.1317023,1.2705534,0.9880043,-0.18459517,-0.042453907,-0.8618332,0.17311423,0.30829233,0.07827537,0.72871125,-0.7693453,-0.65977085,0.03437497,-0.13459745,-0.060151942,-0.055173356,0.10945588,-0.087862305,0.028943405,0.2734733,0.25400004,0.20650363,0.06241247,0.03959838,0.03257148,0.03235148,0.08914401,0.08914401,-0.09891455,-0.12739432,0.64010334,-0.14489669,-0.006444864,-0.045601077,-1.657176,-0.087175965,-0.04860359,-0.05271816,-0.016962666,-0.016962666,0.08798185,0.10804728,0.83125514,0.04625511,-0.12121173,-0.0963737,-1.5629374,0.0070626736,0.026987791,0.02937074,-0.0013573142,-0.0013573142,0.29728296,0.27965742,0.9036321,0.11863208,0.23646541,0.2500074,-1.4482905,0.121709585,0.20573445,0.21148647,0.057121873,0.057121873,0.05655807,0.054497145,0.87281454,0.08781451,0.003652627,0.03053146,-1.5110551,0.05894494
66,1.32,0.105000004,0.0,0.0,0.0,0.0,0.0,0.0,0.0,-1.0,0.15,0.0,0.0,0.08914401,-0.14489669,-0.087175965,-0.016962666,0.04625511,0.0070626736,-0.0013573142,0.11863208,0.121709585,0.057121873,0.08781451,0.05894494,-0.42775834,0.20790474,-0.10658387,0.035351686,0.97407246,-0.0031305775,0.49431503,-0.004062049,0.048262816,0.2655362,-0.98900187,-0.01764319,-0.9536131,1.19524,1.0832983,-0.16801845,-0.36274004,-0.8824279,0.009525394,0.34117764,0.028574357,0.64517367,-0.47455424,-0.6900462,0.03235148,-0.12739432,-0.045601077,-0.05271816,0.10804728,-0.0963737,0.02937074,0.27965742,0.2500074,0.21148647,0.054497145,0.03053146,0.031551342,0.032232337,0.07867971,0.07867971,-0.08707405,-0.119508095,0.6467781,-0.13822192,0.0026260242,-0.031230919,-1.6569111,-0.08691108,-0.049171675,-0.050531846,-0.016556688,-0.016556688,0.07639359,0.10394403,0.8499454,0.0649454,-0.12747398,-0.1048485,-1.5649004,0.005099654,0.025259994,0.029051706,0.008542933,0.008542933,0.30152676,0.2860455,0.90433544,0.11933541,0.23333275,0.24555463,-1.4473393,0.122660756,0.19746602,0.21303375,0.063747704,0.063747704,0.064240634,0.05101597,0.8520297,0.067029655,-0.0049834377,0.021351391,-1.5129349,0.05706513
67,1.34,0.105000004,0.0,0.0,0.0,0.0,0.0,0.0,0.0,-1.0,0.15,0.0,0.0,0.07867971,-0.13822192,-0.08691108,-0.016556688,0.0649454,0.005099654,0.008542933,0.11933541,0.122660756,0.063747704,0.067029655,0.05706513,-0.52321494,0.33373767,0.013242118,0.020298893,0.9345159,-0.09815303,0.49501234,0.035166074,0.047558088,0.33129138,-1.0392423,-0.09399187,-0.73940915,1.0886167,1.1341088,-0.14949721,-0.6748318,-0.871305,-0.15177944,0.3614138,-0.021913657,0.518661,-0.14472556,-0.69523543,0.032232337,-0.119508095,-0.031230919,-0.050531846,0.10394403,-0.1048485,0.029051706,0.2860455,0.24555463,0.21303375,0.05101597,0.021351391,0.029495213,0.032682974,0.066743806,0.066743806,-0.07694025,-0.11026866,0.65577793,-0.1292221,0.009337716,-0.017895065,-1.6541647,-0.08416462,-0.050239246,-0.04910526,-0.016426878,-0.016426878,0.06380218,0.09736472,0.8671808,0.0821808,-0.13074291,-0.113194205,-1.5687397,0.0012603998,0.022743925,0.028278112,0.018127244,0.018127244,0.3047378,0.2921333,0.905859,0.12085897,0.23257637,0.24092622,-1.446506,0.12349403,0.18719363,0.21107545,0.07137952,0.07137952,0.07371914,0.051786344,0.8309677,0.045967698,-0.013840137,0.012320289,-1.5163497,0.05365038
68,1.36,0.105000004,0.0,0.0,0.0,0.0,0.0,0.0,0.0,-1.0,0.15,0.0,0.0,0.066743806,-0.1292221,-0.08416462,-0.016426878,0.0821808,0.0012603998,0.018127244,0.12085897,0.12349403,0.07137952,0.045967698,0.05365038,-0.5967953,0.4499909,0.13732176,0.006490441,0.8617693,-0.1919602,0.47921553,0.076177776,0.041663986,0.38159084,-1.0530986,-0.17074025,-0.5080395,0.9604084,1.1348131,-0.13325725,-0.96685916,-0.82974017,-0.3034188,0.3652343,-0.069326326,0.35573587,0.20535655,-0.6744737,0.032682974,-0.11026866,-0.017895065,-0.04910526,0.09736472,-0.113194205,0.028278112,0.2921333,0.24092622,0.21107545,0.051786344,0.012320289,0.02644898,0.03257148,0.053790037,0.053790037,-0.07033772,-0.09891455,0.66688025,-0.118119776,0.014500491,-0.006444864,-1.6489654,-0.07896531,-0.052121256,-0.04860359,-0.016555557,-0.016555557,0.049999576,0.08798185,0.8823324,0.09733236,-0.13101047,-0.12121173,-1.5743666,-0.004366517,0.018805638,0.026987791,0.027084071,0.027084071,0.306398,0.29728296,0.90819544,0.12319541,0.23435967,0.23646541,-1.4458828,0.124117255,0.17623742,0.20573445,0.07963735,0.07963735,0.085448354,0.05655807,0.8103928,0.02539277,-0.021593308,0.003652627,-1.5212522,0.048747897
69,1.3800000000000001,0.105000004,0.0,0.0,0.0,0.0,0.0,0.0,0.0,-1.0,0.15,0.0,0.0,0.053790037,-0.118119776,-0.07896531,-0.016555557,0.09733236,-0.004366517,0.027084071,0.12319541,0.124117255,0.07963735,0.02539277,0.048747897,-0.64768845,0.5551151,0.2599631,-0.006433949,0.75757706,-0.28134823,0.4478414,0.11682089,0.031162703,0.41289163,-1.0287455,-0.24512178,-0.27622455,0.82104284,1.0819039,-0.120722845,-1.2322518,-0.75915575,-0.4413635,0.34872645,-0.1097338,0.16523218,0.56055254,-0.6281849,0.03257148,-0.09891455,-0.006444864,-0.04860359,0.08798185,-0.12121173,0.026987791,0.29728296,0.23646541,0.20573445,0.05655807,0.003652627,0.023171138,0.031551342,0.040267497,0.040267497,-0.0690338,-0.08707405,0.6798141,-0.105185926,0.019120581,0.0026260242,-1.6414572,-0.07145715,-0.05555057,-0.049171675,-0.016934771,-0.016934771,0.034480263,0.07639359,0.894834,0.109833956,-0.12879694,-0.12747398,-1.581612,-0.0116119385,0.013323002,0.025259994,0.035130527,0.035130527,0.30639133,0.30152676,0.9112972,0.12629718,0.23825246,0.23333275,-1.4455291,0.12447095,0.16549547,0.19746602,0.08809335,0.08809335,0.09999561,0.064240634,0.79106194,0.0060619116,-0.02749793,-0.0049834377,-1.5275491,0.042450905
70,1.4000000000000001,0.105000004,0.0,0.0,0.0,0.0,0.0,0.0,0.0,-1.0,0.15,0.0,0.0,0.040267497,-0.105185926,-0.07145715,-0.016934771,0.109833956,-0.0116119385,0.035130527,0.12629718,0.12447095,0.08809335,0.0060619116,0.042450905,-0.676127,0.64669174,0.3754102,-0.0189607,0.6250813,-0.36227363,0.40232283,0.1550886,0.017683258,0.4228001,-0.9665442,-0.31484908,-0.05380571,0.66303664,0.97661674,-0.11293672,-1.4587351,-0.65286475,-0.5611699,0.31391516,-0.13371384,-0.041165493,0.9002062,-0.5616573,0.031551342,-0.08707405,0.0026260242,-0.049171675,0.07639359,-0.12747398,0.025259994,0.30152676,0.23333275,0.19746602,0.064240634,-0.0049834377,0.020269435,0.029495213,0.026604448,0.026604448,-0.07258103,-0.07694025,0.69423616,-0.09076387,0.024303295,0.009337716,-1.6318884,-0.061888337,-0.06011286,-0.050239246,-0.01755694,-0.01755694,0.01627307,0.06380218,0.90421665,0.11921662,-0.12561998,-0.13074291,-1.5902154,-0.020215392,0.0063512474,0.022743925,0.042014387,0.042014387,0.30516854,0.3047378,0.91507816,0.13007814,0.24371576,0.23257637,-1.445455,0.1245451,0.1552812,0.18719363,0.09630266,0.09630266,0.11779351,0.07371914,0.77368313,-0.0113168955,-0.031446893,-0.013840137,-1.5351112,0.034888864
71,1.42,0.105000004,0.0,0.0,0.0,0.0,0.0,0.0,0.0,-1.0,0.15,0.0,0.0,0.026604448,-0.09076387,-0.061888337,-0.01755694,0.11921662,-0.020215392,0.042014387,0.13007814,0.1245451,0.09630266,-0.0113168955,0.034888864,-0.6831525,0.7211024,0.47844124,-0.031108428,0.46913463,-0.43017507,0.34419298,0.18904893,0.0037066732,0.41046563,-0.8689407,-0.37810022,0.1518668,0.47614828,0.8256941,-0.10544872,-1.6316162,-0.5074085,-0.6623753,0.2621278,-0.13396393,-0.24852629,1.2052939,-0.4798933,0.029495213,-0.07694025,0.009337716,-0.050239246,0.06380218,-0.13074291,0.022743925,0.3047378,0.23257637,0.18719363,0.07371914,-0.013840137,0.018597387,0.02644898,0.013196391,0.013196391,-0.079496436,-0.07033772,0.70971614,-0.075283885,0.030211098,0.014500491,-1.6205856,-0.05058551,-0.065177634,-0.052121256,-0.018420117,-0.018420117,-0.0057411157,0.049999576,0.91011524,0.12511522,-0.12276734,-0.13101047,-1.599838,-0.029837966,-0.0017478466,0.018805638,0.047510482,0.047510482,0.30207548,0.306398,0.91941,0.13440996,0.25003535,0.23435967,-1.4456202,0.12437987,0.14566332,0.17623742,0.10383962,0.10383962,0.13934243,0.085448354,0.75890255,-0.026097476,-0.033555742,-0.021593308,-1.5437571,0.026242971
72,1.44,0.105000004,0.0,0.0,0.0,0.0,0.0,0.0,0.0,-1.0,0.15,0.0,0.0,0.013196391,-0.075283885,-0.05058551,-0.018420117,0.12511522,-0.029837966,0.047510482,0.13440996,0.12437987,0.10383962,-0.026097476,0.026242971,-0.6704028,0.7739993,0.56514084,-0.043158907,0.294931,-0.48113012,0.27480483,0.2165899,-0.008263023,0.37684804,-0.7390279,-0.43229204,0.33565098,0.25484034,0.64280075,-0.10066871,-1.7493122,-0.33011174,-0.747125,0.1923299,-0.11106853,-0.43995857,1.4706607,-0.37648818,0.02644898,-0.07033772,0.014500491,-0.052121256,0.049999576,-0.13101047,0.018805638,0.306398,0.23435967,0.17623742,0.085448354,-0.021593308,0.01926142,0.023171138,0.000407191,0.000407191,-0.08893115,-0.0690338,0.72572666,-0.059273362,0.03556212,0.019120581,-1.6079233,-0.037923217,-0.06948094,-0.05555057,-0.019539502,-0.019539502,-0.031369172,0.034480263,0.9122669,0.12726688,-0.12069405,-0.12879694,-1.6100854,-0.040085316,-0.010524213,0.013323002,0.051424608,0.051424608,0.29710564,0.30639133,0.9241263,0.1391263,0.25663272,0.23825246,-1.4459453,0.12405479,0.13709709,0.16549547,0.11032479,0.11032479,0.16440208,0.09999561,0.7472961,-0.03770393,-0.03454453,-0.02749793,-1.5532503,0.01674974
73,1.46,0.105000004,0.0,0.0,0.0,0.0,0.0,0.0,0.0,-1.0,0.15,0.0,0.0,0.000407191,-0.059273362,-0.037923217,-0.019539502,0.12726688,-0.040085316,0.051424608,0.1391263,0.12405479,0.11032479,-0.03770393,0.01674974,-0.63946,0.80052656,0.6331172,-0.05596923,0.10758427,-0.51237035,0.19570622,0.23581755,-0.016255748,0.32425863,-0.58032405,-0.4746646,0.4985841,-0.004159403,0.44317842,-0.10378792,-1.8142207,-0.1328243,-0.8140628,0.10720128,-0.070729546,-0.6033622,1.6933899,-0.2506476,0.023171138,-0.0690338,0.019120581,-0.05555057,0.034480263,-0.12879694,0.013323002,0.30639133,0.23825246,0.16549547,0.09999561,-0.02749793,0.023985915,0.020269435,-0.011431268,-0.011431268,-0.10094552,-0.07258103,0.7416721,-0.043327928,0.03851185,0.024303295,-1.5942917,-0.024291635,-0.07173565,-0.06011286,-0.020939458,-0.020939458,-0.059692044,0.01627307,0.91049886,0.12549883,-0.117885165,-0.12561998,-1.6205475,-0.05054748,-0.019812688,0.0063512474,0.05359906,0.05359906,0.2909852,0.30516854,0.9290375,0.14403749,0.26338673,0.24371576,-1.4463245,0.123675585,0.13024284,0.1552812,0.11543981,0.11543981,0.19130783,0.11779351,0.73936117,-0.04563886,-0.035015684,-0.031446893,-1.5633081,0.0066919327
74,1.48,0.105000004,0.0,0.0,0.0,0.0,0.0,0.0,0.0,-1.0,0.15,0.0,0.0,-0.011431268,-0.043327928,-0.024291635,-0.020939458,0.12549883,-0.05054748,0.05359906,0.14403749,0.123675585,0.11543981,-0.04563886,0.0066919327,-0.591923,0.79727274,0.681581,-0.069997855,-0.08840354,-0.5231112,0.10872254,0.2455594,-0.018958014,0.25575098,-0.3967467,-0.5028885,0.64101726,-0.28603795,0.24230123,-0.11087261,-1.8335953,0.06535621,-0.86113626,0.013968611,-0.019604245,-0.73266286,1.8709437,-0.10720215,0.020269435,-0.07258103,0.024303295,-0.06011286,0.01627307,-0.12561998,0.0063512474,0.30516854,0.24371576,0.1552812,0.11779351,-0.031446893,0.034266517,0.018597387,-0.022014447,-0.022014447,-0.11634476,-0.079496436,0.7569348,-0.028065205,0.038314737,0.030211098,-1.580081,-0.010080934,-0.07265423,-0.065177634,-0.022642197,-0.022642197,-0.08785594,-0.0057411157,0.90471137,0.11971134,-0.11316975,-0.12276734,-1.6308334,-0.060833335,-0.028833255,-0.0017478466,0.05392165,0.05392165,0.28438726,0.30207548,0.9339271,0.1489271,0.26960486,0.25003535,-1.4466417,0.12335837,0.12499129,0.14566332,0.118935615,0.118935615,0.21859403,0.13934243,0.7355129,-0.049487114,-0.034793686,-0.033555742,-1.573614,-0.0036139488
75,1.5,0.105000004,0.0,0.0,0.0,0.0,0.0,0.0,0.0,-1.0,0.15,0.0,0.0,-0.022014447,-0.028065205,-0.010080934,-0.022642197,0.11971134,-0.060833335,0.05392165,0.1489271,0.12335837,0.118935615,-0.049487114,-0.0036139488,-0.5291589,0.7631367,0.71053755,-0.085136935,-0.28937435,-0.5142937,0.016129643,0.24448185,-0.015862819,0.1747904,-0.19241324,-0.51529574,0.76558965,-0.5684961,0.047715854,-0.11657746,-1.8166233,0.2483406,-0.88479406,-0.08847036,0.034479797,-0.82505846,2.00274,0.047025084,0.018597387,-0.079496436,0.030211098,-0.065177634,-0.0057411157,-0.12276734,-0.0017478466,0.30207548,0.25003535,0.14566332,0.13934243,-0.033555742,0.05085887,0.01926142,-0.03105582,-0.03105582,-0.1359846,-0.08893115,0.7709096,-0.014090419,0.035028405,0.03556212,-1.5656892,0.0043108463,-0.072635576,-0.06948094,-0.024646943,-0.024646943,-0.113221765,-0.031369172,0.8948806,0.10988057,-0.10602505,-0.12069405,-1.6405894,-0.070589304,-0.037458707,-0.010524213,0.052334234,0.052334234,0.27845433,0.29710564,0.9385603,0.15356028,0.27465612,0.25663272,-1.4467844,0.123215675,0.1207514,0.13709709,0.12064425,0.12064425,0.24479806,0.16440208,0.7360711,-0.048928916,-0.03292204,-0.03454453,-1.5838417,-0.013841629
76,1.52,0.105000004,0.0,0.0,0.0,0.0,0.0,0.0,0.0,-1.0,0.15,0.0,0.0,-0.03105582,-0.014090419,0.0043108463,-0.024646943,0.10988057,-0.070589304,0.052334234,0.15356028,0.123215675,0.12064425,-0.048928916,-0.013841629,-0.4520687,0.69873923,0.7195898,-0.100237325,-0.49153915,-0.487801,-0.07937086,0.23165894,-0.0071368245,0.08543156,0.027908504,-0.5113842,0.8770188,-0.83537257,-0.14427213,-0.11137776,-1.7632732,0.40777606,-0.88185596,-0.1959486,0.085180044,-0.87624705,2.0841255,0.20080242,0.01926142,-0.08893115,0.03556212,-0.06948094,-0.031369172,-0.12069405,-0.010524213,0.29710564,0.25663272,0.13709709,0.16440208,-0.03454453,0.072925135,0.023985915,-0.038267564,-0.038267564,-0.15890259,-0.10094552,0.7830214,-0.0019786358,0.028602488,0.03851185,-1.5515387,0.018461347,-0.07275127,-0.07173565,-0.026910521,-0.026910521,-0.13384822,-0.059692044,0.8810701,0.09607005,-0.096629076,-0.117885165,-1.6494849,-0.07948482,-0.046210617,-0.019812688,0.048834488,0.048834488,0.27390987,0.2909852,0.94270366,0.15770364,0.2791637,0.26338673,-1.4466487,0.123351336,0.119308464,0.13024284,0.120490715,0.120490715,0.26750714,0.19130783,0.74122804,-0.043771982,-0.02890992,-0.035015684,-1.5936753,-0.023675203
77,1.54,0.105000004,0.0,0.0,0.0,0.0,0.0,0.0,0.0,-1.0,0.15,0.0,0.0,-0.038267564,-0.0019786358,0.018461347,-0.026910521,0.09607005,-0.07948482,0.048834488,0.15770364,0.123351336,0.120490715,-0.043771982,-0.023675203,-0.3605872,0.6055906,0.7075224,-0.11317887,-0.6905247,-0.44477615,-0.17498723,0.20716771,0.006784317,-0.0076765344,0.25784558,-0.49168083,0.98446196,-1.0787009,-0.34104872,-0.086727425,-1.6693947,0.5510643,-0.85235965,-0.29896027,0.13008028,-0.8820704,2.101891,0.344519,0.023985915,-0.10094552,0.03851185,-0.07173565,-0.059692044,-0.117885165,-0.019812688,0.2909852,0.26338673,0.13024284,0.19130783,-0.035015684,0.099975735,0.034266517,-0.043345895,-0.043345895,-0.18455216,-0.11634476,0.79272944,0.007729411,0.018064477,0.038314737,-1.5380735,0.031926513,-0.074415565,-0.07265423,-0.02936225,-0.02936225,-0.14877853,-0.08785594,0.8634702,0.07847017,-0.08536746,-0.11316975,-1.6572028,-0.08720279,-0.05517231,-0.028833255,0.043485694,0.043485694,0.27043793,0.28438726,0.9461435,0.16114348,0.28296196,0.26960486,-1.4461534,0.12384665,0.1199381,0.12499129,0.11848902,0.11848902,0.28609234,0.21859403,0.7510253,-0.033974707,-0.02225322,-0.034793686,-1.6028162,-0.03281617
78,1.56,0.105000004,0.0,0.0,0.0,0.0,0.0,0.0,0.0,-1.0,0.15,0.0,0.0,-0.043345895,0.007729411,0.031926513,-0.02936225,0.07847017,-0.08720279,0.043485694,0.16114348,0.12384665,0.11848902,-0.033974707,-0.03281617,-0.25391653,0.48540103,0.67326,-0.12258648,-0.8799953,-0.38589737,-0.26743966,0.17199329,0.0247669,-0.10008482,0.48986372,-0.45705137,1.0946248,-1.2971296,-0.54093564,-0.05014462,-1.5183725,0.68283594,-0.79271734,-0.3891945,0.16290952,-0.84585154,2.0474162,0.47523552,0.034266517,-0.11634476,0.038314737,-0.07265423,-0.08785594,-0.11316975,-0.028833255,0.28438726,0.26960486,0.12499129,0.21859403,-0.034793686,0.13075456,0.05085887,-0.045969497,-0.045969497,-0.21291947,-0.1359846,0.79952896,0.01452893,0.0024713576,0.035028405,-1.5257428,0.044257283,-0.07796195,-0.072635576,-0.03191397,-0.03191397,-0.15736327,-0.113221765,0.8424277,0.057427645,-0.071628526,-0.10602505,-1.6634408,-0.09344077,-0.06424132,-0.037458707,0.03641346,0.03641346,0.26879632,0.27845433,0.9487101,0.16371006,0.28586966,0.27465612,-1.4452515,0.12474859,0.120965056,0.1207514,0.11472778,0.11472778,0.3000794,0.24479806,0.7653367,-0.019663334,-0.013079232,-0.03292204,-1.6109768,-0.040976763
79,1.58,0.105000004,0.0,0.0,0.0,0.0,0.0,0.0,0.0,-1.0,0.15,0.0,0.0,-0.045969497,0.01452893,0.044257283,-0.03191397,0.057427645,-0.09344077,0.03641346,0.16371006,0.12474859,0.11472778,-0.019663334,-0.040976763,-0.13118018,0.3399763,0.61653733,-0.12758602,-1.0521252,-0.31189802,-0.35361174,0.12832749,0.04509876,-0.1880619,0.71556854,-0.40803054,1.2079729,-1.4903274,-0.73615754,-0.0066680848,-1.2985538,0.8028015,-0.70547915,-0.45589024,0.17872168,-0.77560234,1.9152136,0.5962672,0.05085887,-0.1359846,0.035028405,-0.072635576,-0.113221765,-0.10602505,-0.037458707,0.27845433,0.27465612,0.1207514,0.24479806,-0.03292204,0.16281527,0.072925135,-0.045824096,-0.045824096,-0.24256688,-0.15890259,0.80298114,0.017981112,-0.018510118,0.028602488,-1.5149871,0.05501294,-0.0828346,-0.07275127,-0.034480877,-0.034480877,-0.1589076,-0.13384822,0.818458,0.033457994,-0.055722483,-0.096629076,-1.6679229,-0.0979228,-0.07237209,-0.046210617,0.027790237,0.027790237,0.26890594,0.27390987,0.95029217,0.16529214,0.28756523,0.2791637,-1.4439199,0.12608016,0.12137761,0.119308464,0.10939225,0.10939225,0.30882347,0.26750714,0.78384185,-0.0011581779,-0.0021174378,-0.02890992,-1.6178807,-0.04788065
80,1.6,0.105000004,0.0,0.0,0.0,0.0,0.0,0.0,0.0,-1.0,0.15,0.0,0.0,-0.045824096,0.017981112,0.05501294,-0.034480877,0.033457994,-0.0979228,0.027790237,0.16529214,0.12608016,0.10939225,-0.0011581779,-0.04788065,0.0072701275,0.17260918,0.5377809,-0.12834539,-1.1984818,-0.2241012,-0.43116117,0.07910296,0.06657696,-0.26677647,0.9252572,-0.34519413,1.3129516,-1.6452227,-0.92027664,0.03385658,-1.0068725,0.90578234,-0.5987482,-0.4929464,0.18273783,-0.66242003,1.6959598,0.7074081,0.072925135,-0.15890259,0.028602488,-0.07275127,-0.13384822,-0.096629076,-0.046210617,0.27390987,0.2791637,0.119308464,0.26750714,-0.02890992,0.19314757,0.099975735,-0.04261998,-0.04261998,-0.27018198,-0.18455216,0.80273247,0.017732441,-0.04401488,0.018064477,-1.5062406,0.063759446,-0.08764839,-0.074415565,-0.037006702,-0.037006702,-0.15247229,-0.14877853,0.79223573,0.007235706,-0.03915199,-0.08536746,-1.6704131,-0.100413084,-0.0782031,-0.05517231,0.01782613,0.01782613,0.26895288,0.27043793,0.9508328,0.16583276,0.2875497,0.28296196,-1.4421622,0.1278379,0.12064283,0.1199381,0.10274196,0.10274196,0.3119142,0.28609234,0.8060363,0.021036267,0.009718092,-0.02225322,-1.6232632,-0.053263187
81,1.62,0.105000004,0.0,0.0,0.0,0.0,0.0,0.0,0.0,-1.0,0.15,0.0,0.0,-0.04261998,0.017732441,0.063759446,-0.037006702,0.007235706,-0.100413084,0.01782613,0.16583276,0.1278379,0.10274196,0.021036267,-0.053263187,0.16020577,-0.012432814,0.43732274,-0.12629117,-1.3111134,-0.12451361,-0.49820533,0.027030751,0.08788953,-0.33251476,1.1097213,-0.26912802,1.4016227,-1.7539202,-1.0942965,0.059928305,-0.6504431,0.9859266,-0.47749394,-0.50333583,0.17434557,-0.51810914,1.3972982,0.80874884,0.099975735,-0.18455216,0.018064477,-0.074415565,-0.14877853,-0.08536746,-0.05517231,0.27043793,0.28296196,0.1199381,0.28609234,-0.02225322,0.21914276,0.13075456,-0.036120158,-0.036120158,-0.29275545,-0.21291947,0.7985221,0.0135220885,-0.071646444,0.0024713576,-1.4999323,0.07006776,-0.09050749,-0.07796195,-0.03946941,-0.03946941,-0.13797307,-0.15736327,0.76457524,-0.020424783,-0.024259709,-0.071628526,-1.6707118,-0.1007117,-0.0803836,-0.06424132,0.0067619327,0.0067619327,0.2666959,0.26879632,0.95034045,0.16534042,0.28684238,0.28586966,-1.4400091,0.12999094,0.11848583,0.120965056,0.095071875,0.095071875,0.3113041,0.3000794,0.8312491,0.04624909,0.021331416,-0.013079232,-1.6268815,-0.056881428
82,1.6400000000000001,0.105000004,0.0,0.0,0.0,0.0,0.0,0.0,0.0,-1.0,0.15,0.0,0.0,-0.036120158,0.0135220885,0.07006776,-0.03946941,-0.020424783,-0.1007117,0.0067619327,0.16534042,0.12999094,0.095071875,0.04624909,-0.056881428,0.3249911,-0.21051866,0.31541866,-0.12313545,-1.3830254,-0.014929853,-0.5532099,-0.024616137,0.1076501,-0.3835041,1.2606407,-0.18091387,1.4614635,-1.8144499,-1.259022,0.06938267,-0.24059716,1.0458236,-0.3455165,-0.48276812,0.15327677,-0.3616775,1.03033,0.8959265,0.13075456,-0.21291947,0.0024713576,-0.07796195,-0.15736327,-0.071628526,-0.06424132,0.26879632,0.28586966,0.120965056,0.3000794,-0.013079232,0.23627421,0.16281527,-0.026184438,-0.026184438,-0.30646884,-0.24256688,0.79020846,0.0052084327,-0.09798052,-0.018510118,-1.4964777,0.07352233,-0.08999719,-0.0828346,-0.041871317,-0.041871317,-0.11795826,-0.1589076,0.7364088,-0.048591197,-0.012407653,-0.055722483,-1.6686642,-0.098664165,-0.078113005,-0.07237209,-0.005123391,-0.005123391,0.26180556,0.26890594,0.94888437,0.16388434,0.28504512,0.28756523,-1.4375224,0.13247764,0.11443166,0.12137761,0.08668504,0.08668504,0.30788398,0.30882347,0.8586625,0.07366246,0.033003684,-0.0021174378,-1.6285325,-0.058532476
83,1.6600000000000001,0.105000004,0.0,0.0,0.0,0.0,0.0,0.0,0.0,-1.0,0.15,0.0,0.0,-0.026184438,0.0052084327,0.07352233,-0.041871317,-0.048591197,-0.098664165,-0.005123391,0.16388434,0.13247764,0.08668504,0.07366246,-0.058532476,0.496786,-0.4156816,0.17273124,-0.1200953,-1.4083207,0.10237738,-0.5942662,-0.07280521,0.12433428,-0.4193418,1.3706689,-0.0825518,1.4730803,-1.8160298,-1.4108037,0.067311905,0.21035823,1.0816581,-0.19986932,-0.43449888,0.11871245,-0.20626886,0.6066539,0.9608563,0.16281527,-0.24256688,-0.018510118,-0.0828346,-0.1589076,-0.055722483,-0.07237209,0.26890594,0.28756523,0.12137761,0.30882347,-0.0021174378,0.24191299,0.19314757,-0.01281724,-0.01281724,-0.31056938,-0.27018198,0.77782094,-0.0071790814,-0.12145401,-0.04401488,-1.4962528,0.07374728,-0.08620398,-0.08764839,-0.04421562,-0.04421562,-0.09190923,-0.15247229,0.7087661,-0.07623392,-0.0036166236,-0.03915199,-1.6641883,-0.09418821,-0.07151654,-0.0782031,-0.01750175,-0.01750175,0.25527173,0.26895288,0.94656,0.16156,0.2826268,0.2875497,-1.4347986,0.13520145,0.10857042,0.12064283,0.07787391,0.07787391,0.30055207,0.3119142,0.88733864,0.10233861,0.04369765,0.009718092,-1.6280725,-0.058072448
84,1.68,0.105000004,0.0,0.0,0.0,0.0,0.0,0.0,0.0,-1.0,0.15,0.0,0.0,-0.01281724,-0.0071790814,0.07374728,-0.04421562,-0.07623392,-0.09418821,-0.01750175,0.16156,0.13520145,0.07787391,0.10233861,-0.058072448,0.6683599,-0.61937666,0.011246994,-0.11721514,-1.3821366,0.22379965,-0.61891794,-0.11621761,0.13619313,-0.4405565,1.4338069,0.02300229,1.4160764,-1.7369025,-1.5376995,0.06487035,0.691033,1.0818963,-0.03613782,-0.3752284,0.06907804,-0.060561635,0.1409924,0.99540347,0.19314757,-0.27018198,-0.04401488,-0.08764839,-0.15247229,-0.03915199,-0.0782031,0.26895288,0.2875497,0.12064283,0.3119142,0.009718092,0.23480412,0.21914276,0.003798033,0.003798033,-0.3052045,-0.29275545,0.7615984,-0.023401618,-0.14336386,-0.071646444,-1.4995453,0.07045472,-0.07983886,-0.09050749,-0.04647593,-0.04647593,-0.06024765,-0.13797307,0.6827374,-0.102262616,0.0014410838,-0.024259709,-1.6573102,-0.087310195,-0.0601609,-0.0803836,-0.029987272,-0.029987272,0.24752973,0.2666959,0.9434491,0.15844905,0.28022397,0.28684238,-1.431948,0.1380521,0.1030298,0.11848583,0.06890714,0.06890714,0.28884584,0.3113041,0.916287,0.13128698,0.05327935,0.021331416,-1.6254358,-0.055435777
