verayannn/SpotDMouse/P2-Terrain_Challenge/mp2/misc/openloop_scheduled_backward_0.15.csv
step,time,obs_0,obs_1,obs_2,obs_3,obs_4,obs_5,obs_6,obs_7,obs_8,obs_9,obs_10,obs_11,obs_12,obs_13,obs_14,obs_15,obs_16,obs_17,obs_18,obs_19,obs_20,obs_21,obs_22,obs_23,obs_24,obs_25,obs_26,obs_27,obs_28,obs_29,obs_30,obs_31,obs_32,obs_33,obs_34,obs_35,obs_36,obs_37,obs_38,obs_39,obs_40,obs_41,obs_42,obs_43,obs_44,obs_45,obs_46,obs_47,obs_48,obs_49,obs_50,obs_51,obs_52,obs_53,obs_54,obs_55,obs_56,obs_57,obs_58,obs_59,action_0,delayed_action_0,joint_pos_0,joint_pos_rel_0,action_1,delayed_action_1,joint_pos_1,joint_pos_rel_1,action_2,delayed_action_2,joint_pos_2,joint_pos_rel_2,action_3,delayed_action_3,joint_pos_3,joint_pos_rel_3,action_4,delayed_action_4,joint_pos_4,joint_pos_rel_4,action_5,delayed_action_5,joint_pos_5,joint_pos_rel_5,action_6,delayed_action_6,joint_pos_6,joint_pos_rel_6,action_7,delayed_action_7,joint_pos_7,joint_pos_rel_7,action_8,delayed_action_8,joint_pos_8,joint_pos_rel_8,action_9,delayed_action_9,joint_pos_9,joint_pos_rel_9,action_10,delayed_action_10,joint_pos_10,joint_pos_rel_10,action_11,delayed_action_11,joint_pos_11,joint_pos_rel_11
0,0.0,-0.105000004,0.0,0.0,0.0,0.0,0.0,0.0,0.0,-1.0,-0.15,0.0,0.0,0.0,0.0,0.0,0.0,0.0,0.0,0.0,0.0,0.0,0.0,0.0,0.0,0.0,0.0,0.0,0.0,0.0,0.0,0.0,0.0,0.0,0.0,0.0,0.0,0.0,0.0,0.0,0.0,0.0,0.0,0.0,0.0,0.0,0.0,0.0,0.0,0.0,0.0,0.0,0.0,0.0,0.0,0.0,0.0,0.0,0.0,0.0,0.0,0.34613627,0.0,0.0,0.0,0.038939446,0.0,0.785,0.0,-0.08035496,0.0,-1.57,0.0,-0.17599502,0.0,0.0,0.0,-0.05117213,0.0,0.785,0.0,-0.12888902,0.0,-1.57,0.0,0.09293474,0.0,0.0,0.0,0.10701375,0.0,0.785,0.0,0.05949172,0.0,-1.57,0.0,-0.11289828,0.0,0.0,0.0,0.18481192,0.0,0.785,0.0,0.02569815,0.0,-1.57,0.0
1,0.02,-0.105000004,0.0,0.0,0.0,0.0,0.0,0.0,0.0,-1.0,-0.15,0.0,0.0,0.0,0.0,0.0,0.0,0.0,0.0,0.0,0.0,0.0,0.0,0.0,0.0,0.0,0.0,0.0,0.0,0.0,0.0,0.0,0.0,0.0,0.0,0.0,0.0,0.0,0.0,0.0,0.0,0.0,0.0,0.0,0.0,0.0,0.0,0.0,0.0,0.0,0.0,0.0,0.0,0.0,0.0,0.0,0.0,0.0,0.0,0.0,0.0,0.34613627,0.0,0.0,0.0,0.038939446,0.0,0.785,0.0,-0.08035496,0.0,-1.57,0.0,-0.17599502,0.0,0.0,0.0,-0.05117213,0.0,0.785,0.0,-0.12888902,0.0,-1.57,0.0,0.09293474,0.0,0.0,0.0,0.10701375,0.0,0.785,0.0,0.05949172,0.0,-1.57,0.0,-0.11289828,0.0,0.0,0.0,0.18481192,0.0,0.785,0.0,0.02569815,0.0,-1.57,0.0
2,0.04,-0.105000004,0.0,0.0,0.0,0.0,0.0,0.0,0.0,-1.0,-0.15,0.0,0.0,0.0,0.0,0.0,0.0,0.0,0.0,0.0,0.0,0.0,0.0,0.0,0.0,0.0,0.0,0.0,0.0,0.0,0.0,0.0,0.0,0.0,0.0,0.0,0.0,0.0,0.0,0.0,0.0,0.0,0.0,0.0,0.0,0.0,0.0,0.0,0.0,0.0,0.0,0.0,0.0,0.0,0.0,0.0,0.0,0.0,0.0,0.0,0.0,0.34613627,0.0,0.0,0.0,0.038939446,0.0,0.785,0.0,-0.08035496,0.0,-1.57,0.0,-0.17599502,0.0,0.0,0.0,-0.05117213,0.0,0.785,0.0,-0.12888902,0.0,-1.57,0.0,0.09293474,0.0,0.0,0.0,0.10701375,0.0,0.785,0.0,0.05949172,0.0,-1.57,0.0,-0.11289828,0.0,0.0,0.0,0.18481192,0.0,0.785,0.0,0.02569815,0.0,-1.57,0.0
3,0.06,-0.105000004,0.0,0.0,0.0,0.0,0.0,0.0,0.0,-1.0,-0.15,0.0,0.0,0.0,0.0,0.0,0.0,0.0,0.0,0.0,0.0,0.0,0.0,0.0,0.0,0.0,0.0,0.0,0.0,0.0,0.0,0.0,0.0,0.0,0.0,0.0,0.0,0.0,0.0,0.0,0.0,0.0,0.0,0.0,0.0,0.0,0.0,0.0,0.0,0.0,0.0,0.0,0.0,0.0,0.0,0.0,0.0,0.0,0.0,0.0,0.0,0.34613627,0.34613627,0.0055381805,0.0055381805,0.038939446,0.038939446,0.7856231,0.00062304735,-0.08035496,-0.08035496,-1.5712857,-0.0012856722,-0.17599502,-0.17599502,-0.0028159202,-0.0028159202,-0.05117213,-0.05117213,0.7841813,-0.0008187294,-0.12888902,-0.12888902,-1.5720623,-0.0020622015,0.09293474,0.09293474,0.0014869557,0.0014869557,0.10701375,0.10701375,0.7867122,0.001712203,0.05949172,0.05949172,-1.5690482,0.0009518862,-0.11289828,-0.11289828,-0.0018063723,-0.0018063723,0.18481192,0.18481192,0.787957,0.0029569864,0.02569815,0.02569815,-1.5695889,0.00041115284
4,0.08,-0.105000004,0.0,0.0,0.0,0.0,0.0,0.0,0.0,-1.0,-0.15,0.0,0.0,0.0055381805,0.00062304735,-0.0012856722,-0.0028159202,-0.0008187294,-0.0020622015,0.0014869557,0.001712203,0.0009518862,-0.0018063723,0.0029569864,0.00041115284,0.27690902,0.03115158,-0.064283945,-0.140796,-0.04093771,-0.10311127,0.07434779,0.08561096,0.047593307,-0.09031862,0.14784956,0.020558547,2.5420249,0.28597125,-0.5901267,-1.2925074,-0.37580857,-0.9465618,0.6825127,0.7859089,0.43690625,-0.82912505,1.357259,0.18872777,0.34613627,0.038939446,-0.08035496,-0.17599502,-0.05117213,-0.12888902,0.09293474,0.10701375,0.05949172,-0.11289828,0.18481192,0.02569815,0.42278373,0.34613627,0.01616041,0.01616041,0.07037957,0.038939446,0.786818,0.0018180013,-0.04867439,-0.08035496,-1.5737517,-0.0037516356,-0.10463582,-0.17599502,-0.008216855,-0.008216855,-0.067129225,-0.05117213,0.78261095,-0.0023890734,-0.105595805,-0.12888902,-1.5760176,-0.0060175657,0.16182017,0.09293474,0.004338937,0.004338937,-0.10741639,0.10701375,0.78999627,0.00499624,0.11577452,0.05949172,-1.5672225,0.0027775764,-0.16268297,-0.11289828,-0.0052709947,-0.0052709947,0.41605437,0.18481192,0.7936285,0.008628488,-0.007886222,0.02569815,-1.5688003,0.0011997223
5,0.1,-0.105000004,0.0,0.0,0.0,0.0,0.0,0.0,0.0,-1.0,-0.15,0.0,0.0,0.01616041,0.0018180013,-0.0037516356,-0.008216855,-0.0023890734,-0.0060175657,0.004338937,0.00499624,0.0027775764,-0.0052709947,0.008628488,0.0011997223,0.5311115,0.059748705,-0.12329662,-0.27004677,-0.07851857,-0.19776744,0.14259905,0.16420186,0.09128393,-0.17323112,0.28357548,0.039431322,2.244968,0.25255343,-0.52116495,-1.141467,-0.33189264,-0.8359479,0.6027555,0.69406885,0.3858499,-0.7322348,1.198652,0.16667426,0.34613627,0.038939446,-0.08035496,-0.17599502,-0.05117213,-0.12888902,0.09293474,0.10701375,0.05949172,-0.11289828,0.18481192,0.02569815,0.43216932,0.34613627,0.031272575,0.031272575,0.06318126,0.038939446,0.78851813,0.0035181046,-0.058456723,-0.08035496,-1.5772599,-0.0072598457,-0.11459881,-0.17599502,-0.015900724,-0.015900724,-0.06154896,-0.05117213,0.7803768,-0.0046232343,-0.09942702,-0.12888902,-1.5816449,-0.01164484,0.16305467,0.09293474,0.008396429,0.008396429,-0.103977114,0.10701375,0.79466844,0.00966841,0.11900672,0.05949172,-1.5646251,0.0053749084,-0.16193691,-0.11289828,-0.010200087,-0.010200087,0.4177246,0.18481192,0.8016973,0.016697288,-0.004496818,0.02569815,-1.5676783,0.0023217201
6,0.12,-0.105000004,0.0,0.0,0.0,0.0,0.0,0.0,0.0,-1.0,-0.15,0.0,0.0,0.031272575,0.0035181046,-0.0072598457,-0.015900724,-0.0046232343,-0.01164484,0.008396429,0.00966841,0.0053749084,-0.010200087,0.016697288,0.0023217201,0.75560826,0.08500405,-0.17541312,-0.38419348,-0.11170784,-0.28136224,0.2028746,0.23360874,0.12986892,-0.2464546,0.40344068,0.056098748,1.8909248,0.21272412,-0.43897533,-0.9614519,-0.27955145,-0.7041141,0.50769776,0.5846107,0.32500008,-0.6167576,1.0096186,0.14038858,0.34613627,0.038939446,-0.08035496,-0.17599502,-0.05117213,-0.12888902,0.09293474,0.10701375,0.05949172,-0.11289828,0.18481192,0.02569815,0.4425621,0.34613627,0.05016659,0.05016659,0.05440258,0.038939446,0.79064363,0.005643606,-0.07038765,-0.08035496,-1.5816461,-0.011646032,-0.12799732,-0.17599502,-0.025507497,-0.025507497,-0.056121178,-0.05117213,0.77758354,-0.0074164867,-0.0925852,-0.12888902,-1.5886804,-0.018680334,0.16368711,0.09293474,0.013469316,0.013469316,-0.09876857,0.10701375,0.8005098,0.015509784,0.12449336,0.05949172,-1.5613778,0.008622289,-0.15844136,-0.11289828,-0.016362693,-0.016362693,0.42086416,0.18481192,0.81178534,0.026785314,-0.00066947704,0.02569815,-1.5662756,0.0037244558
7,0.14,-0.105000004,0.0,0.0,0.0,0.0,0.0,0.0,0.0,-1.0,-0.15,0.0,0.0,0.05016659,0.005643606,-0.011646032,-0.025507497,-0.0074164867,-0.018680334,0.013469316,0.015509784,0.008622289,-0.016362693,0.026785314,0.0037244558,0.9447007,0.10627646,-0.21931064,-0.48033866,-0.13966298,-0.35177365,0.25364438,0.2920698,0.16236892,-0.30813035,0.5044025,0.070137605,1.4940745,0.16807988,-0.3468476,-0.7596709,-0.22088182,-0.5563405,0.4011467,0.46191818,0.256792,-0.48731798,0.7977293,0.11092539,0.34613627,0.038939446,-0.08035496,-0.17599502,-0.05117213,-0.12888902,0.09293474,0.10701375,0.05949172,-0.11289828,0.18481192,0.02569815,0.45155483,0.42278373,0.07327511,0.07327511,0.04399448,0.07037957,0.79360837,0.008608341,-0.08297073,-0.04867439,-1.5862191,-0.01621902,-0.14427875,-0.10463582,-0.035491865,-0.035491865,-0.05160778,-0.067129225,0.7740932,-0.0109068155,-0.08562199,-0.105595805,-1.5964558,-0.02645576,0.16394904,0.16182017,0.020446664,0.020446664,-0.09091092,-0.10741639,0.80384415,0.018844128,0.13083091,0.11577452,-1.5567163,0.01328373,-0.15148284,-0.16268297,-0.02429649,-0.02429649,0.42352486,0.41605437,0.8271687,0.042168677,0.004100556,-0.007886222,-1.5651883,0.0048117638
8,0.16,-0.105000004,0.0,0.0,0.0,0.0,0.0,0.0,0.0,-1.0,-0.15,0.0,0.0,0.07327511,0.008608341,-0.01621902,-0.035491865,-0.0109068155,-0.02645576,0.020446664,0.018844128,0.01328373,-0.02429649,0.042168677,0.0048117638,1.1554261,0.14823656,-0.22865093,-0.4992184,-0.17451686,-0.38877308,0.3488674,0.16671754,0.23307452,-0.3966899,0.7691694,0.05436266,1.6321548,0.35118517,-0.015564978,-0.01960752,-0.27526656,-0.22708793,0.792981,-1.2441959,0.5971201,-0.7143749,2.2691514,-0.16725892,0.42278373,0.07037957,-0.04867439,-0.10463582,-0.067129225,-0.105595805,0.16182017,-0.10741639,0.11577452,-0.16268297,0.41605437,-0.007886222,0.44318122,0.43216932,0.09979811,0.09979811,0.12465534,0.06318126,0.79716027,0.012160242,-0.06150621,-0.058456723,-1.5909797,-0.020979643,-0.11022498,-0.11459881,-0.045674857,-0.045674857,-0.16803582,-0.06154896,0.7701416,-0.014858425,-0.08976496,-0.09942702,-1.6045867,-0.034586668,0.17239761,0.16305467,0.029029725,0.029029725,-0.20619147,-0.103977114,0.80474514,0.019745111,0.120768145,0.11900672,-1.5508089,0.019191146,-0.14484383,-0.16193691,-0.0336471,-0.0336471,0.58914983,0.4177246,0.8471171,0.0621171,-0.0062663234,-0.004496818,-1.5643814,0.0056186914
9,0.18,-0.105000004,0.0,0.0,0.0,0.0,0.0,0.0,0.0,-1.0,-0.15,0.0,0.0,0.09979811,0.012160242,-0.020979643,-0.045674857,-0.014858425,-0.034586668,0.029029725,0.019745111,0.019191146,-0.0336471,0.0621171,0.0056186914,1.3261501,0.1775964,-0.23803328,-0.50914955,-0.19757926,-0.4065468,0.42915308,0.0450494,0.29537213,-0.46753055,0.9974207,0.040348254,1.1975095,0.22208819,-0.012962353,0.068582,-0.15586716,-0.038755797,0.6253853,-1.1702632,0.49730867,-0.52337635,1.849213,-0.14604768,0.43216932,0.06318126,-0.058456723,-0.11459881,-0.06154896,-0.09942702,0.16305467,-0.103977114,0.11900672,-0.16193691,0.4177246,-0.004496818,0.4449001,0.4425621,0.12888242,0.12888242,0.11218395,0.05440258,0.8010159,0.016015887,-0.083073296,-0.07038765,-1.5959572,-0.025957108,-0.12710518,-0.12799732,-0.05593506,-0.05593506,-0.1592625,-0.056121178,0.7659651,-0.019034922,-0.07788028,-0.0925852,-1.6126857,-0.042685628,0.17695335,0.16368711,0.038873676,0.038873676,-0.20471846,-0.09876857,0.80338895,0.018388927,0.13370997,0.12449336,-1.5438191,0.026180983,-0.12774107,-0.15844136,-0.043988533,-0.043988533,0.58866787,0.42086416,0.8708142,0.08581418,0.0030958229,-0.00066947704,-1.5638052,0.00619483
10,0.2,-0.105000004,0.0,0.0,0.0,0.0,0.0,0.0,0.0,-1.0,-0.15,0.0,0.0,0.12888242,0.016015887,-0.025957108,-0.05593506,-0.019034922,-0.042685628,0.038873676,0.018388927,0.026180983,-0.043988533,0.08581418,0.00619483,1.4542153,0.19278227,-0.24887426,-0.51301014,-0.2088238,-0.40494886,0.49219757,-0.067810126,0.34949237,-0.5170717,1.1848537,0.028805353,0.7512705,0.08257539,-0.023349965,0.1274874,-0.039999187,0.14476378,0.4414193,-1.0504665,0.40230498,-0.30517855,1.40146,-0.11887579,0.4425621,0.05440258,-0.07038765,-0.12799732,-0.056121178,-0.0925852,0.16368711,-0.09876857,0.12449336,-0.15844136,0.42086416,-0.00066947704,0.44376022,0.45155483,0.15961315,0.15961315,0.09503898,0.04399448,0.8048702,0.019870162,-0.1010069,-0.08297073,-1.6011827,-0.031182647,-0.14509803,-0.14427875,-0.06620079,-0.06620079,-0.15063198,-0.05160778,0.76178086,-0.023219168,-0.068033665,-0.08562199,-1.6203837,-0.050383687,0.18486115,0.16394904,0.049604654,0.049604654,-0.19870023,-0.09091092,0.80005753,0.015057504,0.14783886,0.13083091,-1.5359232,0.03407681,-0.108547986,-0.15148284,-0.054828987,-0.054828987,0.583017,0.42352486,0.89735675,0.11235672,0.013790274,0.004100556,-1.5633905,0.006609559
11,0.22,-0.105000004,0.0,0.0,0.0,0.0,0.0,0.0,0.0,-1.0,-0.15,0.0,0.0,0.15961315,0.019870162,-0.031182647,-0.06620079,-0.023219168,-0.050383687,0.049604654,0.015057504,0.03407681,-0.054828987,0.11235672,0.006609559,1.5365365,0.19271328,-0.26127568,-0.51328653,-0.20921291,-0.38490206,0.53654903,-0.16657063,0.39479297,-0.54202276,1.3271282,0.020733807,0.29036006,-0.062323816,-0.03420477,0.16162595,0.06325133,0.31361344,0.24964336,-0.884922,0.30402258,-0.063587524,0.9269272,-0.08331536,0.45155483,0.04399448,-0.08297073,-0.14427875,-0.05160778,-0.08562199,0.16394904,-0.09091092,0.13083091,-0.15148284,0.42352486,0.004100556,0.43837118,0.44318122,0.19079062,0.19079062,0.07377387,0.12465534,0.8098904,0.024890363,-0.11376703,-0.06150621,-1.6061332,-0.03613317,-0.16259186,-0.11022498,-0.07559841,-0.07559841,-0.1398389,-0.16803582,0.75586027,-0.029139757,-0.062200747,-0.08976496,-1.6275208,-0.057520747,0.19639078,0.17239761,0.060970098,0.060970098,-0.18352394,-0.20619147,0.7931118,0.008111775,0.16220385,0.120768145,-1.5275804,0.042419672,-0.08806663,-0.14484383,-0.06569039,-0.06569039,0.56798065,0.58914983,0.92840314,0.14340311,0.025617877,-0.0062663234,-1.5633084,0.0066916943
12,0.24,-0.105000004,0.0,0.0,0.0,0.0,0.0,0.0,0.0,-1.0,-0.15,0.0,0.0,0.19079062,0.024890363,-0.03613317,-0.07559841,-0.029139757,-0.057520747,0.060970098,0.008111775,0.042419672,-0.06569039,0.14340311,0.0066916943,1.5588735,0.25100964,-0.24752468,-0.4698809,-0.29603028,-0.35685512,0.56827223,-0.34728724,0.4171449,-0.5430703,1.5523208,0.004108738,-0.286637,0.4734923,0.20984289,0.56271523,-0.73003566,0.38063893,0.11952324,-1.605676,0.07885738,0.16383076,1.6425884,-0.15925232,0.44318122,0.12465534,-0.06150621,-0.11022498,-0.16803582,-0.08976496,0.17239761,-0.20619147,0.120768145,-0.14484383,0.58914983,-0.0062663234,0.39903384,0.4449001,0.22142231,0.22142231,0.11228923,0.11218395,0.81565803,0.030658007,-0.099821255,-0.083073296,-1.6110091,-0.04100907,-0.20410778,-0.12710518,-0.08414068,-0.08414068,-0.21013647,-0.1592625,0.74862,-0.036380053,-0.065251015,-0.07788028,-1.6337065,-0.0637064,0.18256101,0.17695335,0.07264748,0.07264748,-0.24137534,-0.20471846,0.7829783,-0.00202173,0.12697609,0.13370997,-1.5188727,0.051127315,-0.097302206,-0.12774107,-0.07595049,-0.07595049,0.6260352,0.58866787,0.962727,0.17772698,0.074389644,0.0030958229,-1.5633949,0.0066051483
13,0.26,-0.105000004,0.0,0.0,0.0,0.0,0.0,0.0,0.0,-1.0,-0.15,0.0,0.0,0.22142231,0.030658007,-0.04100907,-0.08414068,-0.036380053,-0.0637064,0.07264748,-0.00202173,0.051127315,-0.07595049,0.17772698,0.0066051483,1.531585,0.28838173,-0.24379407,-0.42711353,-0.3620152,-0.3092835,0.58386916,-0.5066765,0.4353841,-0.513005,1.7161942,-0.004326717,-0.74934876,0.26275247,0.1134551,0.54296625,-0.5110119,0.55090106,-0.038667537,-1.3520619,0.033950187,0.4497818,1.0076151,-0.07875209,0.4449001,0.11218395,-0.083073296,-0.12710518,-0.1592625,-0.07788028,0.17695335,-0.20471846,0.13370997,-0.12774107,0.58866787,0.0030958229,0.3924991,0.44376022,0.25053707,0.25053707,0.10068992,0.09503898,0.82167685,0.036676824,-0.11091098,-0.1010069,-1.615945,-0.04594493,-0.21304809,-0.14509803,-0.0918849,-0.0918849,-0.19663177,-0.15063198,0.74049574,-0.044504285,-0.062842615,-0.068033665,-1.6386328,-0.06863272,0.20822945,0.18486115,0.084374055,0.084374055,-0.22475977,-0.19870023,0.7702369,-0.014763117,0.14416197,0.14783886,-1.5098711,0.060128927,-0.078524075,-0.108547986,-0.085003935,-0.085003935,0.6048716,0.583017,0.9989757,0.21397567,0.09331566,0.013790274,-1.5634679,0.006532192
14,0.28,-0.105000004,0.0,0.0,0.0,0.0,0.0,0.0,0.0,-1.0,-0.15,0.0,0.0,0.25053707,0.036676824,-0.04594493,-0.0918849,-0.044504285,-0.06863272,0.084374055,-0.014763117,0.060128927,-0.085003935,0.21397567,0.006532192,1.4557382,0.30094105,-0.24679545,-0.3872112,-0.40621197,-0.24631605,0.5863286,-0.63706803,0.45008224,-0.45267236,1.8124349,-0.0036463232,-1.1863804,0.023012375,0.050460707,0.5029798,-0.28988165,0.677012,-0.16425996,-1.0348576,-0.0043933154,0.7180153,0.33430776,0.0076310383,0.44376022,0.09503898,-0.1010069,-0.14509803,-0.15063198,-0.068033665,0.18486115,-0.19870023,0.14783886,-0.108547986,0.583017,0.013790274,0.3823141,0.43837118,0.27719283,0.27719283,0.08423004,0.07377387,0.82740146,0.042401433,-0.11794762,-0.11376703,-1.6209841,-0.050984025,-0.21974733,-0.16259186,-0.09890307,-0.09890307,-0.17921306,-0.1398389,0.7319644,-0.053035617,-0.06432772,-0.062200747,-1.6421118,-0.072111726,0.23422363,0.19639078,0.09595658,0.09595658,-0.18640456,-0.18352394,0.75566864,-0.029331386,0.16008459,0.16220385,-1.5006484,0.06935167,-0.057638742,-0.08806663,-0.09229365,-0.09229365,0.56976116,0.56798065,1.0356524,0.25065237,0.10928163,0.025617877,-1.5633363,0.0066637993
15,0.3,-0.105000004,0.0,0.0,0.0,0.0,0.0,0.0,0.0,-1.0,-0.15,0.0,0.0,0.27719283,0.042401433,-0.050984025,-0.09890307,-0.053035617,-0.072111726,0.09595658,-0.029331386,0.06935167,-0.09229365,0.25065237,0.0066637993,1.332789,0.28623018,-0.25195733,-0.35090828,-0.42656568,-0.17394853,0.57912636,-0.72841275,0.46113488,-0.36448574,1.8338366,0.0065787556,-1.5945103,-0.23134713,0.03158779,0.45716834,-0.056858756,0.7431556,-0.25374222,-0.6346826,-0.042563893,0.9544083,-0.38351107,0.095032535,0.43837118,0.07377387,-0.11376703,-0.16259186,-0.1398389,-0.062200747,0.19639078,-0.18352394,0.16220385,-0.08806663,0.56798065,0.025617877,0.3676607,0.39903384,0.3000302,0.3000302,0.0625869,0.11228923,0.8332796,0.048279583,-0.12235477,-0.099821255,-1.625737,-0.0557369,-0.22727361,-0.20410778,-0.10567115,-0.10567115,-0.15525706,-0.21013647,0.7221946,-0.062805414,-0.07121916,-0.065251015,-1.6441532,-0.074153185,0.25727287,0.18256101,0.106810346,0.106810346,-0.123234905,-0.24137534,0.7389054,-0.046094656,0.17391416,0.12697609,-1.4920745,0.07792556,-0.038834278,-0.097302206,-0.097822316,-0.097822316,0.51951474,0.6260352,1.0724909,0.2874909,0.121503145,0.074389644,-1.5622343,0.00776577
16,0.32,-0.105000004,0.0,0.0,0.0,0.0,0.0,0.0,0.0,-1.0,-0.15,0.0,0.0,0.3000302,0.048279583,-0.0557369,-0.10567115,-0.062805414,-0.074153185,0.106810346,-0.046094656,0.07792556,-0.097822316,0.2874909,0.00776577,1.141868,0.29390773,-0.23764208,-0.33840418,-0.48848963,-0.10207323,0.5426883,-0.8381622,0.42869627,-0.27643338,1.8419292,0.055099495,-2.1791465,-0.021113683,0.21204081,0.22707832,-0.43196082,0.71547866,-0.51982164,-0.774407,-0.44534904,0.92495614,-0.5125364,0.4433155,0.39903384,0.11228923,-0.099821255,-0.20410778,-0.21013647,-0.065251015,0.18256101,-0.24137534,0.12697609,-0.097302206,0.6260352,0.074389644,0.3308336,0.3924991,0.3184047,0.3184047,0.055607297,0.10068992,0.83892995,0.053929925,-0.12826008,-0.11091098,-1.6302432,-0.06024313,-0.24846822,-0.21304809,-0.11212812,-0.11212812,-0.18212062,-0.19663177,0.711777,-0.073223054,-0.060406156,-0.062842615,-1.6447252,-0.07472515,0.25919244,0.20822945,0.117035165,0.117035165,-0.10331908,-0.22475977,0.72085917,-0.064140856,0.16491632,0.14416197,-1.4841163,0.08588374,-0.0405442,-0.078524075,-0.10120062,-0.10120062,0.4944175,0.6048716,1.1079658,0.3229658,0.14839098,0.09331566,-1.5599428,0.010057211
17,0.34,-0.105000004,0.0,0.0,0.0,0.0,0.0,0.0,0.0,-1.0,-0.15,0.0,0.0,0.3184047,0.053929925,-0.06024313,-0.11212812,-0.073223054,-0.07472515,0.117035165,-0.064140856,0.08588374,-0.10120062,0.3229658,0.010057211,0.91872555,0.28251693,-0.22530966,-0.3228486,-0.5208819,-0.028598562,0.5112409,-0.9023105,0.39791012,-0.16891527,1.7737446,0.114571765,-2.4138455,-0.19861816,0.18925777,0.25108957,-0.1410445,0.70716083,-0.4623475,-0.3206696,-0.41979933,1.075475,-1.215352,0.52832353,0.3924991,0.10068992,-0.11091098,-0.21304809,-0.19663177,-0.062842615,0.20822945,-0.22475977,0.14416197,-0.078524075,0.6048716,0.09331566,0.3236326,0.3823141,0.33178857,0.33178857,0.04455614,0.08423004,0.8439197,0.05891967,-0.13085194,-0.11794762,-1.6344835,-0.064483404,-0.24622911,-0.21974733,-0.1181901,-0.1181901,-0.15997536,-0.17921306,0.70135593,-0.08364409,-0.06875503,-0.06432772,-1.6439066,-0.07390654,0.28405187,0.23422363,0.1267512,0.1267512,-0.043136936,-0.18640456,0.7027853,-0.08221471,0.17073356,0.16008459,-1.476743,0.09325707,-0.03587387,-0.057638742,-0.10209381,-0.10209381,0.45461726,0.56976116,1.1404482,0.3554482,0.15532131,0.10928163,-1.5563393,0.013660789
18,0.36,-0.105000004,0.0,0.0,0.0,0.0,0.0,0.0,0.0,-1.0,-0.15,0.0,0.0,0.33178857,0.05891967,-0.064483404,-0.1181901,-0.08364409,-0.07390654,0.1267512,-0.08221471,0.09325707,-0.10209381,0.3554482,0.013660789,0.669193,0.24948725,-0.21201323,-0.30309904,-0.52105135,0.040929437,0.4858015,-0.90369326,0.36866823,-0.044659525,1.624121,0.18017687,-2.584701,-0.3936178,0.19416045,0.28461248,0.16512677,0.6474182,-0.39713088,0.27604538,-0.39577132,1.1947207,-1.9411423,0.5655913,0.3823141,0.08423004,-0.11794762,-0.21974733,-0.17921306,-0.06432772,0.23422363,-0.18640456,0.16008459,-0.057638742,0.56976116,0.10928163,0.3177544,0.3676607,0.3397686,0.3397686,0.025320977,0.0625869,0.84777594,0.06277591,-0.13590416,-0.12235477,-1.6384059,-0.06840587,-0.2402212,-0.22727361,-0.12380328,-0.12380328,-0.13131645,-0.15525706,0.6916485,-0.09335154,-0.079027675,-0.07121916,-1.6419034,-0.07190335,0.30445692,0.25727287,0.13604176,0.13604176,0.033604067,-0.123234905,0.68627423,-0.098725796,0.1737966,0.17391416,-1.4699398,0.100060225,-0.038285125,-0.038834278,-0.10029668,-0.10029668,0.40403545,0.51951474,1.1682444,0.38324434,0.15473735,0.121503145,-1.551409,0.018591046
19,0.38,-0.105000004,0.0,0.0,0.0,0.0,0.0,0.0,0.0,-1.0,-0.15,0.0,0.0,0.3397686,0.06277591,-0.06840587,-0.12380328,-0.09335154,-0.07190335,0.13604176,-0.098725796,0.100060225,-0.10029668,0.38324434,0.018591046,0.39900023,0.19281094,-0.19612291,-0.2806588,-0.4853739,0.100158066,0.4645278,-0.82555294,0.34015486,0.08985613,1.3898096,0.24651325,-2.694512,-0.6001248,0.21371737,0.302993,0.49425477,0.5306209,-0.3507491,1.0065103,-0.37972745,1.2491447,-2.6706967,0.55131155,0.3676607,0.0625869,-0.12235477,-0.22727361,-0.15525706,-0.07121916,0.25727287,-0.123234905,0.17391416,-0.038834278,0.51951474,0.121503145,0.3082921,0.3308336,0.34177035,0.34177035,-0.0002959147,0.055607297,0.8503202,0.065320194,-0.14215855,-0.12826008,-1.6419954,-0.07199538,-0.2321921,-0.24846822,-0.12914959,-0.12914959,-0.09763172,-0.18212062,0.6824997,-0.10250032,-0.09268951,-0.060406156,-1.638666,-0.06866598,0.31731716,0.25919244,0.14466153,0.14466153,0.12230127,-0.10331908,0.6720948,-0.112905204,0.17499056,0.16491632,-1.4640402,0.10595989,-0.04200356,-0.0405442,-0.09602863,-0.09602863,0.34114242,0.4944175,1.1902976,0.40529758,0.14690219,0.14839098,-1.544946,0.025054097
20,0.4,-0.105000004,0.0,0.0,0.0,0.0,0.0,0.0,0.0,-1.0,-0.15,0.0,0.0,0.34177035,0.065320194,-0.07199538,-0.12914959,-0.10250032,-0.06866598,0.14466153,-0.112905204,0.10595989,-0.09602863,0.40529758,0.025054097,0.100087374,0.12721479,-0.17947549,-0.2673152,-0.4574393,0.16187055,0.43098852,-0.70896924,0.29498377,0.21340266,1.1026622,0.32315472,-2.8717005,-0.66387194,0.2155827,0.21230522,0.41175932,0.53447074,-0.45653924,1.3344154,-0.52351993,1.1054033,-3.080752,0.62468517,0.3308336,0.055607297,-0.12826008,-0.24846822,-0.18212062,-0.060406156,0.25919244,-0.10331908,0.16491632,-0.0405442,0.4944175,0.14839098,0.28771752,0.3236326,0.33791348,0.33791348,-0.0034952909,0.04455614,0.85135996,0.06635994,-0.1481807,-0.13085194,-1.6451952,-0.07519519,-0.23215458,-0.24622911,-0.13403545,-0.13403545,-0.0879461,-0.15997536,0.6745288,-0.11047125,-0.096559055,-0.06875503,-1.6344932,-0.06449318,0.3148676,0.28405187,0.15276597,0.15276597,0.16144879,-0.043136936,0.6615472,-0.12345284,0.17021924,0.17073356,-1.4590944,0.11090565,-0.044705868,-0.03587387,-0.08947505,-0.08947505,0.29600406,0.45461726,1.2055526,0.42055255,0.15768786,0.15532131,-1.5371226,0.032877445
21,0.42,-0.105000004,0.0,0.0,0.0,0.0,0.0,0.0,0.0,-1.0,-0.15,0.0,0.0,0.33791348,0.06635994,-0.07519519,-0.13403545,-0.11047125,-0.06449318,0.15276597,-0.12345284,0.11090565,-0.08947505,0.42055255,0.032877445,-0.19284347,0.05198665,-0.1599907,-0.2442934,-0.39854714,0.20863867,0.40522215,-0.527382,0.24728552,0.32767925,0.7627467,0.39116752,-2.721133,-0.7313032,0.23630257,0.29688105,0.6870103,0.37753224,-0.37445173,1.8938408,-0.5322655,0.98077023,-3.4732769,0.520948,0.3236326,0.04455614,-0.13085194,-0.24622911,-0.15997536,-0.06875503,0.28405187,-0.043136936,0.17073356,-0.03587387,0.45461726,0.15532131,0.2722933,0.3177544,0.3285203,0.3285203,-0.013991691,0.025320977,0.8506293,0.0656293,-0.15033951,-0.13590416,-1.6480033,-0.07800329,-0.22395378,-0.2402212,-0.13823143,-0.13823143,-0.06613894,-0.13131645,0.6683904,-0.11660963,-0.09963628,-0.079027675,-1.6297297,-0.059729695,0.3183811,0.30445692,0.160448,0.160448,0.20719522,0.033604067,0.6560151,-0.12898493,0.1627289,0.1737966,-1.4551642,0.11483586,-0.05045096,-0.038285125,-0.0809985,-0.0809985,0.2578923,0.40403545,1.2130517,0.42805165,0.15211636,0.15473735,-1.5282667,0.041733384
22,0.44,-0.105000004,0.0,0.0,0.0,0.0,0.0,0.0,0.0,-1.0,-0.15,0.0,0.0,0.3285203,0.0656293,-0.07800329,-0.13823143,-0.11660963,-0.059729695,0.160448,-0.12898493,0.11483586,-0.0809985,0.42805165,0.041733384,-0.46965933,-0.036531776,-0.14040211,-0.20979898,-0.30691892,0.2381737,0.38410103,-0.27660516,0.19650953,0.42382726,0.37495366,0.442795,-2.47946,-0.8292349,0.23102108,0.3948327,0.96868217,0.20436707,-0.32356316,2.4708936,-0.5452553,0.7777814,-3.8040195,0.34876624,0.3177544,0.025320977,-0.13590416,-0.2402212,-0.13131645,-0.079027675,0.30445692,0.033604067,0.1737966,-0.038285125,0.40403545,0.15473735,0.25131345,0.3082921,0.3140168,0.3140168,-0.028059337,-0.0002959147,0.84783036,0.06283033,-0.1503375,-0.14215855,-1.6504494,-0.08044934,-0.21781276,-0.2321921,-0.14150928,-0.14150928,-0.04216513,-0.09763172,0.66472834,-0.12027168,-0.10485261,-0.09268951,-1.6247761,-0.054776073,0.316589,0.31731716,0.16768865,0.16768865,0.24771573,0.12230127,0.65684396,-0.12815607,0.15467395,0.17499056,-1.4523054,0.11769462,-0.05371122,-0.04200356,-0.07102589,-0.07102589,0.21809115,0.34114242,1.2119365,0.42693645,0.1475268,0.14690219,-1.5188386,0.05116141
23,0.46,-0.105000004,0.0,0.0,0.0,0.0,0.0,0.0,0.0,-1.0,-0.15,0.0,0.0,0.3140168,0.06283033,-0.08044934,-0.14150928,-0.12027168,-0.054776073,0.16768865,-0.12815607,0.11769462,-0.07102589,0.42693645,0.05116141,-0.72517514,-0.13994877,-0.12230355,-0.16389242,-0.18310292,0.2476809,0.36203292,0.041441947,0.1429392,0.49863064,-0.05576271,0.4714035,-2.1953444,-0.93767786,0.2110732,0.4885579,1.2348449,0.0110605955,-0.32549763,3.0081859,-0.55465823,0.5510706,-4.0739627,0.120932385,0.3082921,-0.0002959147,-0.14215855,-0.2321921,-0.09763172,-0.09268951,0.31731716,0.12230127,0.17499056,-0.04200356,0.34114242,0.14690219,0.22393073,0.28771752,0.2947934,0.2947934,-0.044444337,-0.0034952909,0.84310484,0.058104813,-0.14812924,-0.1481807,-1.6525697,-0.0825696,-0.21713212,-0.23215458,-0.14380941,-0.14380941,-0.01813225,-0.0879461,0.6636909,-0.1213091,-0.11758014,-0.096559055,-1.6198623,-0.049862266,0.30961105,0.3148676,0.17423913,0.17423913,0.28625247,0.16144879,0.6643155,-0.120684505,0.14545333,0.17021924,-1.4506323,0.11936772,-0.055609595,-0.044705868,-0.059994377,-0.059994377,0.17717846,0.29600406,1.201951,0.416951,0.14410226,0.15768786,-1.5089961,0.061003923
24,0.48,-0.105000004,0.0,0.0,0.0,0.0,0.0,0.0,0.0,-1.0,-0.15,0.0,0.0,0.2947934,0.058104813,-0.0825696,-0.14380941,-0.1213091,-0.049862266,0.17423913,-0.120684505,0.11936772,-0.059994377,0.416951,0.061003923,-0.96116924,-0.23627612,-0.106014006,-0.11500661,-0.05186993,0.24569133,0.3275235,0.37357858,0.08365619,0.55157584,-0.49926966,0.4921254,-1.9343697,-0.8395017,0.18867481,0.50121725,1.2633121,-0.0975218,-0.43264714,3.0357533,-0.58995813,0.32647514,-4.053549,0.039377738,0.28771752,-0.0034952909,-0.1481807,-0.23215458,-0.0879461,-0.096559055,0.3148676,0.16144879,0.17021924,-0.044705868,0.29600406,0.15768786,0.20233934,0.2722933,0.27145448,0.27145448,-0.040743407,-0.013991691,0.83653235,0.051532328,-0.14585659,-0.15033951,-1.6543472,-0.08434713,-0.22279187,-0.22395378,-0.14497589,-0.14497589,-0.0055144764,-0.06613894,0.6655291,-0.119470954,-0.12789801,-0.09963628,-1.6151928,-0.04519272,0.29765168,0.3183811,0.17998052,0.17998052,0.2934362,0.20719522,0.67859054,-0.10640949,0.1326146,0.1627289,-1.450259,0.11974108,-0.05986609,-0.05045096,-0.048401833,-0.048401833,0.15548809,0.2578923,1.1832488,0.39824873,0.14610566,0.15211636,-1.499164,0.07083607
25,0.5,-0.105000004,0.0,0.0,0.0,0.0,0.0,0.0,0.0,-1.0,-0.15,0.0,0.0,0.27145448,0.051532328,-0.08434713,-0.14497589,-0.119470954,-0.04519272,0.17998052,-0.10640949,0.11974108,-0.048401833,0.39824873,0.07083607,-1.1669456,-0.32862338,-0.08887363,-0.058324255,0.09190695,0.23347734,0.2870696,0.71375096,0.01866825,0.5796273,-0.93511397,0.49160588,-1.5814526,-0.77213925,0.19127405,0.557146,1.3364699,-0.1907457,-0.47617427,3.0032377,-0.62335926,0.08100803,-3.8412845,-0.16224961,0.2722933,-0.013991691,-0.15033951,-0.22395378,-0.06613894,-0.09963628,0.3183811,0.20719522,0.1627289,-0.05045096,0.2578923,0.15211636,0.18047713,0.25131345,0.24461699,0.24461699,-0.03730108,-0.028059337,0.8281905,0.04319048,-0.14080867,-0.1503375,-1.655742,-0.085742,-0.22571695,-0.21781276,-0.14492983,-0.14492983,0.006760668,-0.04216513,0.67042375,-0.11457628,-0.14106676,-0.10485261,-1.6109881,-0.040988088,0.2840412,0.316589,0.18474089,0.18474089,0.29516962,0.24771573,0.69952035,-0.08547968,0.1250646,0.15467395,-1.4512612,0.11873889,-0.06486131,-0.05371122,-0.036699437,-0.036699437,0.14445306,0.21809115,1.1562271,0.3712271,0.1467793,0.1475268,-1.4897298,0.08027029
26,0.52,-0.105000004,0.0,0.0,0.0,0.0,0.0,0.0,0.0,-1.0,-0.15,0.0,0.0,0.24461699,0.04319048,-0.085742,-0.14492983,-0.11457628,-0.040988088,0.18474089,-0.08547968,0.11873889,-0.036699437,0.3712271,0.08027029,-1.3418747,-0.41709143,-0.06974451,0.0023031645,0.24473299,0.21022968,0.23801848,1.0464911,-0.05011165,0.58511984,-1.3510833,0.47170928,-1.2324269,-0.7069769,0.20404454,0.57522357,1.3735327,-0.28812686,-0.54215145,2.8261547,-0.637374,-0.13505869,-3.5193627,-0.33996537,0.25131345,-0.028059337,-0.1503375,-0.21781276,-0.04216513,-0.10485261,0.316589,0.24771573,0.15467395,-0.05371122,0.21809115,0.1475268,0.15718171,0.22393073,0.21487652,0.21487652,-0.036174048,-0.044444337,0.8181726,0.033172548,-0.13392022,-0.14812924,-1.6566936,-0.086693525,-0.22845405,-0.21713212,-0.14372243,-0.14372243,0.021267254,-0.01813225,0.67845,-0.10655004,-0.15703803,-0.11758014,-1.6075635,-0.037563443,0.26892492,0.30961105,0.1883053,0.1883053,0.29285565,0.28625247,0.7267191,-0.058280945,0.120371364,0.14545333,-1.4536856,0.11631441,-0.06793677,-0.055609595,-0.02529753,-0.02529753,0.13259716,0.17717846,1.1215122,0.33651215,0.14573321,0.14410226,-1.4810303,0.08896971
27,0.54,-0.105000004,0.0,0.0,0.0,0.0,0.0,0.0,0.0,-1.0,-0.15,0.0,0.0,0.21487652,0.033172548,-0.086693525,-0.14372243,-0.10655004,-0.037563443,0.1883053,-0.058280945,0.11631441,-0.02529753,0.33651215,0.08896971,-1.4870236,-0.5008971,-0.047573473,0.06037003,0.40131262,0.171235,0.17822099,1.3599361,-0.121225715,0.5700953,-1.7357496,0.4349732,-0.90306664,-0.63586676,0.22584935,0.53231686,1.3590866,-0.4252438,-0.62510693,2.542547,-0.636792,-0.32516393,-3.0988915,-0.4881832,0.22393073,-0.044444337,-0.14812924,-0.21713212,-0.01813225,-0.11758014,0.30961105,0.28625247,0.14545333,-0.055609595,0.17717846,0.14410226,0.13357191,0.20233934,0.18298444,0.18298444,-0.039555468,-0.040743407,0.8069421,0.021942079,-0.12515226,-0.14585659,-1.657157,-0.08715689,-0.22930281,-0.22279187,-0.14154094,-0.14154094,0.037218835,-0.0055144764,0.6893963,-0.095603704,-0.17215243,-0.12789801,-1.6051544,-0.035154343,0.25213662,0.29765168,0.19042815,0.19042815,0.28448743,0.2934362,0.75911784,-0.025882185,0.11711745,0.1326146,-1.4575891,0.1124109,-0.06939568,-0.05986609,-0.014614056,-0.014614056,0.12029167,0.15548809,1.0802524,0.29525238,0.1427736,0.14610566,-1.4732752,0.09672487
28,0.56,-0.105000004,0.0,0.0,0.0,0.0,0.0,0.0,0.0,-1.0,-0.15,0.0,0.0,0.18298444,0.021942079,-0.08715689,-0.14154094,-0.095603704,-0.035154343,0.19042815,-0.025882185,0.1124109,-0.014614056,0.29525238,0.09672487,-1.5946034,-0.561523,-0.023170454,0.10907392,0.5473155,0.120456375,0.1061428,1.6199378,-0.1951758,0.5341737,-2.0629911,0.38775763,-0.5117346,-0.39625856,0.23924255,0.42778325,1.2118855,-0.52094257,-0.7187084,1.9516354,-0.64006966,-0.5121907,-2.4486375,-0.5726306,0.20233934,-0.040743407,-0.14585659,-0.22279187,-0.0055144764,-0.12789801,0.29765168,0.2934362,0.1326146,-0.05986609,0.15548809,0.14610566,0.12950331,0.18047713,0.1497191,0.1497191,-0.03117698,-0.03730108,0.7949742,0.009974182,-0.11703287,-0.14080867,-1.6570611,-0.08706105,-0.22845992,-0.22571695,-0.1385507,-0.1385507,0.044222217,0.006760668,0.7029628,-0.08203721,-0.17413494,-0.14106676,-1.6039978,-0.033997774,0.23119658,0.2840412,0.19089583,0.19089583,0.24953006,0.29516962,0.7954476,0.010447562,0.1153566,0.1250646,-1.4628936,0.10710645,-0.07740153,-0.06486131,-0.0050348863,-0.0050348863,0.13217026,0.14445306,1.0339187,0.24891871,0.13679352,0.1467793,-1.4666545,0.10334551
29,0.58,-0.105000004,0.0,0.0,0.0,0.0,0.0,0.0,0.0,-1.0,-0.15,0.0,0.0,0.1497191,0.009974182,-0.08706105,-0.1385507,-0.08203721,-0.033997774,0.19089583,0.010447562,0.10710645,-0.0050348863,0.24891871,0.10334551,-1.6632667,-0.59839505,0.00479223,0.14951217,0.6783242,0.05782707,0.023383573,1.816488,-0.26522276,0.4789585,-2.3166828,0.3310334,-0.120055296,-0.15879789,0.264112,0.3363195,1.027519,-0.6134835,-0.79369545,1.2859517,-0.58057487,-0.67781156,-1.6687336,-0.64481056,0.18047713,-0.03730108,-0.14080867,-0.22571695,0.006760668,-0.14106676,0.2840412,0.29516962,0.1250646,-0.06486131,0.14445306,0.1467793,0.1374808,0.15718171,0.115840934,0.115840934,-0.018853147,-0.036174048,0.78270674,-0.0022932887,-0.108693615,-0.13392022,-1.6563268,-0.08632672,-0.22265926,-0.22845405,-0.13493161,-0.13493161,0.04404671,0.021267254,0.71881646,-0.06618357,-0.16838798,-0.15703803,-1.6043237,-0.034323692,0.20848885,0.26892492,0.18953425,0.18953425,0.20054302,0.29285565,0.8343122,0.049312174,0.116092235,0.120371364,-1.4694343,0.10056579,-0.0905287,-0.06793677,0.003139453,0.003139453,0.16141531,0.13259716,0.9840579,0.19905788,0.12526724,0.14573321,-1.4613402,0.10865986
30,0.6,-0.105000004,0.0,0.0,0.0,0.0,0.0,0.0,0.0,-1.0,-0.15,0.0,0.0,0.115840934,-0.0022932887,-0.08632672,-0.13493161,-0.06618357,-0.034323692,0.18953425,0.049312174,0.10056579,0.003139453,0.19905788,0.10865986,-1.6939086,-0.6133732,0.036714144,0.18095444,0.7926814,-0.01629822,-0.06807899,1.943232,-0.32703486,0.40871698,-2.4930408,0.26571542,0.25095302,0.053986765,0.29150888,0.24079609,0.8327347,-0.6989756,-0.847109,0.5822342,-0.4825645,-0.7980839,-0.87762797,-0.70555055,0.15718171,-0.036174048,-0.13392022,-0.22845405,0.021267254,-0.15703803,0.26892492,0.29285565,0.120371364,-0.06793677,0.13259716,0.14573321,0.15288185,0.13357191,0.08208691,0.08208691,-0.011293352,-0.039555468,0.77049315,-0.0145068765,-0.09896617,-0.12515226,-1.6548692,-0.08486915,-0.21518548,-0.22930281,-0.1308445,-0.1308445,0.038750853,0.037218835,0.7365908,-0.048409224,-0.15496936,-0.17215243,-1.6062895,-0.036289454,0.18527135,0.25213662,0.18620984,0.18620984,0.15105604,0.28448743,0.87420744,0.08920741,0.11533527,0.11711745,-1.4769921,0.09300792,-0.10870235,-0.06939568,0.009694282,0.009694282,0.19393937,0.12029167,0.93224496,0.14724493,0.11027513,0.1427736,-1.4574844,0.11251569
31,0.62,-0.105000004,0.0,0.0,0.0,0.0,0.0,0.0,0.0,-1.0,-0.15,0.0,0.0,0.08208691,-0.0145068765,-0.08486915,-0.1308445,-0.048409224,-0.036289454,0.18620984,0.08920741,0.09300792,0.009694282,0.14724493,0.11251569,-1.6877011,-0.6106796,0.07287931,0.20435505,0.8887161,-0.09828741,-0.16622055,1.9947609,-0.37789446,0.32774144,-2.590648,0.19279277,0.59903514,0.2210064,0.3202479,0.15691206,0.62794,-0.7474452,-0.8791543,-0.14880009,-0.36224028,-0.87414473,-0.09826126,-0.75445837,0.13357191,-0.039555468,-0.12515226,-0.22930281,0.037218835,-0.17215243,0.25213662,0.28448743,0.11711745,-0.06939568,0.12029167,0.1427736,0.16775298,0.12950331,0.049465865,0.049465865,-0.0066048913,-0.03117698,0.75885564,-0.026144385,-0.08925094,-0.11703287,-1.6526412,-0.082641125,-0.2086294,-0.22845992,-0.1264301,-0.1264301,0.02755436,0.044222217,0.7557331,-0.029266953,-0.13646728,-0.17413494,-1.6097819,-0.03978181,0.16087675,0.23119658,0.18079208,0.18079208,0.10845682,0.24953006,0.91324574,0.12824571,0.10870226,0.1153566,-1.4853027,0.084697366,-0.13081463,-0.07740153,0.014372728,0.014372728,0.22459446,0.13217026,0.8804255,0.09542549,0.094211064,0.13679352,-1.4552331,0.114766955
32,0.64,-0.105000004,0.0,0.0,0.0,0.0,0.0,0.0,0.0,-1.0,-0.15,0.0,0.0,0.049465865,-0.026144385,-0.082641125,-0.1264301,-0.029266953,-0.03978181,0.18079208,0.12824571,0.084697366,0.014372728,0.09542549,0.114766955,-1.6310525,-0.58187616,0.11139976,0.22072056,0.95711285,-0.17461789,-0.270888,1.951915,-0.41552708,0.2339223,-2.5909712,0.11256293,1.0600989,0.45983285,0.33029598,0.08484183,0.3434927,-0.6692619,-0.90765655,-1.0316483,-0.22454086,-0.9661371,0.8260404,-0.7982038,0.12950331,-0.03117698,-0.11703287,-0.22845992,0.044222217,-0.17413494,0.23119658,0.24953006,0.1153566,-0.07740153,0.13217026,0.13679352,0.19755876,0.1374808,0.019092653,0.019092653,0.017393015,-0.018853147,0.74833494,-0.036665082,-0.08725584,-0.108693615,-1.6496192,-0.07961917,-0.19899932,-0.22265926,-0.121753186,-0.121753186,-0.0036564507,0.04404671,0.7755595,-0.009440541,-0.10582987,-0.16838798,-1.6145208,-0.044520736,0.12286231,0.20848885,0.17319568,0.17319568,0.049551155,0.20054302,0.94943696,0.16443694,0.10262127,0.116092235,-1.4940505,0.07594955,-0.16276209,-0.0905287,0.016908865,0.016908865,0.2901497,0.16141531,0.8307261,0.04572606,0.072350696,0.12526724,-1.4547627,0.115237355
33,0.66,-0.105000004,0.0,0.0,0.0,0.0,0.0,0.0,0.0,-1.0,-0.15,0.0,0.0,0.019092653,-0.036665082,-0.07961917,-0.121753186,-0.009440541,-0.044520736,0.17319568,0.16443694,0.07594955,0.016908865,0.04572606,0.115237355,-1.5186607,-0.5260339,0.1511007,0.23384528,0.99132174,-0.2369464,-0.37981984,1.8095605,-0.43739274,0.12680686,-2.4849713,0.023521475,1.5536942,0.69883275,0.32880756,0.049854256,0.00776186,-0.5162982,-0.91331005,-1.931427,-0.067758776,-1.0581748,1.8021914,-0.85342026,0.1374808,-0.018853147,-0.108693615,-0.22265926,0.04404671,-0.16838798,0.20848885,0.20054302,0.116092235,-0.0905287,0.16141531,0.12526724,0.2348629,0.15288185,-0.007926755,-0.007926755,0.043694682,-0.011293352,0.7393329,-0.045667112,-0.09355297,-0.09896617,-1.6457839,-0.07578385,-0.18768883,-0.21518548,-0.11685699,-0.11685699,-0.056255303,0.038750853,0.7953167,0.01031667,-0.066678695,-0.15496936,-1.6200776,-0.050077558,0.07499984,0.18527135,0.16340117,0.16340117,-0.011386821,0.15105604,0.98097354,0.19597352,0.10180879,0.11533527,-1.502946,0.06705403,-0.19815464,-0.10870235,0.017037874,0.017037874,0.3763914,0.19393937,0.7851514,0.0001513958,0.049293194,0.11027513,-1.456239,0.11376107
34,0.68,-0.105000004,0.0,0.0,0.0,0.0,0.0,0.0,0.0,-1.0,-0.15,0.0,0.0,-0.007926755,-0.045667112,-0.07578385,-0.11685699,0.01031667,-0.050077558,0.16340117,0.19597352,0.06705403,0.017037874,0.0001513958,0.11376107,-1.3509704,-0.4501027,0.19176343,0.24480973,0.9878612,-0.27784148,-0.48972484,1.5768282,-0.4447742,0.0064504594,-2.278733,-0.07381434,2.0253682,0.86537874,0.3249309,0.025823187,-0.34899026,-0.29959399,-0.88738555,-2.7155418,0.072204374,-1.14545,2.688459,-0.90106964,0.15288185,-0.011293352,-0.09896617,-0.21518548,0.038750853,-0.15496936,0.18527135,0.15105604,0.11533527,-0.10870235,0.19393937,0.11027513,0.26729786,0.16775298,-0.030657489,-0.030657489,0.052703276,-0.0066048913,0.7321366,-0.05286342,-0.10546144,-0.08925094,-1.6411433,-0.07114327,-0.18019654,-0.2086294,-0.111804254,-0.111804254,-0.109629124,0.02755436,0.8141968,0.029196799,-0.026101716,-0.13646728,-1.6259376,-0.05593753,0.03197439,0.16087675,0.15144159,0.15144159,-0.04832146,0.10845682,1.0063975,0.22139746,0.107215375,0.10870226,-1.5118033,0.058196783,-0.2226459,-0.13081463,0.0145221865,0.0145221865,0.44515818,0.22459446,0.7454442,-0.039555848,0.03175683,0.094211064,-1.4597744,0.11022568
35,0.7000000000000001,-0.105000004,0.0,0.0,0.0,0.0,0.0,0.0,0.0,-1.0,-0.15,0.0,0.0,-0.030657489,-0.05286342,-0.07114327,-0.111804254,0.029196799,-0.05593753,0.15144159,0.22139746,0.058196783,0.0145221865,-0.039555848,0.11022568,-1.1365367,-0.3598141,0.23202859,0.2526369,0.944005,-0.2929991,-0.59797907,1.2711947,-0.44286022,-0.12578437,-1.985363,-0.17677245,2.400812,0.97288245,0.30826968,-0.0064855814,-0.71871614,-0.050237752,-0.8370619,-3.310302,0.15989904,-1.2159798,3.4223309,-0.9215358,0.16775298,-0.0066048913,-0.08925094,-0.2086294,0.02755436,-0.13646728,0.16087675,0.10845682,0.10870226,-0.13081463,0.22459446,0.094211064,0.2917704,0.19755876,-0.048109706,-0.048109706,0.047064118,0.017393015,0.72727007,-0.05772996,-0.11612791,-0.08725584,-1.6358542,-0.06585419,-0.18002096,-0.19899932,-0.1066104,-0.1066104,-0.14860068,-0.0036564507,0.8311401,0.046140075,0.00054934993,-0.10582987,-1.6314079,-0.061407804,-0.0022652298,0.12286231,0.13719966,0.13719966,-0.06545541,0.049551155,1.0242583,0.23925823,0.11654578,0.10262127,-1.520438,0.049562097,-0.2262017,-0.16276209,0.00906338,0.00906338,0.48597693,0.2901497,0.71363044,-0.07136959,0.019160697,0.072350696,-1.4655026,0.10449743
36,0.72,-0.105000004,0.0,0.0,0.0,0.0,0.0,0.0,0.0,-1.0,-0.15,0.0,0.0,-0.048109706,-0.05772996,-0.06585419,-0.1066104,0.046140075,-0.061407804,0.13719966,0.23925823,0.049562097,0.00906338,-0.07136959,0.10449743,-0.8726109,-0.24332754,0.26445162,0.25969243,0.8471647,-0.27351305,-0.7120968,0.89303994,-0.431735,-0.27294034,-1.5906857,-0.28641433,2.786531,1.1844871,0.22339363,-0.0160743,-1.1910756,0.27264175,-0.8562476,-3.8782425,0.24384448,-1.3106406,4.2584543,-0.9499458,0.19755876,0.017393015,-0.08725584,-0.19899932,-0.0036564507,-0.10582987,0.12286231,0.049551155,0.10262127,-0.16276209,0.2901497,0.072350696,0.3241012,0.2348629,-0.059391998,-0.059391998,0.04363378,0.043694682,0.7251933,-0.059806705,-0.1300531,-0.09355297,-1.6302192,-0.06021917,-0.18732718,-0.18768883,-0.10126773,-0.10126773,-0.186477,-0.056255303,0.84485966,0.059859633,0.004658021,-0.066678695,-1.6357064,-0.06570637,-0.03161794,0.07499984,0.12047943,0.12047943,-0.08552888,-0.011386821,1.0333875,0.24838752,0.13993338,0.10180879,-1.528598,0.0414021,-0.21818627,-0.19815464,0.0004170118,0.0004170118,0.530069,0.3763914,0.6917135,-0.093286514,0.015882077,0.049293194,-1.4734998,0.09650028
37,0.74,-0.105000004,0.0,0.0,0.0,0.0,0.0,0.0,0.0,-1.0,-0.15,0.0,0.0,-0.059391998,-0.059806705,-0.06021917,-0.10126773,0.059859633,-0.06570637,0.12047943,0.24838752,0.0414021,0.0004170118,-0.093286514,0.09650028,-0.5641146,-0.103837445,0.2817533,0.26713338,0.68597806,-0.21492793,-0.8360115,0.45646527,-0.4080006,-0.43231842,-1.0958469,-0.39985487,3.1112323,1.3583839,0.07420552,-0.014793587,-1.7507858,0.6253358,-0.90966636,-4.293528,0.35603696,-1.3757502,5.0516386,-0.94973075,0.2348629,0.043694682,-0.09355297,-0.18768883,-0.056255303,-0.066678695,0.07499984,-0.011386821,0.10180879,-0.19815464,0.3763914,0.049293194,0.35120952,0.26729786,-0.063932866,-0.063932866,0.039569914,0.052703276,0.7259775,-0.059022546,-0.13633889,-0.10546144,-1.6246263,-0.054626226,-0.20373516,-0.18019654,-0.09583478,-0.09583478,-0.21683592,-0.109629124,0.85422367,0.06922364,-0.017885737,-0.026101716,-1.638105,-0.06810498,-0.050421238,0.03197439,0.10125145,0.10125145,-0.10380714,-0.04832146,1.0333388,0.24833876,0.16061354,0.107215375,-1.5359594,0.03404069,-0.19396192,-0.2226459,-0.011372716,-0.011372716,0.5602379,0.44515818,0.6810001,-0.10399991,0.027450183,0.03175683,-1.4836769,0.08632314
38,0.76,-0.105000004,0.0,0.0,0.0,0.0,0.0,0.0,0.0,-1.0,-0.15,0.0,0.0,-0.063932866,-0.059022546,-0.054626226,-0.09583478,0.06922364,-0.06810498,0.10125145,0.24833876,0.03404069,-0.011372716,-0.10399991,0.08632314,-0.22704336,0.039207757,0.27964723,0.27164787,0.46820045,-0.1199328,-0.96139854,-0.0024351776,-0.36807162,-0.5894864,-0.5356697,-0.5088571,3.2748303,1.3463829,-0.109494865,-0.044039823,-2.2187116,0.9408315,-0.8835289,-4.3587747,0.49710798,-1.3044605,5.4930983,-0.87268674,0.26729786,0.052703276,-0.10546144,-0.18019654,-0.109629124,-0.026101716,0.03197439,-0.04832146,0.107215375,-0.2226459,0.44515818,0.03175683,0.37003613,0.2917704,-0.061532512,-0.061532512,0.03385874,0.047064118,0.72936416,-0.05563587,-0.13191056,-0.11612791,-1.619423,-0.04942298,-0.21747306,-0.18002096,-0.09048709,-0.09048709,-0.22824171,-0.14860068,0.8585267,0.07352668,-0.047412142,0.00054934993,-1.6381956,-0.06819558,-0.054533172,-0.0022652298,0.07970859,0.07970859,-0.12061721,-0.06545541,1.0242984,0.2392984,0.16624312,0.11654578,-1.5421773,0.027822733,-0.1636203,-0.2262017,-0.025828257,-0.025828257,0.5707326,0.48597693,0.681926,-0.103074014,0.04130194,0.019160697,-1.495801,0.07419908
39,0.78,-0.105000004,0.0,0.0,0.0,0.0,0.0,0.0,0.0,-1.0,-0.15,0.0,0.0,-0.061532512,-0.05563587,-0.04942298,-0.09048709,0.07352668,-0.06819558,0.07970859,0.2392984,0.027822733,-0.025828257,-0.103074014,0.07419908,0.12001771,0.1693347,0.26016447,0.26738435,0.21515206,-0.0045287386,-1.0771431,-0.45201975,-0.3108966,-0.7227771,0.046295106,-0.60620266,3.2586741,1.182019,-0.2683383,-0.12606636,-2.4728084,1.0977882,-0.75488776,-4.126408,0.64265,-1.0349729,5.513851,-0.73079795,0.2917704,0.047064118,-0.11612791,-0.18002096,-0.14860068,0.00054934993,-0.0022652298,-0.06545541,0.11654578,-0.2262017,0.48597693,0.019160697,0.38750327,0.3241012,-0.052097514,-0.052097514,0.031055808,0.04363378,0.73506,-0.04994005,-0.12364909,-0.1300531,-1.6149793,-0.044979215,-0.21932806,-0.18732718,-0.085508436,-0.085508436,-0.22644041,-0.186477,0.8572781,0.07227808,-0.06143663,0.004658021,-1.636025,-0.0660249,-0.044157714,-0.03161794,0.05618631,0.05618631,-0.13995138,-0.08552888,1.0066841,0.22168404,0.15708111,0.13993338,-1.5467358,0.023264289,-0.14513029,-0.21818627,-0.0422255,-0.0422255,0.57299936,0.530069,0.6945851,-0.09041494,0.045409355,0.015882077,-1.5094391,0.06056094
40,0.8,-0.105000004,0.0,0.0,0.0,0.0,0.0,0.0,0.0,-1.0,-0.15,0.0,0.0,-0.052097514,-0.04994005,-0.044979215,-0.085508436,0.07227808,-0.0660249,0.05618631,0.22168404,0.023264289,-0.0422255,-0.09041494,0.06056094,0.4717498,0.2847924,0.22219059,0.24893275,-0.062429875,0.10853702,-1.176114,-0.8807193,-0.22792147,-0.81986207,0.63295394,-0.68190545,3.190495,1.0057151,-0.4318522,-0.2549488,-2.617051,1.0393937,-0.5638675,-3.7908158,0.8611989,-0.65995115,5.370714,-0.5009662,0.3241012,0.04363378,-0.1300531,-0.18732718,-0.186477,0.004658021,-0.03161794,-0.08552888,0.13993338,-0.21818627,0.530069,0.015882077,0.41025072,0.35120952,-0.035847798,-0.035847798,0.036149397,0.039569914,0.74270225,-0.04229778,-0.11343392,-0.13633889,-1.6114998,-0.041499734,-0.2161953,-0.20373516,-0.0813022,-0.0813022,-0.21810417,-0.21683592,0.85030967,0.065309644,-0.07481288,-0.017885737,-1.6321361,-0.062136054,-0.016447395,-0.050421238,0.031235445,0.031235445,-0.16466333,-0.10380714,0.98119557,0.19619554,0.14073312,0.16061354,-1.549241,0.020759106,-0.13061373,-0.19396192,-0.059555054,-0.059555054,0.58208346,0.5602379,0.7184683,-0.06653172,0.04569225,0.027450183,-1.5238941,0.04610598
41,0.8200000000000001,-0.105000004,0.0,0.0,0.0,0.0,0.0,0.0,0.0,-1.0,-0.15,0.0,0.0,-0.035847798,-0.04229778,-0.041499734,-0.0813022,0.065309644,-0.062136054,0.031235445,0.19619554,0.020759106,-0.059555054,-0.06653172,0.04610598,0.81248593,0.38211283,0.17397664,0.21031149,-0.348422,0.19444145,-1.2475433,-1.2744235,-0.12525743,-0.8664777,1.1941606,-0.7227476,2.9769979,0.80226785,-0.5137042,-0.43420178,-2.6054301,0.75387067,-0.27936536,-3.3323739,1.0153913,-0.1655756,4.9493313,-0.1567212,0.35120952,0.039569914,-0.13633889,-0.20373516,-0.21683592,-0.017885737,-0.050421238,-0.10380714,0.16061354,-0.19396192,0.5602379,0.027450183,0.4346345,0.37003613,-0.013342859,-0.013342859,0.047078095,0.03385874,0.75185764,-0.033142388,-0.10821592,-0.13191056,-1.6089768,-0.03897679,-0.20609938,-0.21747306,-0.07818419,-0.07818419,-0.20641494,-0.22824171,0.8379479,0.05294788,-0.06957725,-0.047412142,-1.6272119,-0.057211876,0.025385141,-0.054533172,0.005660059,0.005660059,-0.1897137,-0.12061721,0.9487734,0.16377336,0.11369282,0.16624312,-1.5496253,0.020374775,-0.12993981,-0.1636203,-0.076730296,-0.076730296,0.59223783,0.5707326,0.7524181,-0.032581925,0.03327493,0.04130194,-1.5384408,0.03155923
42,0.84,-0.105000004,0.0,0.0,0.0,0.0,0.0,0.0,0.0,-1.0,-0.15,0.0,0.0,-0.013342859,-0.033142388,-0.03897679,-0.07818419,0.05294788,-0.057211876,0.005660059,0.16377336,0.020374775,-0.076730296,-0.032581925,0.03155923,1.125247,0.45777065,0.12614894,0.15590099,-0.6180897,0.24620734,-1.2787694,-1.621109,-0.019214667,-0.85876197,1.6974895,-0.72733825,2.6111512,0.5722631,-0.49473038,-0.56678796,-2.3640547,0.41298908,0.112558365,-2.7747574,1.0135555,0.34810337,4.2384276,0.18913719,0.37003613,0.03385874,-0.13191056,-0.21747306,-0.22824171,-0.047412142,-0.054533172,-0.12061721,0.16624312,-0.1636203,0.5707326,0.04130194,0.4566096,0.38750327,0.0146638565,0.0146638565,0.056349427,0.031055808,0.76211274,-0.02288729,-0.11091382,-0.12364909,-1.6073111,-0.037311077,-0.1866789,-0.21932806,-0.07622942,-0.07622942,-0.1896599,-0.22644041,0.82088685,0.035886824,-0.048235327,-0.06143663,-1.6216862,-0.051686168,0.07648876,-0.044157714,-0.019524205,-0.019524205,-0.20314538,-0.13995138,0.91049236,0.12549233,0.084561944,0.15708111,-1.5481291,0.02187097,-0.13791886,-0.14513029,-0.092913486,-0.092913486,0.58741534,0.57299936,0.794881,0.00988096,0.00792704,0.045409355,-1.5525436,0.017456412
43,0.86,-0.105000004,0.0,0.0,0.0,0.0,0.0,0.0,0.0,-1.0,-0.15,0.0,0.0,0.0146638565,-0.02288729,-0.037311077,-0.07622942,0.035886824,-0.051686168,-0.019524205,0.12549233,0.02187097,-0.092913486,0.00988096,0.017456412,1.4003358,0.51275456,0.083285056,0.09773819,-0.85305417,0.27628666,-1.2592132,-1.914052,0.074811324,-0.80915964,2.1231456,-0.70513856,2.1652365,0.35826582,-0.43385825,-0.5838228,-1.9591856,0.19734213,0.5887322,-2.1704621,0.8693078,0.73015326,3.3643265,0.4365422,0.38750327,0.031055808,-0.12364909,-0.21932806,-0.22644041,-0.06143663,-0.044157714,-0.13995138,0.15708111,-0.14513029,0.57299936,0.045409355,0.47197562,0.41025072,0.047365006,0.047365006,0.06421407,0.036149397,0.7731659,-0.011834145,-0.11354059,-0.11343392,-1.6063497,-0.036349654,-0.16311413,-0.2161953,-0.07539218,-0.07539218,-0.1711812,-0.21810417,0.8000408,0.015040755,-0.028133482,-0.07481288,-1.6159798,-0.04597974,0.12726447,-0.016447395,-0.04308764,-0.04308764,-0.20511566,-0.16466333,0.86747503,0.08247501,0.0663396,0.14073312,-1.5451558,0.024844289,-0.13832077,-0.13061373,-0.107404105,-0.107404105,0.57038665,0.58208346,0.8442179,0.05921787,-0.016754052,0.04569225,-1.5657688,0.0042312145
44,0.88,-0.105000004,0.0,0.0,0.0,0.0,0.0,0.0,0.0,-1.0,-0.15,0.0,0.0,0.047365006,-0.011834145,-0.036349654,-0.07539218,0.015040755,-0.04597974,-0.04308764,0.08247501,0.024844289,-0.107404105,0.05921787,0.0042312145,1.6350574,0.552656,0.04807146,0.041862123,-1.0423037,0.2853199,-1.1781718,-2.1508677,0.14866361,-0.72453105,2.4668455,-0.6612581,1.706637,0.20221338,-0.349912,-0.5442186,-1.4643333,-0.005487251,1.146909,-1.5614728,0.6540236,1.0358213,2.475758,0.62846726,0.41025072,0.036149397,-0.11343392,-0.2161953,-0.21810417,-0.07481288,-0.016447395,-0.16466333,0.14073312,-0.13061373,0.58208346,0.04569225,0.47738475,0.4346345,0.08386957,0.08386957,0.066492535,0.047078095,0.78479826,-0.00020176172,-0.112133175,-0.10821592,-1.6060046,-0.036004543,-0.13402995,-0.20609938,-0.07548184,-0.07548184,-0.15520921,-0.20641494,0.7764531,-0.008546948,-0.012990773,-0.06957725,-1.6102006,-0.04020059,0.1795992,0.025385141,-0.063687935,-0.063687935,-0.19588046,-0.1897137,0.82093394,0.03593391,0.061700445,0.11369282,-1.5413071,0.02869296,-0.12714471,-0.12993981,-0.1198123,-0.1198123,0.5494497,0.59223783,0.89866877,0.11366874,-0.037949238,0.03327493,-1.5779357,-0.007935643
45,0.9,-0.105000004,0.0,0.0,0.0,0.0,0.0,0.0,0.0,-1.0,-0.15,0.0,0.0,0.08386957,-0.00020176172,-0.036004543,-0.07548184,-0.008546948,-0.04020059,-0.063687935,0.03593391,0.02869296,-0.1198123,0.11366874,-0.007935643,1.8252282,0.58162034,0.017254686,-0.0044829957,-1.1793857,0.2889597,-1.0300149,-2.3270552,0.19243377,-0.6204098,2.722545,-0.6083452,1.2225487,0.089043096,-0.29828113,-0.43884405,-0.92487544,-0.05788814,1.7370955,-0.9291247,0.35423782,1.1876833,1.5579304,0.69734204,0.4346345,0.047078095,-0.10821592,-0.20609938,-0.20641494,-0.06957725,0.025385141,-0.1897137,0.11369282,-0.12993981,0.59223783,0.03327493,0.465757,0.4566096,0.12317084,0.12317084,0.07349151,0.056349427,0.7967571,0.011757076,-0.105304465,-0.11091382,-1.6062993,-0.03629923,-0.09689318,-0.1866789,-0.07613846,-0.07613846,-0.14682974,-0.1896599,0.7512837,-0.03371632,-0.0076176934,-0.048235327,-1.6041957,-0.03419566,0.2275896,0.07648876,-0.079996385,-0.079996385,-0.17759924,-0.20314538,0.7723197,-0.012680352,0.07385835,0.084561944,-1.5372161,0.032783985,-0.101188995,-0.13791886,-0.1299728,-0.1299728,0.5307681,0.58741534,0.95615834,0.17115831,-0.046966027,0.00792704,-1.5891135,-0.019113421
46,0.92,-0.105000004,0.0,0.0,0.0,0.0,0.0,0.0,0.0,-1.0,-0.15,0.0,0.0,0.12317084,0.011757076,-0.03629923,-0.07613846,-0.03371632,-0.03419566,-0.079996385,-0.012680352,0.032783985,-0.1299728,0.17115831,-0.019113421,1.9650632,0.59794164,-0.014731782,-0.032831024,-1.2584692,0.30024433,-0.8154224,-2.430713,0.204553,-0.5080247,2.87448,-0.5588894,0.6996118,-0.036288857,-0.2991565,-0.25880036,-0.34858388,0.011125088,2.2995634,-0.20692101,0.04967625,1.2302263,0.5235497,0.64867496,0.4566096,0.056349427,-0.11091382,-0.1866789,-0.1896599,-0.048235327,0.07648876,-0.20314538,0.084561944,-0.13791886,0.58741534,0.00792704,0.43905824,0.47197562,0.16411719,0.16411719,0.08773597,0.06421407,0.80876917,0.02376914,-0.100156836,-0.11354059,-1.6072342,-0.037234187,-0.06224839,-0.16311413,-0.07693564,-0.07693564,-0.14931148,-0.1711812,0.72571284,-0.05928719,-0.01818499,-0.028133482,-1.597847,-0.027846932,0.26764193,0.12726447,-0.09089329,-0.09089329,-0.14134645,-0.20511566,0.72326005,-0.06173998,0.10504036,0.0663396,-1.5333172,0.036682844,-0.060142867,-0.13832077,-0.13767928,-0.13767928,0.514372,0.57038665,1.0144225,0.22942251,-0.041835506,-0.016754052,-1.5993888,-0.029388785
47,0.9400000000000001,-0.105000004,0.0,0.0,0.0,0.0,0.0,0.0,0.0,-1.0,-0.15,0.0,0.0,0.16411719,0.02376914,-0.037234187,-0.07693564,-0.05928719,-0.027846932,-0.09089329,-0.06173998,0.036682844,-0.13767928,0.22942251,-0.029388785,2.0473173,0.60060453,-0.046748944,-0.039859243,-1.2785447,0.31743845,-0.54484546,-2.4529812,0.19494256,-0.3853236,2.9132118,-0.51376677,0.12627134,-0.16689563,-0.28920373,-0.054013155,0.21841773,0.06176455,2.744831,0.5734049,-0.15368085,1.288964,-0.56427383,0.59307075,0.47197562,0.06421407,-0.11354059,-0.16311413,-0.1711812,-0.028133482,0.12726447,-0.20511566,0.0663396,-0.13832077,0.57038665,-0.016754052,0.41139847,0.47738475,0.20540261,0.20540261,0.08927795,0.066492535,0.8204839,0.035483897,-0.10348502,-0.112133175,-1.6087251,-0.03872502,-0.04187006,-0.13402995,-0.07737551,-0.07737551,-0.15725411,-0.15520921,0.70083433,-0.08416569,-0.04221735,-0.012990773,-1.5911324,-0.02113235,0.29429963,0.1795992,-0.09546318,-0.09546318,-0.08356203,-0.19588046,0.67549497,-0.10950506,0.14148264,0.061700445,-1.5297999,0.040200114,-0.021532964,-0.12714471,-0.14262901,-0.14262901,0.49710536,0.5494497,1.0712233,0.28622323,-0.031039966,-0.037949238,-1.6088171,-0.038817048
48,0.96,-0.105000004,0.0,0.0,0.0,0.0,0.0,0.0,0.0,-1.0,-0.15,0.0,0.0,0.20540261,0.035483897,-0.03872502,-0.07737551,-0.08416569,-0.02113235,-0.09546318,-0.10950506,0.040200114,-0.14262901,0.28622323,-0.038817048,2.0642717,0.5857377,-0.07454341,-0.021993218,-1.2439253,0.33572906,-0.22849458,-2.3882525,0.17586316,-0.24748635,2.840035,-0.47141582,-0.4994997,-0.32867074,-0.24019411,0.17676511,0.7269403,0.066327356,3.0784516,1.3791639,-0.23753066,1.3886497,-1.6039927,0.55318606,0.47738475,0.066492535,-0.112133175,-0.13402995,-0.15520921,-0.012990773,0.1795992,-0.19588046,0.061700445,-0.12714471,0.5494497,-0.037949238,0.39266282,0.465757,0.24550301,0.24550301,0.07647966,0.07349151,0.8316533,0.04665327,-0.10928863,-0.105304465,-1.6105871,-0.040587068,-0.031767353,-0.09689318,-0.076867655,-0.076867655,-0.16224907,-0.14682974,0.67754376,-0.10745627,-0.06406762,-0.0076176934,-1.5841992,-0.014199138,0.31669375,0.2275896,-0.09310832,-0.09310832,-0.012484202,-0.17759924,0.63078076,-0.15421927,0.17033474,0.07385835,-1.5265632,0.043436885,-0.0075194496,-0.101188995,-0.14438614,-0.14438614,0.47973144,0.5307681,1.1245171,0.33951706,-0.01909746,-0.046966027,-1.6172833,-0.04728329
49,0.98,-0.105000004,0.0,0.0,0.0,0.0,0.0,0.0,0.0,-1.0,-0.15,0.0,0.0,0.24550301,0.04665327,-0.040587068,-0.076867655,-0.10745627,-0.014199138,-0.09310832,-0.15421927,0.043436885,-0.14438614,0.33951706,-0.04728329,2.0050194,0.5584698,-0.09309979,0.025392717,-1.1645278,0.3466602,0.117742896,-2.235711,0.16183643,-0.087856814,2.6646905,-0.4233106,-1.2045017,-0.43775558,-0.14649287,0.44204074,1.1269264,-0.0070855855,3.2515786,2.1645703,-0.18504229,1.5445949,-2.5184739,0.5924594,0.465757,0.07349151,-0.105304465,-0.09689318,-0.14682974,-0.0076176934,0.2275896,-0.17759924,0.07385835,-0.101188995,0.5307681,-0.046966027,0.379353,0.43905824,0.2827672,0.2827672,0.054082915,0.08773597,0.84217507,0.05717504,-0.116432905,-0.100156836,-1.6126597,-0.04265964,-0.026616253,-0.06224839,-0.0749214,-0.0749214,-0.16088077,-0.14931148,0.6564674,-0.12853265,-0.07407308,-0.01818499,-1.5774492,-0.00744915,0.33410916,0.26764193,-0.08360947,-0.08360947,0.055137154,-0.14134645,0.5909757,-0.19402432,0.19566399,0.10504036,-1.5231977,0.0468024,-0.015590753,-0.060142867,-0.14239736,-0.14239736,0.4633054,0.514372,1.1725116,0.38751155,-0.009381732,-0.041835506,-1.6244825,-0.05448246
50,1.0,-0.105000004,0.0,0.0,0.0,0.0,0.0,0.0,0.0,-1.0,-0.15,0.0,0.0,0.2827672,0.05717504,-0.04265964,-0.0749214,-0.12853265,-0.00744915,-0.08360947,-0.19402432,0.0468024,-0.14239736,0.38751155,-0.05448246,1.8632102,0.52608985,-0.103630915,0.097312614,-1.0538205,0.3374979,0.4749426,-1.9902519,0.16827784,0.09943953,2.3997264,-0.35996026,-1.9434144,-0.47595748,-0.06688457,0.6520989,1.3889412,-0.19504175,3.2414157,2.9687436,0.007345146,1.7474949,-3.2850723,0.71701515,0.43905824,0.08773597,-0.100156836,-0.06224839,-0.14931148,-0.01818499,0.26764193,-0.14134645,0.10504036,-0.060142867,0.514372,-0.041835506,0.36259133,0.41139847,0.31570202,0.31570202,0.028168917,0.08927795,0.8517696,0.0667696,-0.12663516,-0.10348502,-1.6149193,-0.044919252,-0.025369462,-0.04187006,-0.0713449,-0.0713449,-0.14777112,-0.15725411,0.6380418,-0.14695823,-0.07229413,-0.04221735,-1.5714738,-0.0014737844,0.35008684,0.29429963,-0.067201264,-0.067201264,0.11463187,-0.08356203,0.5580327,-0.22696733,0.21372291,0.14148264,-1.5192343,0.050765753,-0.03536147,-0.021532964,-0.13629583,-0.13629583,0.4399315,0.49710536,1.2136596,0.42865962,4.2716478e-05,-0.031039966,-1.630075,-0.060074925
51,1.02,-0.105000004,0.0,0.0,0.0,0.0,0.0,0.0,0.0,-1.0,-0.15,0.0,0.0,0.31570202,0.0667696,-0.044919252,-0.0713449,-0.14695823,-0.0014737844,-0.067201264,-0.22696733,0.050765753,-0.13629583,0.42865962,-0.060074925,1.6467409,0.4797277,-0.112982035,0.17882517,-0.9212805,0.29876783,0.8204103,-1.64715,0.19816618,0.30507696,2.0574057,-0.2796223,-2.5834148,-0.5939536,-0.052681804,0.71714526,1.5539391,-0.46354142,3.0194123,3.7865562,0.2205256,1.855931,-3.910415,0.85269034,0.41139847,0.08927795,-0.10348502,-0.04187006,-0.15725411,-0.04221735,0.29429963,-0.08356203,0.14148264,-0.021532964,0.49710536,-0.031039966,0.33862823,0.39266282,0.34317023,0.34317023,0.0034848303,0.07647966,0.8599715,0.0749715,-0.1378796,-0.10928863,-1.6173772,-0.04737711,-0.025638577,-0.031767353,-0.06617246,-0.06617246,-0.12789987,-0.16224907,0.6226441,-0.1623559,-0.06836232,-0.06406762,-1.5667752,0.0032248497,0.36245182,0.31669375,-0.044395927,-0.044395927,0.16558315,-0.012484202,0.53380007,-0.25119996,0.22502883,0.17033474,-1.5143683,0.055631757,-0.05189358,-0.0075194496,-0.12625821,-0.12625821,0.40701354,0.47973144,1.246709,0.46170896,0.012389416,-0.01909746,-1.633771,-0.06377089
52,1.04,-0.105000004,0.0,0.0,0.0,0.0,0.0,0.0,0.0,-1.0,-0.15,0.0,0.0,0.34317023,0.0749715,-0.04737711,-0.06617246,-0.1623559,0.0032248497,-0.044395927,-0.25119996,0.055631757,-0.12625821,0.46170896,-0.06377089,1.3734109,0.41009367,-0.12289308,0.25862187,-0.76988256,0.2349334,1.1402669,-1.2116321,0.24330051,0.5018809,1.6524652,-0.18479934,-3.0361264,-0.7927534,-0.054829247,0.6753096,1.684643,-0.6816051,2.6737514,4.5251417,0.35092014,1.7090353,-4.3757243,0.9599534,0.39266282,0.07647966,-0.10928863,-0.031767353,-0.16224907,-0.06406762,0.31669375,-0.012484202,0.17033474,-0.0075194496,0.47973144,-0.01909746,0.31182152,0.379353,0.36435324,0.36435324,-0.017017469,0.054082915,0.86622953,0.08122951,-0.14598207,-0.116432905,-1.620059,-0.05005896,-0.024114694,-0.026616253,-0.059566986,-0.059566986,-0.10911737,-0.16088077,0.61063766,-0.17436236,-0.06793284,-0.07407308,-1.5635998,0.0064002275,0.36747086,0.33410916,-0.015964441,-0.015964441,0.20197456,0.055137154,0.51969963,-0.2653004,0.22982502,0.19566399,-1.5083952,0.061604857,-0.058984313,-0.015590753,-0.11293166,-0.11293166,0.37343395,0.4633054,1.2707441,0.48574406,0.028331662,-0.009381732,-1.6353916,-0.06539154
53,1.06,-0.105000004,0.0,0.0,0.0,0.0,0.0,0.0,0.0,-1.0,-0.15,0.0,0.0,0.36435324,0.08122951,-0.05005896,-0.059566986,-0.17436236,0.0064002275,-0.015964441,-0.2653004,0.061604857,-0.11293166,0.48574406,-0.06539154,1.0591505,0.3129009,-0.13409138,0.3302737,-0.6003236,0.15876852,1.4215744,-0.7050209,0.2986558,0.66632736,1.201752,-0.08103137,-3.3244033,-1.0234597,-0.06347418,0.57500494,1.8029131,-0.7743725,2.2175171,5.038414,0.4303058,1.3490169,-4.666338,1.0117261,0.379353,0.054082915,-0.116432905,-0.026616253,-0.16088077,-0.07407308,0.33410916,0.055137154,0.19566399,-0.015590753,0.4633054,-0.009381732,0.2842162,0.36259133,0.37861925,0.37861925,-0.031137604,0.028168917,0.870026,0.085025966,-0.14753646,-0.12663516,-1.623031,-0.053030968,-0.021187853,-0.025369462,-0.051791552,-0.051791552,-0.09741849,-0.14777112,0.6024468,-0.18255323,-0.07168823,-0.07229413,-1.5619447,0.008055329,0.3637306,0.35008684,0.017157722,0.017157722,0.22068593,0.11463187,0.51662797,-0.26837206,0.22256038,0.21372291,-1.5012726,0.06872749,-0.061411977,-0.03536147,-0.097223416,-0.097223416,0.3428408,0.4399315,1.2850724,0.5000724,0.047645163,4.2716478e-05,-1.634838,-0.06483793
54,1.08,-0.105000004,0.0,0.0,0.0,0.0,0.0,0.0,0.0,-1.0,-0.15,0.0,0.0,0.37861925,0.085025966,-0.053030968,-0.051791552,-0.18255323,0.008055329,0.017157722,-0.26837206,0.06872749,-0.097223416,0.5000724,-0.06483793,0.7133008,0.18982378,-0.14860053,0.38877162,-0.4095446,0.082754344,1.6561081,-0.1535837,0.3561336,0.7854125,0.7164191,0.027680807,-3.5138278,-1.2299759,-0.09028485,0.43132335,1.9434551,-0.74861634,1.698117,5.2878,0.43207684,0.87997663,-4.839916,1.0239079,0.36259133,0.028168917,-0.12663516,-0.025369462,-0.14777112,-0.07229413,0.35008684,0.11463187,0.21372291,-0.03536147,0.4399315,4.2716478e-05,0.25273,0.33862823,0.3854742,0.3854742,-0.043728843,0.0034848303,0.87096757,0.08596754,-0.14252008,-0.1378796,-1.6263635,-0.056363463,-0.020981442,-0.025638577,-0.04315778,-0.04315778,-0.08872221,-0.12789987,0.59846073,-0.18653929,-0.080742784,-0.06836232,-1.561724,0.008276105,0.3516998,0.36245182,0.05387396,0.05387396,0.2312002,0.16558315,0.5249471,-0.26005292,0.20401362,0.22502883,-1.4931048,0.07689524,-0.05779585,-0.05189358,-0.08001973,-0.08001973,0.306535,0.40701354,1.2891943,0.5041943,0.069561355,0.012389416,-1.632039,-0.0620389
55,1.1,-0.105000004,0.0,0.0,0.0,0.0,0.0,0.0,0.0,-1.0,-0.15,0.0,0.0,0.3854742,0.08596754,-0.056363463,-0.04315778,-0.18653929,0.008276105,0.05387396,-0.26005292,0.07689524,-0.08001973,0.5041943,-0.0620389,0.34274754,0.047078922,-0.16662465,0.43168867,-0.19930209,0.011038311,1.8358119,0.41595727,0.40838593,0.8601845,0.20609313,0.139949,-3.629935,-1.3711413,-0.11790915,0.26957148,2.0610805,-0.6848347,1.1197253,5.277533,0.36571327,0.4350748,-4.9140472,1.0217632,0.33862823,0.0034848303,-0.1378796,-0.025638577,-0.12789987,-0.06836232,0.36245182,0.16558315,0.22502883,-0.05189358,0.40701354,0.012389416,0.2190576,0.31182152,0.38464037,0.38464037,-0.055850834,-0.017017469,0.86883885,0.08383882,-0.13403171,-0.14598207,-1.6300615,-0.060061455,-0.030025277,-0.024114694,-0.03396048,-0.03396048,-0.07826625,-0.10911737,0.5988974,-0.18610263,-0.09606332,-0.06793284,-1.562866,0.00713408,0.33657947,0.36747086,0.09290995,0.09290995,0.24358888,0.20197456,0.54440355,-0.24059647,0.1787565,0.22982502,-1.484129,0.0858711,-0.048876923,-0.058984313,-0.062059343,-0.062059343,0.2617188,0.37343395,1.2829509,0.49795085,0.09348642,0.028331662,-1.6269413,-0.05694127
56,1.12,-0.105000004,0.0,0.0,0.0,0.0,0.0,0.0,0.0,-1.0,-0.15,0.0,0.0,0.38464037,0.08383882,-0.060061455,-0.03396048,-0.18610263,0.00713408,0.09290995,-0.24059647,0.0858711,-0.062059343,0.49795085,-0.05694127,-0.041691363,-0.10643707,-0.1848975,0.4598649,0.02183196,-0.057101645,1.9517996,0.9728236,0.44879428,0.8980194,-0.31217527,0.25487918,-3.6388278,-1.4243424,-0.11442419,0.120517686,2.093787,-0.6290572,0.47730798,4.978928,0.24026541,0.07206531,-4.8236547,1.0102748,0.31182152,-0.017017469,-0.14598207,-0.024114694,-0.10911737,-0.06793284,0.36747086,0.20197456,0.22982502,-0.058984313,0.37343395,0.028331662,0.18693501,0.2842162,0.3760872,0.3760872,-0.061844416,-0.031137604,0.8636355,0.078635454,-0.1252849,-0.14753646,-1.6340132,-0.06401312,-0.050271068,-0.021187853,-0.024475317,-0.024475317,-0.068240345,-0.09741849,0.6037088,-0.18129122,-0.11733096,-0.07168823,-1.5653262,0.0046738386,0.3200432,0.3637306,0.13284071,0.13284071,0.25366053,0.22068593,0.57411724,-0.21088278,0.14882386,0.22256038,-1.4747888,0.09521127,-0.037504915,-0.061411977,-0.043993667,-0.043993667,0.21593426,0.3428408,1.2665706,0.48157054,0.118638486,0.047645163,-1.6195142,-0.049514174
57,1.1400000000000001,-0.105000004,0.0,0.0,0.0,0.0,0.0,0.0,0.0,-1.0,-0.15,0.0,0.0,0.3760872,0.078635454,-0.06401312,-0.024475317,-0.18129122,0.0046738386,0.13284071,-0.21088278,0.09521127,-0.043993667,0.48157054,-0.049514174,-0.4276584,-0.2601674,-0.19758351,0.47425815,0.24056983,-0.12301163,1.9965382,1.4856856,0.46700913,0.9032838,-0.81901526,0.37135732,-3.5298362,-1.3771843,-0.057290398,-0.015026808,2.0010273,-0.586781,-0.21387553,4.3967695,0.023598408,-0.23903903,-4.5528946,0.98770887,0.2842162,-0.031137604,-0.14753646,-0.021187853,-0.09741849,-0.07168823,0.3637306,0.22068593,0.22256038,-0.061411977,0.3428408,0.047645163,0.16130066,0.25273,0.35997057,0.35997057,-0.057085477,-0.043728843,0.8554763,0.07047629,-0.120028816,-0.14252008,-1.6379992,-0.067999125,-0.081257254,-0.020981442,-0.015016906,-0.015016906,-0.05944549,-0.08872221,0.6126614,-0.1723386,-0.14527452,-0.080742784,-1.5691049,0.00089514256,0.29968485,0.3516998,0.17215122,0.17215122,0.25954095,0.2312002,0.61279273,-0.1722073,0.11684945,0.20401362,-1.4656981,0.10430193,-0.025700781,-0.05779585,-0.02634821,-0.02634821,0.1762049,0.306535,1.2405035,0.45550352,0.14328659,0.069561355,-1.609761,-0.039760947
58,1.16,-0.105000004,0.0,0.0,0.0,0.0,0.0,0.0,0.0,-1.0,-0.15,0.0,0.0,0.35997057,0.07047629,-0.067999125,-0.015016906,-0.1723386,0.00089514256,0.17215122,-0.1722073,0.10430193,-0.02634821,0.45550352,-0.039760947,-0.805831,-0.4079588,-0.19929948,0.4729206,0.4476295,-0.18893346,1.965526,1.9337739,0.45453152,0.8822728,-1.3033494,0.48766112,-3.3347735,-1.273472,0.047474217,-0.16404136,1.8238251,-0.5657982,-0.92358416,3.6380317,-0.26398796,-0.48193184,-4.184102,0.94883454,0.25273,-0.043728843,-0.14252008,-0.020981442,-0.08872221,-0.080742784,0.3516998,0.2312002,0.20401362,-0.05779585,0.306535,0.069561355,0.13592601,0.2190576,0.33664563,0.33664563,-0.05296132,-0.055850834,0.84457624,0.059576213,-0.12238662,-0.13403171,-1.6417544,-0.07175434,-0.12105441,-0.030025277,-0.0060312785,-0.0060312785,-0.0441882,-0.07826625,0.625429,-0.15957105,-0.17962095,-0.09606332,-1.5742604,-0.0042603016,0.27326334,0.33657947,0.20937264,0.20937264,0.2750812,0.24358888,0.65894246,-0.12605757,0.08928624,0.1787565,-1.4575396,0.112460494,-0.011260513,-0.048876923,-0.009523917,-0.009523917,0.1329949,0.2617188,1.2053514,0.42035133,0.16407809,0.09348642,-1.5977273,-0.027727246
59,1.18,-0.105000004,0.0,0.0,0.0,0.0,0.0,0.0,0.0,-1.0,-0.15,0.0,0.0,0.33664563,0.059576213,-0.07175434,-0.0060312785,-0.15957105,-0.0042603016,0.20937264,-0.12605757,0.112460494,-0.009523917,0.42035133,-0.027727246,-1.1662463,-0.54500365,-0.18776134,0.4492814,0.6383768,-0.2577697,1.8610713,2.307488,0.40792704,0.8412147,-1.7576125,0.60168463,-3.050746,-1.1275245,0.16969587,-0.36834246,1.6078184,-0.5714573,-1.5878623,2.8118887,-0.5732796,-0.65924007,-3.753064,0.8906841,0.2190576,-0.055850834,-0.13403171,-0.030025277,-0.07826625,-0.09606332,0.33657947,0.24358888,0.1787565,-0.048876923,0.2617188,0.09348642,0.10615374,0.18693501,0.30670527,0.30670527,-0.059169166,-0.061844416,0.83132523,0.046325207,-0.13006708,-0.1252849,-1.6450303,-0.07503021,-0.15915895,-0.050271068,0.0018937318,0.0018937318,-0.011834923,-0.068240345,0.64157254,-0.14342749,-0.2122046,-0.11733096,-1.580899,-0.010898948,0.240735,0.3200432,0.24315377,0.24315377,0.29788223,0.25366053,0.7108771,-0.074122906,0.07665415,0.14882386,-1.4510065,0.11899352,0.006413814,-0.037504915,0.0061638486,0.0061638486,0.08578691,0.21593426,1.1619604,0.37696034,0.17591351,0.118638486,-1.5835098,-0.01350975
60,1.2,-0.105000004,0.0,0.0,0.0,0.0,0.0,0.0,0.0,-1.0,-0.15,0.0,0.0,0.30670527,0.046325207,-0.07503021,0.0018937318,-0.14342749,-0.010898948,0.24315377,-0.074122906,0.11899352,0.0061638486,0.37696034,-0.01350975,-1.497019,-0.662551,-0.16379426,0.39625052,0.8071794,-0.33192956,1.6890562,2.596734,0.32665306,0.7843883,-2.1695466,0.7108748,-2.6632946,-0.9046836,0.28010118,-0.6305935,1.345328,-0.5983003,-2.1746426,1.9168842,-0.8766311,-0.79085505,-3.2191176,0.80982673,0.18693501,-0.061844416,-0.1252849,-0.050271068,-0.068240345,-0.11733096,0.3200432,0.25366053,0.14882386,-0.037504915,0.21593426,0.118638486,0.076391995,0.16130066,0.27102816,0.27102816,-0.0733583,-0.057085477,0.816341,0.031340957,-0.13778795,-0.120028816,-1.6476618,-0.07766175,-0.18378474,-0.081257254,0.008061776,0.008061776,0.029912729,-0.05944549,0.6605475,-0.12445253,-0.23185855,-0.14527452,-1.5891813,-0.019181252,0.20338348,0.29968485,0.27225986,0.27225986,0.3111928,0.25954095,0.76673967,-0.01826036,0.084793724,0.11684945,-1.4467384,0.12326169,0.02014291,-0.025700781,0.02045877,0.02045877,0.050826333,0.1762049,1.1114955,0.32649547,0.17463268,0.14328659,-1.5672783,0.0027217865
61,1.22,-0.105000004,0.0,0.0,0.0,0.0,0.0,0.0,0.0,-1.0,-0.15,0.0,0.0,0.27102816,0.031340957,-0.07766175,0.008061776,-0.12445253,-0.019181252,0.27225986,-0.01826036,0.12326169,0.02045877,0.32649547,0.0027217865,-1.7838559,-0.7492122,-0.1315792,0.3084022,0.948748,-0.4141143,1.4553052,2.7931268,0.21341032,0.7147461,-2.523242,0.81157583,-2.1541173,-0.5835333,0.34814778,-0.93324757,1.0413024,-0.64823806,-2.6863315,0.97192967,-1.1440969,-0.89031965,-2.5526671,0.69695526,0.16130066,-0.057085477,-0.120028816,-0.081257254,-0.05944549,-0.14527452,0.29968485,0.25954095,0.11684945,-0.025700781,0.1762049,0.14328659,0.048805483,0.13592601,0.2306368,0.2306368,-0.09001068,-0.05296132,0.80025566,0.01525563,-0.14545752,-0.12238662,-1.6496348,-0.079634786,-0.19358459,-0.12105441,0.011726571,0.011726571,0.06652044,-0.0441882,0.6818492,-0.103150845,-0.2296181,-0.17962095,-1.5993096,-0.029309511,0.16913375,0.27326334,0.29557055,0.29557055,0.3112846,0.2750812,0.8247947,0.039794683,0.1049758,0.08928624,-1.4451994,0.12480068,0.021786358,-0.011260513,0.033204097,0.033204097,0.033886515,0.1329949,1.055234,0.27023393,0.16617465,0.16407809,-1.5493202,0.020679832
62,1.24,-0.105000004,0.0,0.0,0.0,0.0,0.0,0.0,0.0,-1.0,-0.15,0.0,0.0,0.2306368,0.01525563,-0.079634786,0.011726571,-0.103150845,-0.029309511,0.29557055,0.039794683,0.12480068,0.033204097,0.27023393,0.020679832,-2.0195675,-0.8042662,-0.0986508,0.18323974,1.0650841,-0.50641537,1.1655349,2.902752,0.07695016,0.6372664,-2.8130767,0.8979046,-1.5929972,-0.2656478,0.34438843,-1.2476803,0.7643663,-0.714808,-3.1257896,0.112558365,-1.3209953,-0.9399829,-1.8532455,0.53279436,0.13592601,-0.05296132,-0.12238662,-0.12105441,-0.0441882,-0.17962095,0.27326334,0.2750812,0.08928624,-0.011260513,0.1329949,0.16407809,0.021900453,0.10615374,0.1865831,0.1865831,-0.11392213,-0.059169166,0.7835397,-0.0014603138,-0.14978313,-0.13006708,-1.651042,-0.08104193,-0.18964174,-0.15915895,0.012286333,0.012286333,0.09430741,-0.011834923,0.7051972,-0.07980281,-0.21053609,-0.2122046,-1.6113888,-0.04138875,0.14604864,0.240735,0.3121092,0.3121092,0.30193058,0.29788223,0.88343966,0.098439634,0.12296043,0.07665415,-1.4465045,0.12349558,0.0056106825,0.006413814,0.04435225,0.04435225,0.031169007,0.08578691,0.9945106,0.20951056,0.15427478,0.17591351,-1.5301071,0.039892912
63,1.26,-0.105000004,0.0,0.0,0.0,0.0,0.0,0.0,0.0,-1.0,-0.15,0.0,0.0,0.1865831,-0.0014603138,-0.08104193,0.012286333,-0.07980281,-0.04138875,0.3121092,0.098439634,0.12349558,0.04435225,0.20951056,0.039892912,-2.202685,-0.83579725,-0.070356295,0.027988091,1.1674032,-0.60396314,0.8269332,2.9322486,-0.065255076,0.55740756,-3.0361676,0.9606525,-1.0347573,-0.03208976,0.29131216,-1.4838469,0.59846354,-0.733436,-3.481334,-0.6581009,-1.3300681,-0.93702924,-1.1477897,0.28869575,0.10615374,-0.059169166,-0.13006708,-0.15915895,-0.011834923,-0.2122046,0.240735,0.29788223,0.07665415,0.006413814,0.08578691,0.17591351,-0.005254537,0.076391995,0.1399837,0.1399837,-0.12992895,-0.0733583,0.76653254,-0.018467486,-0.14499214,-0.13778795,-1.65199,-0.08199,-0.177079,-0.18378474,0.009484389,0.009484389,0.11948411,0.029912729,0.73041016,-0.054589868,-0.19426653,-0.23185855,-1.6252494,-0.055249333,0.13269734,0.20338348,0.32108757,0.32108757,0.28219345,0.3111928,0.9409814,0.15598136,0.13024478,0.084793724,-1.4503394,0.119660616,-0.022059195,0.02014291,0.053846005,0.053846005,0.03965978,0.050826333,0.9309323,0.14593226,0.14489198,0.17463268,-1.5103372,0.05966282
64,1.28,-0.105000004,0.0,0.0,0.0,0.0,0.0,0.0,0.0,-1.0,-0.15,0.0,0.0,0.1399837,-0.018467486,-0.08199,0.009484389,-0.054589868,-0.055249333,0.32108757,0.15598136,0.119660616,0.053846005,0.14593226,0.05966282,-2.3299701,-0.85035753,-0.047401838,-0.14009723,1.2606478,-0.69302976,0.4489186,2.877087,-0.1917502,0.4746879,-3.178915,0.98849744,-0.4636181,0.13379216,0.23323652,-1.5519795,0.48241568,-0.6243637,-3.7347927,-1.4447024,-1.1403444,-0.9377368,-0.3388481,-0.051791526,0.076391995,-0.0733583,-0.13778795,-0.18378474,0.029912729,-0.23185855,0.20338348,0.3111928,0.084793724,0.02014291,0.050826333,0.17463268,-0.017055087,0.048805483,0.092015676,0.092015676,-0.12735146,-0.09001068,0.74952656,-0.035473466,-0.13691689,-0.14545752,-1.6525943,-0.082594275,-0.16001326,-0.19358459,0.0034216875,0.0034216875,0.13418439,0.06652044,0.75717366,-0.027826369,-0.18025503,-0.2296181,-1.6403228,-0.07032275,0.12261388,0.16913375,0.32204837,0.32204837,0.24883936,0.3112846,0.9956352,0.21063519,0.12972553,0.1049758,-1.4561322,0.11386788,-0.052810073,0.021786358,0.061490584,0.061490584,0.065620914,0.033886515,0.86640525,0.08140522,0.12969981,0.16617465,-1.4908062,0.07919383
65,1.3,-0.105000004,0.0,0.0,0.0,0.0,0.0,0.0,0.0,-1.0,-0.15,0.0,0.0,0.092015676,-0.035473466,-0.082594275,0.0034216875,-0.027826369,-0.07032275,0.32204837,0.21063519,0.11386788,0.061490584,0.08140522,0.07919383,-2.3984013,-0.8503002,-0.030213745,-0.30313507,1.3381755,-0.7536738,0.048039556,2.7326903,-0.28963912,0.38222897,-3.2263517,0.9765518,0.11739369,0.2726404,0.17295523,-1.4518561,0.30829772,-0.33494365,-3.8237236,-2.2462308,-0.8372609,-1.000673,0.58178484,-0.42598,0.048805483,-0.09001068,-0.14545752,-0.19358459,0.06652044,-0.2296181,0.16913375,0.3112846,0.1049758,0.021786358,0.033886515,0.16617465,-0.005230725,0.021900453,0.043851957,0.043851957,-0.11287197,-0.11392213,0.73268324,-0.052316785,-0.12736139,-0.14978313,-1.6529219,-0.08292186,-0.14234842,-0.18964174,-0.005481641,-0.005481641,0.12342414,0.09430741,0.78499836,-1.66893e-06,-0.15769342,-0.21053609,-1.6557609,-0.08576083,0.10253838,0.14604864,0.31499234,0.31499234,0.20066892,0.30193058,1.0456469,0.26064688,0.12631029,0.12296043,-1.4633117,0.10668838,-0.08021483,0.0056106825,0.066875,0.066875,0.11670298,0.031169007,0.8029983,0.017998278,0.10535818,0.15427478,-1.4723176,0.097682476
66,1.32,-0.105000004,0.0,0.0,0.0,0.0,0.0,0.0,0.0,-1.0,-0.15,0.0,0.0,0.043851957,-0.052316785,-0.08292186,-0.005481641,-1.66893e-06,-0.08576083,0.31499234,0.26064688,0.10668838,0.066875,0.017998278,0.097682476,-2.408186,-0.84216535,-0.016378727,-0.4451664,1.3912349,-0.7719025,-0.35280088,2.500584,-0.3589775,0.26922113,-3.1703472,0.9244338,0.6776653,0.34677428,0.13667409,-1.2068446,0.058868647,0.07383654,-3.695088,-3.0051975,-0.5438427,-1.1597251,1.5465536,-0.7909389,0.021900453,-0.11392213,-0.14978313,-0.18964174,0.09430741,-0.21053609,0.14604864,0.30193058,0.12296043,0.0056106825,0.031169007,0.15427478,0.025052369,-0.005254537,-0.003390912,-0.003390912,-0.09569753,-0.12992895,0.71627736,-0.068722665,-0.118659765,-0.14499214,-1.6528995,-0.08289945,-0.1253555,-0.177079,-0.016597655,-0.016597655,0.08424659,0.11948411,0.81334364,0.028343618,-0.12157012,-0.19426653,-1.6707909,-0.10079086,0.06496027,0.13269734,0.30033252,0.30033252,0.14631723,0.28219345,1.0893323,0.30433232,0.12261701,0.13024478,-1.4714624,0.09853768,-0.10551182,-0.022059195,0.06949726,0.06949726,0.18094665,0.03965978,0.7428203,-0.042179704,0.07562414,0.14489198,-1.4555609,0.11443913
67,1.34,-0.105000004,0.0,0.0,0.0,0.0,0.0,0.0,0.0,-1.0,-0.15,0.0,0.0,-0.003390912,-0.068722665,-0.08289945,-0.016597655,0.028343618,-0.10079086,0.30033252,0.30433232,0.09853768,0.06949726,-0.042179704,0.11443913,-2.3621435,-0.82029337,0.0011214986,-0.5558007,1.417263,-0.7515033,-0.7329907,2.1842744,-0.40753424,0.13111272,-3.0088992,0.83783376,1.19329,0.47027773,0.16589357,-0.8731693,-0.20625687,0.43427292,-3.3772461,-3.703907,-0.33087796,-1.353986,2.4966028,-1.0908072,-0.005254537,-0.12992895,-0.14499214,-0.177079,0.11948411,-0.19426653,0.13269734,0.28219345,0.13024478,-0.022059195,0.03965978,0.14489198,0.061486542,-0.017055087,-0.04843601,-0.04843601,-0.08800823,-0.12735146,0.7008533,-0.08414674,-0.117548965,-0.13691689,-1.6524161,-0.08241606,-0.11581147,-0.16001326,-0.029186953,-0.029186953,0.02883939,0.13418439,0.8415116,0.05651158,-0.07635521,-0.18025503,-1.6847283,-0.11472821,0.018860772,0.12261388,0.2787569,0.2787569,0.09582796,0.24883936,1.1250763,0.34007627,0.1192874,0.12972553,-1.4802831,0.08971691,-0.12633452,-0.052810073,0.068919525,0.068919525,0.2526967,0.065620914,0.6880509,-0.0969491,0.045968395,0.12969981,-1.441229,0.12877107
68,1.36,-0.105000004,0.0,0.0,0.0,0.0,0.0,0.0,0.0,-1.0,-0.15,0.0,0.0,-0.04843601,-0.08414674,-0.08241606,-0.029186953,0.05651158,-0.11472821,0.2787569,0.34007627,0.08971691,0.068919525,-0.0969491,0.12877107,-2.252255,-0.7712036,0.024171043,-0.629465,1.4083976,-0.6968667,-1.0787821,1.7872005,-0.44103745,-0.028886572,-2.73847,0.7165992,1.764663,0.7131384,0.21123639,-0.49838233,-0.5349092,0.7420453,-2.9398084,-4.3441057,-0.1771482,-1.5107497,3.445388,-1.381039,-0.017055087,-0.12735146,-0.13691689,-0.16001326,0.13418439,-0.18025503,0.12261388,0.24883936,0.12972553,-0.052810073,0.065620914,0.12969981,0.10696353,-0.005230725,-0.08976259,-0.08976259,-0.08458675,-0.11287197,0.6870872,-0.09791285,-0.12751424,-0.12736139,-1.6513573,-0.08135724,-0.11831984,-0.14234842,-0.042490378,-0.042490378,-0.039807726,0.12342414,0.8684376,0.08343756,-0.021685474,-0.15769342,-1.6968205,-0.12682045,-0.03157664,0.10253838,0.25098044,0.25098044,0.05234685,0.20066892,1.1513613,0.36636132,0.12040431,0.12631029,-1.4895128,0.08048725,-0.15209714,-0.08021483,0.06488182,0.06488182,0.3298728,0.11670298,0.6409896,-0.14401042,0.018457124,0.10535818,-1.4300486,0.13995147
69,1.3800000000000001,-0.105000004,0.0,0.0,0.0,0.0,0.0,0.0,0.0,-1.0,-0.15,0.0,0.0,-0.08976259,-0.09791285,-0.08135724,-0.042490378,0.08343756,-0.12682045,0.25098044,0.36636132,0.08048725,0.06488182,-0.14401042,0.13995147,-2.0663292,-0.6883062,0.052939143,-0.6651713,1.3462985,-0.60461295,-1.3888233,1.3142536,-0.46148434,-0.20188534,-2.3530655,0.55902207,2.4275203,1.0077827,0.2563559,-0.1263557,-1.0207568,1.0698864,-2.5009685,-4.9135566,-0.046571065,-1.578885,4.414324,-1.6758696,-0.005230725,-0.11287197,-0.12736139,-0.14234842,0.12342414,-0.15769342,0.10253838,0.20066892,0.12631029,-0.08021483,0.11670298,0.10535818,0.15991542,0.025052369,-0.1257496,-0.1257496,-0.08455501,-0.09569753,0.67561144,-0.10938859,-0.1415254,-0.118659765,-1.6496465,-0.07964647,-0.12807962,-0.1253555,-0.05577463,-0.05577463,-0.11196159,0.08424659,0.8926952,0.10769516,0.026847653,-0.12157012,-1.706195,-0.13619494,-0.07569468,0.06496027,0.2176008,0.2176008,0.023034355,0.14631723,1.1669496,0.3819496,0.13214932,0.12261701,-1.4988947,0.07110536,-0.17234027,-0.10551182,0.057281587,0.057281587,0.38976997,0.18094665,0.60378486,-0.18121517,-0.0054696254,0.07562414,-1.4226956,0.14730442
70,1.4000000000000001,-0.105000004,0.0,0.0,0.0,0.0,0.0,0.0,0.0,-1.0,-0.15,0.0,0.0,-0.1257496,-0.10938859,-0.07964647,-0.05577463,0.10769516,-0.13619494,0.2176008,0.3819496,0.07110536,0.057281587,-0.18121517,0.14730442,-1.7993507,-0.57378834,0.08553599,-0.6642125,1.2128807,-0.46872568,-1.6689826,0.7794166,-0.46909612,-0.38001144,-1.8602382,0.367648,3.112088,1.2715315,0.2822976,0.22165635,-1.6555898,1.4409211,-2.127439,-5.3303638,0.077798344,-1.5705942,5.2771354,-1.9357008,0.025052369,-0.09569753,-0.118659765,-0.1253555,0.08424659,-0.12157012,0.06496027,0.14631723,0.12261701,-0.10551182,0.18094665,0.07562414,0.22034718,0.061486542,-0.15492949,-0.15492949,-0.08563555,-0.08800823,0.66680175,-0.118198276,-0.15350202,-0.117548965,-1.6473534,-0.07735336,-0.14047246,-0.11581147,-0.06846286,-0.06846286,-0.17254733,0.02883939,0.91275513,0.1277551,0.057540424,-0.07635521,-1.7119642,-0.1419642,-0.11262251,0.018860772,0.17922866,0.17922866,0.0063434113,0.09582796,1.1710694,0.38606936,0.15130834,0.1192874,-1.5081743,0.061825752,-0.18423353,-0.12633452,0.046207007,0.046207007,0.41853374,0.2526967,0.57828236,-0.20671767,-0.018791785,0.045968395,-1.4196886,0.15031147
71,1.42,-0.105000004,0.0,0.0,0.0,0.0,0.0,0.0,0.0,-1.0,-0.15,0.0,0.0,-0.15492949,-0.118198276,-0.07735336,-0.06846286,0.1277551,-0.1419642,0.17922866,0.38606936,0.061825752,0.046207007,-0.20671767,0.15031147,-1.4589946,-0.4404838,0.114654385,-0.6344117,1.002996,-0.2884617,-1.9186062,0.20598876,-0.4639799,-0.553729,-1.2751247,0.15035318,3.7002616,1.407348,0.239935,0.48611993,-2.3148649,1.8048162,-1.7574694,-5.5134807,0.19707784,-1.4731238,5.966618,-2.112414,0.061486542,-0.08800823,-0.117548965,-0.11581147,0.02883939,-0.07635521,0.018860772,0.09582796,0.1192874,-0.12633452,0.2526967,0.045968395,0.28175715,0.10696353,-0.17598122,-0.17598122,-0.09083862,-0.08458675,0.6608615,-0.124138534,-0.16096324,-0.12751424,-1.6447399,-0.074739814,-0.15573065,-0.11831984,-0.08021899,-0.08021899,-0.21968201,-0.039807726,0.92708695,0.14208692,0.07220624,-0.021685474,-1.7132491,-0.14324903,-0.14116311,-0.03157664,0.1365346,0.1365346,-0.00541321,0.05234685,1.1634665,0.37846643,0.16336307,0.12040431,-1.5170419,0.05295813,-0.18978788,-0.15209714,0.031773977,0.031773977,0.42975944,0.3298728,0.5659479,-0.21905214,-0.01967655,0.018457124,-1.4213465,0.1486535
72,1.44,-0.105000004,0.0,0.0,0.0,0.0,0.0,0.0,0.0,-1.0,-0.15,0.0,0.0,-0.17598122,-0.124138534,-0.074739814,-0.08021899,0.14208692,-0.14324903,0.1365346,0.37846643,0.05295813,0.031773977,-0.21905214,0.1486535,-1.0525869,-0.29701176,0.13067573,-0.5878064,0.71659184,-0.06424418,-2.134703,-0.38014418,-0.44337872,-0.72165143,-0.616722,-0.0828971,4.1977015,1.4580286,0.110386156,0.6308484,-2.950148,2.1506238,-1.3698151,-5.446616,0.33759323,-1.3643351,6.4521766,-2.1893501,0.10696353,-0.08458675,-0.12751424,-0.11831984,-0.039807726,-0.021685474,-0.03157664,0.05234685,0.12040431,-0.15209714,0.3298728,0.018457124,0.33023906,0.15991542,-0.18779033,-0.18779033,-0.10005661,-0.08455501,0.6578378,-0.12716222,-0.16353524,-0.1415254,-1.6421298,-0.07212973,-0.17521465,-0.12807962,-0.09086958,-0.09086958,-0.24607278,-0.11196159,0.934364,0.149364,0.05922217,0.026847653,-1.7094562,-0.13945615,-0.15509681,-0.07569468,0.09039502,0.09039502,-0.007620165,0.023034355,1.1445013,0.3595013,0.17335936,0.13214932,-1.5250463,0.044953704,-0.17382461,-0.17234027,0.014288388,0.014288388,0.43370873,0.38976997,0.56747615,-0.21752387,-0.012750609,-0.0054696254,-1.427766,0.14223409
73,1.46,-0.105000004,0.0,0.0,0.0,0.0,0.0,0.0,0.0,-1.0,-0.15,0.0,0.0,-0.18779033,-0.12716222,-0.07212973,-0.09086958,0.149364,-0.13945615,0.09039502,0.3595013,0.044953704,0.014288388,-0.21752387,0.14223409,-0.59045523,-0.15118355,0.13050525,-0.5325294,0.36385387,0.18964455,-2.306979,-0.9482558,-0.4002234,-0.87427944,0.07641345,-0.3209735,4.579197,1.433747,-0.043381058,0.6955411,-3.467444,2.3512568,-0.89838827,-5.093618,0.5380462,-1.1701968,6.5603347,-2.1590152,0.15991542,-0.08455501,-0.1415254,-0.12807962,-0.11196159,0.026847653,-0.07569468,0.023034355,0.13214932,-0.17234027,0.38976997,-0.0054696254,0.36431158,0.22034718,-0.18947414,-0.18947414,-0.10021015,-0.08563555,0.65766436,-0.12733567,-0.15434164,-0.15350202,-1.639798,-0.06979799,-0.19064468,-0.14047246,-0.10032737,-0.10032737,-0.25195816,-0.17254733,0.93373686,0.14873683,0.02784757,0.057540424,-1.7004697,-0.13046968,-0.14862208,-0.11262251,0.04186782,0.04186782,-0.010627588,0.0063434113,1.1150819,0.33008188,0.17205054,0.15130834,-1.5316682,0.038331866,-0.15011127,-0.18423353,-0.0057278853,-0.0057278853,0.43273342,0.41853374,0.58258533,-0.20241469,0.00021617344,-0.018791785,-1.4387167,0.1312834
74,1.48,-0.105000004,0.0,0.0,0.0,0.0,0.0,0.0,0.0,-1.0,-0.15,0.0,0.0,-0.18947414,-0.12733567,-0.06979799,-0.10032737,0.14873683,-0.13046968,0.04186782,0.33008188,0.038331866,-0.0057278853,-0.20241469,0.1312834,-0.08419019,-0.008673266,0.116585955,-0.47288957,-0.031359106,0.4493245,-2.4263601,-1.4709704,-0.33109152,-1.0008137,0.75545794,-0.5475327,4.8364587,1.3566229,-0.169541,0.717903,-3.7444885,2.323176,-0.3576851,-4.495078,0.7627023,-0.88181525,6.209176,-1.9771016,0.22034718,-0.08563555,-0.15350202,-0.14047246,-0.17254733,0.057540424,-0.11262251,0.0063434113,0.15130834,-0.18423353,0.41853374,-0.018791785,0.39317745,0.28175715,-0.18050246,-0.18050246,-0.08548855,-0.09083862,0.6601209,-0.12487912,-0.13062719,-0.16096324,-1.6379248,-0.06792474,-0.19365394,-0.15573065,-0.108593486,-0.108593486,-0.24182214,-0.21968201,0.92486656,0.13986653,-0.006564744,0.07220624,-1.6866022,-0.11660218,-0.123687916,-0.14116311,-0.007831402,-0.007831402,-0.023378732,-0.00541321,1.0764842,0.29148418,0.15543129,0.16336307,-1.5365717,0.03342831,-0.13190614,-0.18978788,-0.02759666,-0.02759666,0.43273717,0.42975944,0.61029243,-0.17470759,0.009267105,-0.01967655,-1.4536357,0.11636436
75,1.5,-0.105000004,0.0,0.0,0.0,0.0,0.0,0.0,0.0,-1.0,-0.15,0.0,0.0,-0.18050246,-0.12487912,-0.06792474,-0.108593486,0.13986653,-0.11660218,-0.007831402,0.29148418,0.03342831,-0.02759666,-0.17470759,0.11636436,0.44858372,0.12282653,0.093662806,-0.41330582,-0.44351566,0.69337475,-2.484961,-1.9298835,-0.24517755,-1.0934387,1.3853561,-0.74595064,4.9178047,1.2099433,-0.24774197,0.6983035,-3.7735622,2.0965977,0.23847799,-3.7421105,0.8946396,-0.5300371,5.5407186,-1.646266,0.28175715,-0.09083862,-0.16096324,-0.15573065,-0.21968201,0.07220624,-0.14116311,-0.00541321,0.16336307,-0.18978788,0.42975944,-0.01967655,0.41011316,0.33023906,-0.16091946,-0.16091946,-0.059648246,-0.10005661,0.6648498,-0.12015021,-0.10082453,-0.16353524,-1.6365882,-0.06658816,-0.17995487,-0.17521465,-0.115774736,-0.115774736,-0.224188,-0.24607278,0.9080269,0.12302685,-0.025071114,0.05922217,-1.6687493,-0.09874928,-0.08336784,-0.15509681,-0.057276607,-0.057276607,-0.046968907,-0.007620165,1.030367,0.24536699,0.1256317,0.17335936,-1.5395261,0.030473948,-0.12421113,-0.17382461,-0.050270095,-0.050270095,0.43432575,0.43370873,0.6491442,-0.13585585,0.007945927,-0.012750609,-1.4717364,0.09826362
76,1.52,-0.105000004,0.0,0.0,0.0,0.0,0.0,0.0,0.0,-1.0,-0.15,0.0,0.0,-0.16091946,-0.12015021,-0.06658816,-0.115774736,0.12302685,-0.09874928,-0.057276607,0.24536699,0.030473948,-0.050270095,-0.13585585,0.09826362,0.97914976,0.23644647,0.06683096,-0.35906267,-0.8419845,0.89264727,-2.4722602,-2.30586,-0.14771646,-1.1336719,1.9425874,-0.90503657,4.727049,1.003727,-0.27628773,0.6302099,-3.5160193,1.6074426,0.9117813,-2.8339036,0.97315025,-0.01943941,4.6720705,-1.2217047,0.33023906,-0.10005661,-0.16353524,-0.17521465,-0.24607278,0.05922217,-0.15509681,-0.007620165,0.17335936,-0.17382461,0.43370873,-0.012750609,0.41698426,0.36431158,-0.13133721,-0.13133721,-0.024095975,-0.10021015,0.6715838,-0.113416255,-0.06505161,-0.15434164,-1.6356571,-0.06565702,-0.15245989,-0.19064468,-0.12194245,-0.12194245,-0.19894469,-0.25195816,0.884061,0.09906095,-0.027275763,0.02784757,-1.6481835,-0.07818341,-0.024144918,-0.14862208,-0.10479465,-0.10479465,-0.07710536,-0.010627588,0.97853386,0.19353384,0.08548621,0.17205054,-1.5405551,0.029444933,-0.12577921,-0.15011127,-0.072602995,-0.072602995,0.4366036,0.43273342,0.69732445,-0.08767557,-0.011951497,0.00021617344,-1.492073,0.07792699
77,1.54,-0.105000004,0.0,0.0,0.0,0.0,0.0,0.0,0.0,-1.0,-0.15,0.0,0.0,-0.13133721,-0.113416255,-0.06565702,-0.12194245,0.09906095,-0.07818341,-0.10479465,0.19353384,0.029444933,-0.072602995,-0.08767557,0.07792699,1.4791126,0.33669633,0.046557117,-0.3083857,-1.1982948,1.0282918,-2.3759024,-2.5916562,-0.051448576,-1.1166451,2.4090142,-1.0168335,4.276332,0.8446304,-0.20749983,0.58011466,-3.0014927,0.959569,1.675689,-1.8857343,0.9310092,0.5190803,3.6601696,-0.73668516,0.36431158,-0.10021015,-0.15434164,-0.19064468,-0.25195816,0.02784757,-0.14862208,-0.010627588,0.17205054,-0.15011127,0.43273342,0.00021617344,0.42855567,0.39317745,-0.09274045,-0.09274045,-0.0015200898,-0.08548855,0.6802425,-0.10475755,-0.03773719,-0.13062719,-1.6347615,-0.0647614,-0.12161878,-0.19365394,-0.12699808,-0.12699808,-0.16393442,-0.24182214,0.85425425,0.06925422,-0.021368034,-0.006564744,-1.6262491,-0.056249022,0.048991755,-0.123687916,-0.14856237,-0.14856237,-0.098475665,-0.023378732,0.92272526,0.13772523,0.052239973,0.15543129,-1.5399879,0.03001213,-0.12716371,-0.13190614,-0.09360646,-0.09360646,0.4306469,0.43273717,0.75282514,-0.032174885,-0.051212434,0.009267105,-1.5137383,0.056261778
78,1.56,-0.105000004,0.0,0.0,0.0,0.0,0.0,0.0,0.0,-1.0,-0.15,0.0,0.0,-0.09274045,-0.10475755,-0.0647614,-0.12699808,0.06925422,-0.056249022,-0.14856237,0.13772523,0.03001213,-0.09360646,-0.032174885,0.056261778,1.9298384,0.43293667,0.044778768,-0.25278163,-1.4903352,1.0967188,-2.1883862,-2.7904305,0.02835697,-1.0501729,2.7750342,-1.0832614,3.6643474,0.77574396,-0.031224221,0.6091286,-2.297477,0.29910612,2.4816875,-0.99541837,0.7490776,0.96754074,2.5891788,-0.28442103,0.39317745,-0.08548855,-0.13062719,-0.19365394,-0.24182214,-0.006564744,-0.123687916,-0.023378732,0.15543129,-0.13190614,0.43273717,0.009267105,0.44842738,0.41011316,-0.046544015,-0.046544015,0.0057946295,-0.059648246,0.6908662,-0.094133854,-0.024198264,-0.10082453,-1.6334515,-0.06345141,-0.091724455,-0.17995487,-0.13061628,-0.13061628,-0.13167246,-0.224188,0.82013476,0.035134733,-0.016815558,-0.025071114,-1.6040126,-0.034012556,0.1280509,-0.08336784,-0.1867216,-0.1867216,-0.10250158,-0.046968907,0.8645484,0.07954836,0.039767664,0.1256317,-1.5383995,0.031600595,-0.124299504,-0.12421113,-0.11255172,-0.11255172,0.42065305,0.43432575,0.8135296,0.028529584,-0.089529075,0.007945927,-1.5359935,0.034006596
79,1.58,-0.105000004,0.0,0.0,0.0,0.0,0.0,0.0,0.0,-1.0,-0.15,0.0,0.0,-0.046544015,-0.094133854,-0.06345141,-0.13061628,0.035134733,-0.034012556,-0.1867216,0.07954836,0.031600595,-0.11255172,0.028529584,0.034006596,2.3098216,0.5311833,0.0654984,-0.18090951,-1.7059755,1.1118244,-1.9079614,-2.9088445,0.079425156,-0.9472629,3.035223,-1.1127603,2.8706987,0.76336384,0.17587659,0.7406762,-1.5026717,-0.21228047,3.2745833,-0.19410305,0.45973238,1.28077,1.5005217,0.07584276,0.41011316,-0.059648246,-0.10082453,-0.17995487,-0.224188,-0.025071114,-0.08336784,-0.046968907,0.1256317,-0.12421113,0.43432575,0.007945927,0.46048766,0.41698426,0.0055037513,0.0055037513,0.013604496,-0.024095975,0.7035854,-0.08141464,-0.016404122,-0.06505161,-1.6312174,-0.061217308,-0.06156457,-0.15245989,-0.13231319,-0.13231319,-0.109736234,-0.19894469,0.78341377,-0.0015862584,-0.026467912,-0.027275763,-1.5822359,-0.01223588,0.20212677,-0.024144918,-0.21738409,-0.21738409,-0.08564866,-0.07710536,0.8055011,0.020501077,0.053644665,0.08548621,-1.5365338,0.03346622,-0.106710605,-0.12577921,-0.12896052,-0.12896052,0.41272783,0.4366036,0.87727153,0.09227151,-0.105174325,-0.011951497,-1.5584153,0.011584759
80,1.6,-0.105000004,0.0,0.0,0.0,0.0,0.0,0.0,0.0,-1.0,-0.15,0.0,0.0,0.0055037513,-0.08141464,-0.061217308,-0.13231319,-0.0015862584,-0.01223588,-0.21738409,0.020501077,0.03346622,-0.12896052,0.09227151,0.011584759,2.6023884,0.6359615,0.11170448,-0.084845915,-1.8360481,1.0888326,-1.5331247,-2.952364,0.09328189,-0.82044035,3.1870975,-1.121094,1.94662,0.7918854,0.40321225,0.93975496,-0.6481533,-0.56684864,4.0515485,0.5313215,0.10178892,1.4673548,0.42293644,0.27957925,0.41698426,-0.024095975,-0.06505161,-0.15245989,-0.19894469,-0.027275763,-0.024144918,-0.07710536,0.08548621,-0.12577921,0.4366036,-0.011951497,0.45512825,0.42855567,0.061629903,0.061629903,0.020701073,-0.0015200898,0.7182496,-0.06675041,-0.01694215,-0.03773719,-1.6277398,-0.057739735,-0.038428005,-0.12161878,-0.13163714,-0.13163714,-0.10250987,-0.16393442,0.74595666,-0.039043367,-0.042595945,-0.021368034,-1.5614984,0.008501649,0.2593441,0.048991755,-0.2387733,-0.2387733,-0.051068384,-0.098475665,0.74717456,-0.037825465,0.09294142,0.052239973,-1.5349965,0.035003543,-0.06812564,-0.12716371,-0.14245677,-0.14245677,0.40935564,0.4306469,0.94176406,0.15676403,-0.103155635,-0.051212434,-1.5809062,-0.0109061
81,1.62,-0.105000004,0.0,0.0,0.0,0.0,0.0,0.0,0.0,-1.0,-0.15,0.0,0.0,0.061629903,-0.06675041,-0.057739735,-0.13163714,-0.039043367,0.008501649,-0.2387733,-0.037825465,0.035003543,-0.14245677,0.15676403,-0.0109061,2.8063076,0.7332108,0.17387724,0.033802465,-1.8728553,1.0368739,-1.0694605,-2.916328,0.07686376,-0.6748125,3.2246258,-1.124545,1.039213,0.6892408,0.5350001,1.1163428,0.2496458,-0.8254076,4.747037,1.2755659,-0.18056941,1.5994049,-0.6753613,0.3270697,0.42855567,-0.0015200898,-0.03773719,-0.12161878,-0.16393442,-0.021368034,0.048991755,-0.098475665,0.052239973,-0.12716371,0.4306469,-0.051212434,0.4350413,0.44842738,0.12015243,0.12015243,0.019163296,0.0057946295,0.73440933,-0.050590694,-0.029232763,-0.024198264,-1.6229756,-0.052975535,-0.019003484,-0.091724455,-0.12825009,-0.12825009,-0.11566469,-0.13167246,0.70951504,-0.07548499,-0.059627913,-0.016815558,-1.5423388,0.027661204,0.30034548,0.1280509,-0.24940349,-0.24940349,-0.006015191,-0.10250158,0.6913347,-0.0936653,0.14815275,0.039767664,-1.53402,0.035980105,-0.020427201,-0.124299504,-0.15270838,-0.15270838,0.411412,0.42065305,1.004746,0.21974593,-0.09470202,-0.089529075,-1.603356,-0.03335595
82,1.6400000000000001,-0.105000004,0.0,0.0,0.0,0.0,0.0,0.0,0.0,-1.0,-0.15,0.0,0.0,0.12015243,-0.050590694,-0.052975535,-0.12825009,-0.07548499,0.027661204,-0.24940349,-0.0936653,0.035980105,-0.15270838,0.21974593,-0.03335595,2.9261262,0.8079866,0.23820832,0.1693522,-1.8220812,0.9579751,-0.5315095,-2.7919922,0.048829094,-0.51258063,3.1490946,-1.1224912,0.20191698,0.45181495,0.53491807,1.2335298,1.0654204,-1.056092,5.2806177,2.0746279,-0.2819543,1.7052284,-1.7252582,0.37870854,0.44842738,0.0057946295,-0.024198264,-0.091724455,-0.13167246,-0.016815558,0.1280509,-0.10250158,0.039767664,-0.124299504,0.42065305,-0.089529075,0.41226113,0.46048766,0.17927176,0.17927176,0.0035267882,0.013604496,0.75159764,-0.033402383,-0.05433183,-0.016404122,-1.6170169,-0.04701686,-0.005074639,-0.06156457,-0.12191343,-0.12191343,-0.13433166,-0.109736234,0.6755552,-0.1094448,-0.077662595,-0.026467912,-1.5254459,0.044554114,0.3250534,0.20212677,-0.24828723,-0.24828723,0.040839046,-0.08564866,0.6399138,-0.14508623,0.20100623,0.053644665,-1.5333853,0.036614776,0.013418589,-0.106710605,-0.15926811,-0.15926811,0.41852498,0.41272783,1.0641506,0.27915055,-0.0806425,-0.105174325,-1.6252987,-0.055298686
83,1.6600000000000001,-0.105000004,0.0,0.0,0.0,0.0,0.0,0.0,0.0,-1.0,-0.15,0.0,0.0,0.17927176,-0.033402383,-0.04701686,-0.12191343,-0.1094448,0.044554114,-0.24828723,-0.14508623,0.036614776,-0.15926811,0.27915055,-0.055298686,2.9559662,0.859416,0.29793543,0.31683308,-1.6979902,0.8446442,0.055812955,-2.571047,0.031735197,-0.3279867,2.9702287,-1.0971366,-0.6624299,0.2135663,0.4720688,1.2996819,1.7222221,-1.3469303,5.5617037,2.921714,-0.17254676,1.8585981,-2.6497004,0.59195286,0.46048766,0.013604496,-0.016404122,-0.06156457,-0.109736234,-0.026467912,0.20212677,-0.08564866,0.053644665,-0.106710605,0.41272783,-0.105174325,0.39786392,0.45512825,0.23698047,0.23698047,-0.022145092,0.020701073,0.7693266,-0.015673399,-0.07888803,-0.01694215,-1.6101227,-0.04012263,0.0051152,-0.038428005,-0.112607226,-0.112607226,-0.14255257,-0.10250987,0.6451555,-0.13984454,-0.081306525,-0.042595945,-1.511505,0.058495045,0.34579095,0.2593441,-0.23513208,-0.23513208,0.07586987,-0.051068384,0.5948896,-0.19011045,0.23716831,0.09294142,-1.5324669,0.037533164,0.016712893,-0.06812564,-0.16149329,-0.16149329,0.42841148,0.40935564,1.1182017,0.3332017,-0.06912697,-0.103155635,-1.6460253,-0.07602525
84,1.68,-0.105000004,0.0,0.0,0.0,0.0,0.0,0.0,0.0,-1.0,-0.15,0.0,0.0,0.23698047,-0.015673399,-0.04012263,-0.112607226,-0.13984454,0.058495045,-0.23513208,-0.19011045,0.037533164,-0.16149329,0.3332017,-0.07602525,2.8854358,0.8864499,0.3447118,0.4653105,-1.5199869,0.6970487,0.65775716,-2.2512114,0.045918014,-0.111258894,2.702561,-1.0363264,-1.5933794,-0.026842166,0.33406806,1.2616363,2.1774273,-1.625212,5.507988,3.7588253,0.12004255,2.0945168,-3.4076626,0.90932226,0.45512825,0.020701073,-0.01694215,-0.038428005,-0.10250987,-0.042595945,0.2593441,-0.051068384,0.09294142,-0.06812564,0.40935564,-0.103155635,0.38437855,0.4350413,0.29118103,0.29118103,-0.049665585,0.019163296,0.78697735,0.0019773245,-0.10375635,-0.029232763,-1.602757,-0.032756925,0.013359766,-0.019003484,-0.10046695,-0.10046695,-0.1407488,-0.11566469,0.6189001,-0.1660999,-0.072729155,-0.059627913,-1.501087,0.0689131,0.3669881,0.30034548,-0.21030495,-0.21030495,0.100035556,-0.006015191,0.55810386,-0.22689617,0.2629632,0.14815275,-1.5304251,0.03957498,0.0022159335,-0.020427201,-0.15876625,-0.15876625,0.43422812,0.411412,1.1654705,0.38047045,-0.058292825,-0.09470202,-1.6647979,-0.09479785
85,1.7,-0.105000004,0.0,0.0,0.0,0.0,0.0,0.0,0.0,-1.0,-0.15,0.0,0.0,0.29118103,0.0019773245,-0.032756925,-0.10046695,-0.1660999,0.0689131,-0.21030495,-0.22689617,0.03957498,-0.15876625,0.38047045,-0.09479785,2.7100284,0.8825354,0.36828622,0.60701376,-1.3127681,0.5209018,1.2413571,-1.8392863,0.10209131,0.13635154,2.3634398,-0.9386313,-2.5335803,-0.31959885,0.10610576,1.1519365,2.3886647,-1.8400847,5.146964,4.5018606,0.5009773,2.3086667,-3.977951,1.2284652,0.4350413,0.019163296,-0.029232763,-0.019003484,-0.11566469,-0.059627913,0.30034548,-0.006015191,0.14815275,-0.020427201,0.411412,-0.09470202,0.3644789,0.41226113,0.33994997,0.33994997,-0.06653058,0.0035267882,0.80373865,0.018738627,-0.126169,-0.05433183,-1.5955806,-0.025580525,0.02076542,-0.005074639,-0.08579994,-0.08579994,-0.12676159,-0.13433166,0.59712344,-0.18787658,-0.06265629,-0.077662595,-1.4946376,0.075362444,0.38600025,0.3250534,-0.17478855,-0.17478855,0.11889742,0.040839046,0.53107154,-0.25392848,0.27690876,0.20100623,-1.5265356,0.043464422,-0.016038366,0.013418589,-0.15088035,-0.15088035,0.43083638,0.41852498,1.2048972,0.41989714,-0.0436682,-0.0806425,-1.6808887,-0.1108886
