verayannn/SpotDMouse/P2-Terrain_Challenge/mp2/misc/openloop_scheduled_right_0.15.csv
step,time,obs_0,obs_1,obs_2,obs_3,obs_4,obs_5,obs_6,obs_7,obs_8,obs_9,obs_10,obs_11,obs_12,obs_13,obs_14,obs_15,obs_16,obs_17,obs_18,obs_19,obs_20,obs_21,obs_22,obs_23,obs_24,obs_25,obs_26,obs_27,obs_28,obs_29,obs_30,obs_31,obs_32,obs_33,obs_34,obs_35,obs_36,obs_37,obs_38,obs_39,obs_40,obs_41,obs_42,obs_43,obs_44,obs_45,obs_46,obs_47,obs_48,obs_49,obs_50,obs_51,obs_52,obs_53,obs_54,obs_55,obs_56,obs_57,obs_58,obs_59,action_0,delayed_action_0,joint_pos_0,joint_pos_rel_0,action_1,delayed_action_1,joint_pos_1,joint_pos_rel_1,action_2,delayed_action_2,joint_pos_2,joint_pos_rel_2,action_3,delayed_action_3,joint_pos_3,joint_pos_rel_3,action_4,delayed_action_4,joint_pos_4,joint_pos_rel_4,action_5,delayed_action_5,joint_pos_5,joint_pos_rel_5,action_6,delayed_action_6,joint_pos_6,joint_pos_rel_6,action_7,delayed_action_7,joint_pos_7,joint_pos_rel_7,action_8,delayed_action_8,joint_pos_8,joint_pos_rel_8,action_9,delayed_action_9,joint_pos_9,joint_pos_rel_9,action_10,delayed_action_10,joint_pos_10,joint_pos_rel_10,action_11,delayed_action_11,joint_pos_11,joint_pos_rel_11
0,0.0,0.0,-0.105000004,0.0,0.0,0.0,0.0,0.0,0.0,-1.0,0.0,-0.15,0.0,0.0,0.0,0.0,0.0,0.0,0.0,0.0,0.0,0.0,0.0,0.0,0.0,0.0,0.0,0.0,0.0,0.0,0.0,0.0,0.0,0.0,0.0,0.0,0.0,0.0,0.0,0.0,0.0,0.0,0.0,0.0,0.0,0.0,0.0,0.0,0.0,0.0,0.0,0.0,0.0,0.0,0.0,0.0,0.0,0.0,0.0,0.0,0.0,0.20452622,0.0,0.0,0.0,0.094453044,0.0,0.785,0.0,-0.08914409,0.0,-1.57,0.0,0.026297588,0.0,0.0,0.0,-0.18651232,0.0,0.785,0.0,-0.07702748,0.0,-1.57,0.0,0.015598819,0.0,0.0,0.0,0.00909735,0.0,0.785,0.0,-0.0057296846,0.0,-1.57,0.0,-0.15282978,0.0,0.0,0.0,0.31226754,0.0,0.785,0.0,0.15435724,0.0,-1.57,0.0
1,0.02,0.0,-0.105000004,0.0,0.0,0.0,0.0,0.0,0.0,-1.0,0.0,-0.15,0.0,0.0,0.0,0.0,0.0,0.0,0.0,0.0,0.0,0.0,0.0,0.0,0.0,0.0,0.0,0.0,0.0,0.0,0.0,0.0,0.0,0.0,0.0,0.0,0.0,0.0,0.0,0.0,0.0,0.0,0.0,0.0,0.0,0.0,0.0,0.0,0.0,0.0,0.0,0.0,0.0,0.0,0.0,0.0,0.0,0.0,0.0,0.0,0.0,0.20452622,0.0,0.0,0.0,0.094453044,0.0,0.785,0.0,-0.08914409,0.0,-1.57,0.0,0.026297588,0.0,0.0,0.0,-0.18651232,0.0,0.785,0.0,-0.07702748,0.0,-1.57,0.0,0.015598819,0.0,0.0,0.0,0.00909735,0.0,0.785,0.0,-0.0057296846,0.0,-1.57,0.0,-0.15282978,0.0,0.0,0.0,0.31226754,0.0,0.785,0.0,0.15435724,0.0,-1.57,0.0
2,0.04,0.0,-0.105000004,0.0,0.0,0.0,0.0,0.0,0.0,-1.0,0.0,-0.15,0.0,0.0,0.0,0.0,0.0,0.0,0.0,0.0,0.0,0.0,0.0,0.0,0.0,0.0,0.0,0.0,0.0,0.0,0.0,0.0,0.0,0.0,0.0,0.0,0.0,0.0,0.0,0.0,0.0,0.0,0.0,0.0,0.0,0.0,0.0,0.0,0.0,0.0,0.0,0.0,0.0,0.0,0.0,0.0,0.0,0.0,0.0,0.0,0.0,0.20452622,0.0,0.0,0.0,0.094453044,0.0,0.785,0.0,-0.08914409,0.0,-1.57,0.0,0.026297588,0.0,0.0,0.0,-0.18651232,0.0,0.785,0.0,-0.07702748,0.0,-1.57,0.0,0.015598819,0.0,0.0,0.0,0.00909735,0.0,0.785,0.0,-0.0057296846,0.0,-1.57,0.0,-0.15282978,0.0,0.0,0.0,0.31226754,0.0,0.785,0.0,0.15435724,0.0,-1.57,0.0
3,0.06,0.0,-0.105000004,0.0,0.0,0.0,0.0,0.0,0.0,-1.0,0.0,-0.15,0.0,0.0,0.0,0.0,0.0,0.0,0.0,0.0,0.0,0.0,0.0,0.0,0.0,0.0,0.0,0.0,0.0,0.0,0.0,0.0,0.0,0.0,0.0,0.0,0.0,0.0,0.0,0.0,0.0,0.0,0.0,0.0,0.0,0.0,0.0,0.0,0.0,0.0,0.0,0.0,0.0,0.0,0.0,0.0,0.0,0.0,0.0,0.0,0.0,0.20452622,0.20452622,0.003272419,0.003272419,0.094453044,0.094453044,0.7865113,0.0015112758,-0.08914409,-0.08914409,-1.5714264,-0.0014263391,0.026297588,0.026297588,0.00042076135,0.00042076135,-0.18651232,-0.18651232,0.7820158,-0.0029842257,-0.07702748,-0.07702748,-1.5712324,-0.0012323856,0.015598819,0.015598819,0.0002495811,0.0002495811,0.00909735,0.00909735,0.7851456,0.00014555454,-0.0057296846,-0.0057296846,-1.5700917,-9.1671944e-05,-0.15282978,-0.15282978,-0.0024452764,-0.0024452764,0.31226754,0.31226754,0.7899963,0.0049962997,0.15435724,0.15435724,-1.5675304,0.0024696589
4,0.08,0.0,-0.105000004,0.0,0.0,0.0,0.0,0.0,0.0,-1.0,0.0,-0.15,0.0,0.003272419,0.0015112758,-0.0014263391,0.00042076135,-0.0029842257,-0.0012323856,0.0002495811,0.00014555454,-9.1671944e-05,-0.0024452764,0.0049962997,0.0024696589,0.16362096,0.07556248,-0.07131519,0.021038068,-0.14920987,-0.061622046,0.012479055,0.00727787,-0.00458374,-0.12226382,0.24981403,0.12348575,1.5020405,0.6936631,-0.6546729,0.19312948,-1.3697463,-0.5656913,0.11455772,0.06681089,-0.042078782,-1.1223819,2.2932925,1.1336001,0.20452622,0.094453044,-0.08914409,0.026297588,-0.18651232,-0.07702748,0.015598819,0.00909735,-0.0057296846,-0.15282978,0.31226754,0.15435724,0.16348833,0.20452622,0.009548919,0.009548919,0.09467607,0.094453044,0.7894099,0.0044098496,-0.056709014,-0.08914409,-1.574162,-0.004161954,0.01703002,0.026297588,0.0012277816,0.0012277816,-0.1303669,-0.18651232,0.7762921,-0.008707941,-0.08814693,-0.07702748,-1.5735962,-0.0035961866,0.13668655,0.015598819,0.0007282776,0.0007282776,-0.03856408,0.00909735,0.78542477,0.0004247427,0.13094419,-0.0057296846,-1.5702676,-0.00026750565,-0.2290031,-0.15282978,-0.0071353167,-0.0071353167,0.45646566,0.31226754,0.7995792,0.014579177,0.13649309,0.15435724,-1.5627935,0.007206559
5,0.1,0.0,-0.105000004,0.0,0.0,0.0,0.0,0.0,0.0,-1.0,0.0,-0.15,0.0,0.009548919,0.0044098496,-0.004161954,0.0012277816,-0.008707941,-0.0035961866,0.0007282776,0.0004247427,-0.00026750565,-0.0071353167,0.014579177,0.007206559,0.313825,0.14492878,-0.13678248,0.04035102,-0.2861845,-0.11819117,0.023934826,0.013958959,-0.008791618,-0.23450202,0.4791433,0.23684576,1.3265145,0.61260283,-0.57816947,0.17056069,-1.2096795,-0.49958593,0.1011707,0.059003342,-0.037161503,-0.9912222,2.025302,1.0011297,0.20452622,0.094453044,-0.08914409,0.026297588,-0.18651232,-0.07702748,0.015598819,0.00909735,-0.0057296846,-0.15282978,0.31226754,0.15435724,0.1636635,0.20452622,0.01847845,0.01847845,0.10205848,0.094453044,0.7935337,0.008533657,-0.06397552,-0.08914409,-1.578054,-0.008053899,0.016051808,0.026297588,0.0023759233,0.0023759233,-0.1362779,-0.18651232,0.768149,-0.016851008,-0.07967349,-0.07702748,-1.5769593,-0.0069592,0.13724785,0.015598819,0.0014093155,0.0014093155,-0.047023486,0.00909735,0.785822,0.00082194805,0.12319519,-0.0057296846,-1.5705177,-0.00051760674,-0.22404297,-0.15282978,-0.0138078015,-0.0138078015,0.45560825,0.31226754,0.8132127,0.028212667,0.14711174,0.15435724,-1.5560544,0.013945699
6,0.12,0.0,-0.105000004,0.0,0.0,0.0,0.0,0.0,0.0,-1.0,0.0,-0.15,0.0,0.01847845,0.008533657,-0.008053899,0.0023759233,-0.016851008,-0.0069592,0.0014093155,0.00082194805,-0.00051760674,-0.0138078015,0.028212667,0.013945699,0.44647646,0.20618907,-0.19459942,0.05740709,-0.40715244,-0.16814975,0.034051895,0.019859293,-0.012507768,-0.33362424,0.68167347,0.33695874,1.1173162,0.51599175,-0.48698983,0.14366238,-1.0189064,-0.4207984,0.08521555,0.049697887,-0.03130181,-0.8349012,1.7059009,0.84324706,0.20452622,0.094453044,-0.08914409,0.026297588,-0.18651232,-0.07702748,0.015598819,0.00909735,-0.0057296846,-0.15282978,0.31226754,0.15435724,0.16453138,0.20452622,0.029642612,0.029642612,0.10940958,0.094453044,0.7986894,0.013689399,-0.073464036,-0.08914409,-1.58292,-0.012919903,0.014519017,0.026297588,0.00381139,0.00381139,-0.14313984,-0.18651232,0.7579681,-0.027031898,-0.06854987,-0.07702748,-1.5811639,-0.011163831,0.13544232,0.015598819,0.0022607846,0.0022607846,-0.057388786,0.00909735,0.78631854,0.0013185143,0.11382119,-0.0057296846,-1.5708305,-0.0008304119,-0.21800357,-0.15282978,-0.022150088,-0.022150088,0.45393753,0.31226754,0.83025795,0.045257926,0.15940297,0.15435724,-1.5476286,0.022371411
7,0.14,0.0,-0.105000004,0.0,0.0,0.0,0.0,0.0,0.0,-1.0,0.0,-0.15,0.0,0.029642612,0.013689399,-0.012919903,0.00381139,-0.027031898,-0.011163831,0.0022607846,0.0013185143,-0.0008304119,-0.022150088,0.045257926,0.022371411,0.5582081,0.25778824,-0.2432984,0.07177333,-0.5090431,-0.21022959,0.042573452,0.024829082,-0.01563795,-0.41711438,0.85226357,0.42128342,0.88282394,0.40770024,-0.38478428,0.1135118,-0.8050669,-0.3324844,0.06733127,0.03926793,-0.024731837,-0.65967965,1.3478817,0.66627324,0.20452622,0.094453044,-0.08914409,0.026297588,-0.18651232,-0.07702748,0.015598819,0.00909735,-0.0057296846,-0.15282978,0.31226754,0.15435724,0.16576803,0.16348833,0.041915815,0.041915815,0.11495469,0.09467607,0.80466413,0.019664109,-0.08385048,-0.056709014,-1.5880365,-0.018036485,0.011292037,0.01703002,0.005325599,0.005325599,-0.15023068,-0.1303669,0.74707544,-0.037924588,-0.05675988,-0.08814693,-1.5862113,-0.016211271,0.13043007,0.13668655,0.00518432,0.00518432,-0.06748544,-0.03856408,0.7861311,0.0011310577,0.102694556,0.13094419,-1.5690058,0.0009942055,-0.20953347,-0.2290031,-0.03303051,-0.03303051,0.44958055,0.45646566,0.8523061,0.0673061,0.17214543,0.13649309,-1.5381563,0.03184378
8,0.16,0.0,-0.105000004,0.0,0.0,0.0,0.0,0.0,0.0,-1.0,0.0,-0.15,0.0,0.041915815,0.019664109,-0.018036485,0.005325599,-0.037924588,-0.016211271,0.00518432,0.0011310577,0.0009942055,-0.03303051,0.0673061,0.03184378,0.6136602,0.2987366,-0.2558289,0.07571045,-0.54463345,-0.25237352,0.14617676,-0.0093732625,0.09122801,-0.544021,1.1024102,0.47361937,0.33042344,0.29341412,-0.037174214,0.013175344,-0.16382524,-0.3196083,0.9374549,-0.32192296,0.98603266,-1.0315261,2.023622,0.34563357,0.16348833,0.09467607,-0.056709014,0.01703002,-0.1303669,-0.08814693,0.13668655,-0.03856408,0.13094419,-0.2290031,0.45646566,0.13649309,0.12146206,0.1636635,0.05485267,0.05485267,0.09564606,0.10205848,0.8113438,0.026343763,-0.04227277,-0.06397552,-1.5933437,-0.023343682,0.048171643,0.016051808,0.0068505076,0.0068505076,-0.11159028,-0.1362779,0.73576057,-0.049239457,-0.08135247,-0.07967349,-1.5917624,-0.021762371,0.13100146,0.13724785,0.009991745,0.009991745,-0.04724915,-0.047023486,0.7851644,0.00016438961,0.13536474,0.12319519,-1.5653332,0.0046668053,-0.16245088,-0.22404297,-0.04589462,-0.04589462,0.438546,0.45560825,0.87838787,0.09338784,0.1816527,0.14711174,-1.5278227,0.04217732
9,0.18,0.0,-0.105000004,0.0,0.0,0.0,0.0,0.0,0.0,-1.0,0.0,-0.15,0.0,0.05485267,0.026343763,-0.023343682,0.0068505076,-0.049239457,-0.021762371,0.009991745,0.00016438961,0.0046668053,-0.04589462,0.09338784,0.04217732,0.6468427,0.33398402,-0.26535952,0.07624542,-0.56574476,-0.27755564,0.24037129,-0.048333116,0.18363202,-0.6432055,1.3040866,0.5166777,0.10824402,0.22797604,-0.0056259036,-0.019316364,-0.019519616,-0.15041247,0.81792915,-0.35465196,0.8190764,-0.7364272,1.4986172,0.24371728,0.1636635,0.10205848,-0.06397552,0.016051808,-0.1362779,-0.07967349,0.13724785,-0.047023486,0.12319519,-0.22404297,0.45560825,0.14711174,0.122838475,0.16453138,0.0680199,0.0680199,0.1067437,0.10940958,0.818597,0.033596992,-0.05882681,-0.073464036,-1.598814,-0.028813958,0.044243924,0.014519017,0.008312259,0.008312259,-0.12197526,-0.14313984,0.72429687,-0.06070316,-0.06776298,-0.06854987,-1.5974364,-0.027436376,0.121930495,0.13544232,0.016406141,0.016406141,-0.06008734,-0.057388786,0.78332263,-0.0016773939,0.12930071,0.11382119,-1.5601724,0.009827614,-0.1569206,-0.21800357,-0.060134955,-0.060134955,0.4431178,0.45393753,0.9074401,0.1224401,0.19347972,0.15940297,-1.516805,0.053195
10,0.2,0.0,-0.105000004,0.0,0.0,0.0,0.0,0.0,0.0,-1.0,0.0,-0.15,0.0,0.0680199,0.033596992,-0.028813958,0.008312259,-0.06070316,-0.027436376,0.016406141,-0.0016773939,0.009827614,-0.060134955,0.1224401,0.053195,0.65836143,0.36266246,-0.273513,0.07308755,-0.5731863,-0.28369796,0.32071978,-0.09209051,0.25804055,-0.7120167,1.4526118,0.5508826,-0.101248026,0.15639345,0.010066581,-0.05338778,0.112724975,0.03243202,0.6606804,-0.3862267,0.62430805,-0.42586097,0.94615364,0.1486634,0.16453138,0.10940958,-0.073464036,0.014519017,-0.14313984,-0.06854987,0.13544232,-0.057388786,0.11382119,-0.21800357,0.45393753,0.15940297,0.12325384,0.16576803,0.08100442,0.08100442,0.11679871,0.11495469,0.8262518,0.04125178,-0.07314179,-0.08385048,-1.6044303,-0.034430265,0.034975205,0.011292037,0.009615603,0.009615603,-0.13419268,-0.15023068,0.71294516,-0.07205486,-0.060575806,-0.05675988,-1.6028569,-0.032856822,0.10804483,0.13043007,0.024061702,0.024061702,-0.06599872,-0.06748544,0.78054684,-0.004453182,0.12013963,0.102694556,-1.553941,0.016059041,-0.14418374,-0.20953347,-0.07509149,-0.07509149,0.4404093,0.44958055,0.938315,0.15331495,0.20483175,0.17214543,-1.5052862,0.064713836
11,0.22,0.0,-0.105000004,0.0,0.0,0.0,0.0,0.0,0.0,-1.0,0.0,-0.15,0.0,0.08100442,0.04125178,-0.034430265,0.009615603,-0.07205486,-0.032856822,0.024061702,-0.004453182,0.016059041,-0.07509149,0.15331495,0.064713836,0.64922595,0.38273793,-0.2808153,0.06516719,-0.5675864,-0.27102274,0.38277802,-0.13879052,0.31156996,-0.7478267,1.5437415,0.57594275,-0.29453945,0.06824026,0.020488834,-0.09609695,0.23482585,0.20714185,0.46706438,-0.39923745,0.40882644,-0.10089059,0.37173453,0.053770185,0.16576803,0.11495469,-0.08385048,0.011292037,-0.15023068,-0.05675988,0.13043007,-0.06748544,0.102694556,-0.20953347,0.44958055,0.17214543,0.12503834,0.12146206,0.09269096,0.09269096,0.123686135,0.09564606,0.8337341,0.04873407,-0.08079613,-0.04227277,-1.6093404,-0.039340377,0.018016204,0.048171643,0.011316827,0.011316827,-0.15051544,-0.11159028,0.7026813,-0.08231872,-0.06072653,-0.08135247,-1.6082566,-0.038256526,0.090757445,0.13100146,0.032660533,0.032660533,-0.06515608,-0.04724915,0.77729636,-0.007703662,0.10614004,0.13536474,-1.5463692,0.023630857,-0.12102914,-0.16245088,-0.08949648,-0.08949648,0.42947578,0.438546,0.9697567,0.1847567,0.21210171,0.1816527,-1.4935077,0.07649231
12,0.24,0.0,-0.105000004,0.0,0.0,0.0,0.0,0.0,0.0,-1.0,0.0,-0.15,0.0,0.09269096,0.04873407,-0.039340377,0.011316827,-0.08231872,-0.038256526,0.032660533,-0.007703662,0.023630857,-0.08949648,0.1847567,0.07649231,0.5843272,0.37411502,-0.24550435,0.08506118,-0.5131915,-0.26998267,0.42994156,-0.16252527,0.3785888,-0.7202497,1.5720873,0.5889257,-0.80352247,-0.2016344,0.41401577,0.16177335,0.6809732,0.09627597,0.31047234,-0.17347236,0.51553005,0.4924615,-0.23378229,-0.06511755,0.12146206,0.09564606,-0.04227277,0.048171643,-0.11159028,-0.08135247,0.13100146,-0.04724915,0.13536474,-0.16245088,0.438546,0.1816527,0.14310053,0.122838475,0.10279248,0.10279248,0.09394942,0.1067437,0.84099066,0.055990636,-0.065402366,-0.05882681,-1.6136874,-0.043687344,-0.025286004,0.044243924,0.0132787535,0.0132787535,-0.19260234,-0.12197526,0.69361323,-0.091386795,-0.06869211,-0.06776298,-1.6132462,-0.04324615,0.05815655,0.121930495,0.041735172,0.041735172,-0.036586616,-0.06008734,0.7734935,-0.011506498,0.0490894,0.12930071,-1.5378634,0.03213668,-0.07945189,-0.1569206,-0.10282806,-0.10282806,0.40608114,0.4431178,1.0008041,0.21580404,0.20403652,0.19347972,-1.4816703,0.08832979
13,0.26,0.0,-0.105000004,0.0,0.0,0.0,0.0,0.0,0.0,-1.0,0.0,-0.15,0.0,0.10279248,0.055990636,-0.043687344,0.0132787535,-0.091386795,-0.04324615,0.041735172,-0.011506498,0.03213668,-0.10282806,0.21580404,0.08832979,0.5050761,0.36282972,-0.21734607,0.09809633,-0.45340222,-0.24948356,0.453732,-0.190143,0.42529064,-0.66657937,1.5523664,0.59187555,-0.91450995,-0.22331548,0.33705515,0.092443176,0.71308744,0.27457547,0.080815196,-0.20152311,0.30757448,0.7231739,-0.68410593,-0.16137624,0.122838475,0.1067437,-0.05882681,0.044243924,-0.12197526,-0.06776298,0.121930495,-0.06008734,0.12930071,-0.1569206,0.4431178,0.19347972,0.1485581,0.12325384,0.11107163,0.11107163,0.10118745,0.11679871,0.8479615,0.06296146,-0.06757165,-0.07314179,-1.6175892,-0.047589183,-0.04323603,0.034975205,0.0152772665,0.0152772665,-0.20284545,-0.13419268,0.6857759,-0.09922415,-0.07707619,-0.060575806,-1.6175717,-0.04757166,0.048612833,0.10804483,0.050749272,0.050749272,-0.03242168,-0.06599872,0.76919305,-0.015806973,0.044154715,0.12013963,-1.528889,0.04111111,-0.062135603,-0.14418374,-0.114509515,-0.114509515,0.3960443,0.4404093,1.0304399,0.24543983,0.20874882,0.20483175,-1.4699739,0.10002613
14,0.28,0.0,-0.105000004,0.0,0.0,0.0,0.0,0.0,0.0,-1.0,0.0,-0.15,0.0,0.11107163,0.06296146,-0.047589183,0.0152772665,-0.09922415,-0.04757166,0.050749272,-0.015806973,0.04111111,-0.114509515,0.24543983,0.10002613,0.41395742,0.3485422,-0.19509247,0.099925674,-0.3918674,-0.21627611,0.450705,-0.2150244,0.4487191,-0.5840725,1.481789,0.58481956,-0.9980941,-0.24726439,0.27383867,-0.014597463,0.70997846,0.3846788,-0.17298219,-0.16756561,0.07897945,0.97071856,-1.1446574,-0.25417316,0.12325384,0.11679871,-0.07314179,0.034975205,-0.13419268,-0.060575806,0.10804483,-0.06599872,0.12013963,-0.14418374,0.4404093,0.20483175,0.16027114,0.12503834,0.117383145,0.117383145,0.10454543,0.123686135,0.854548,0.06954795,-0.070358455,-0.08079613,-1.6210659,-0.051065803,-0.06444834,0.018016204,0.01697524,0.01697524,-0.21225132,-0.15051544,0.6790973,-0.10590273,-0.08577318,-0.06072653,-1.6211303,-0.051130295,0.037723035,0.090757445,0.05914081,0.05914081,-0.023566106,-0.06515608,0.7645709,-0.020429134,0.037090678,0.10614004,-1.5199805,0.050019503,-0.044815864,-0.12102914,-0.12387905,-0.12387905,0.3794837,0.42947578,1.0576113,0.27261132,0.20981798,0.21210171,-1.4586695,0.11133051
15,0.3,0.0,-0.105000004,0.0,0.0,0.0,0.0,0.0,0.0,-1.0,0.0,-0.15,0.0,0.117383145,0.06954795,-0.051065803,0.01697524,-0.10590273,-0.051130295,0.05914081,-0.020429134,0.050019503,-0.12387905,0.27261132,0.11133051,0.3155756,0.32932574,-0.17383215,0.084898725,-0.33392775,-0.17792895,0.41957685,-0.2311069,0.4454175,-0.46847692,1.3585764,0.56521815,-1.0356114,-0.28794053,0.25759897,-0.16992357,0.6572841,0.42123604,-0.4299818,-0.078829214,-0.1738997,1.2480701,-1.6052631,-0.36708364,0.12503834,0.123686135,-0.08079613,0.018016204,-0.15051544,-0.06072653,0.090757445,-0.06515608,0.10614004,-0.12102914,0.42947578,0.21210171,0.18096825,0.14310053,0.12191243,0.12191243,0.100233294,0.09394942,0.8600828,0.07508278,-0.07522077,-0.065402366,-1.623781,-0.053780913,-0.08928658,-0.025286004,0.017640533,0.017640533,-0.22143504,-0.19260234,0.67305994,-0.111940086,-0.092036895,-0.06869211,-1.6239738,-0.053973794,0.020996734,0.05815655,0.06615077,0.06615077,-0.006241711,-0.036586616,0.7602482,-0.024751842,0.025692528,0.0490894,-1.5123328,0.057667255,-0.025805462,-0.07945189,-0.13008721,-0.13008721,0.3548683,0.40608114,1.081198,0.29619795,0.20565912,0.20403652,-1.4482284,0.12177169
16,0.32,0.0,-0.105000004,0.0,0.0,0.0,0.0,0.0,0.0,-1.0,0.0,-0.15,0.0,0.12191243,0.07508278,-0.053780913,0.017640533,-0.111940086,-0.053973794,0.06615077,-0.024751842,0.057667255,-0.13008721,0.29619795,0.12177169,0.22646421,0.27674228,-0.13575707,0.0332646,-0.30186883,-0.1421778,0.35049796,-0.21613427,0.38238695,-0.31040812,1.1793344,0.5220576,-0.91902673,-0.5881001,0.405155,-0.50116885,0.40115756,0.38513196,-0.7684089,0.21140346,-0.7211541,1.6009843,-2.0801857,-0.57708406,0.14310053,0.09394942,-0.065402366,-0.025286004,-0.19260234,-0.06869211,0.05815655,-0.036586616,0.0490894,-0.07945189,0.40608114,0.20403652,0.2266223,0.1485581,0.12469098,0.12469098,0.067475334,0.10118745,0.86455727,0.07955724,-0.09394506,-0.06757165,-1.6257205,-0.05572045,-0.12618876,-0.04323603,0.017016288,0.017016288,-0.23102072,-0.20284545,0.667661,-0.117339015,-0.07954266,-0.07707619,-1.6261812,-0.056181192,-0.0217195,0.048612833,0.071471214,0.071471214,0.032461327,-0.03242168,0.75641495,-0.028585076,-0.006177826,0.044154715,-1.5062063,0.06379378,0.010833528,-0.062135603,-0.13281634,-0.13281634,0.2938738,0.3960443,1.1004637,0.31546372,0.19010633,0.20874882,-1.438866,0.13113403
17,0.34,0.0,-0.105000004,0.0,0.0,0.0,0.0,0.0,0.0,-1.0,0.0,-0.15,0.0,0.12469098,0.07955724,-0.05572045,0.017016288,-0.117339015,-0.056181192,0.071471214,-0.028585076,0.06379378,-0.13281634,0.31546372,0.13113403,0.1389276,0.2237227,-0.09697707,-0.0312123,-0.26994762,-0.1103718,0.2660221,-0.19166197,0.3063237,-0.13645667,0.96328646,0.46811906,-0.87605476,-0.57527745,0.39944258,-0.60254264,0.38963443,0.3374754,-0.8876478,0.29381853,-0.8206251,1.6962049,-2.3607078,-0.6622135,0.1485581,0.10118745,-0.06757165,-0.04323603,-0.20284545,-0.07707619,0.048612833,-0.03242168,0.044154715,-0.062135603,0.3960443,0.20874882,0.24507488,0.16027114,0.12590483,0.12590483,0.05817896,0.10454543,0.8679349,0.08293486,-0.10116672,-0.070358455,-1.6269058,-0.056905746,-0.13757566,-0.06444834,0.01484756,0.01484756,-0.22952527,-0.21225132,0.66289085,-0.122109175,-0.080042414,-0.08577318,-1.6278529,-0.057852864,-0.029478963,0.037723035,0.074842125,0.074842125,0.046169173,-0.023566106,0.75331104,-0.03168899,-0.0075197946,0.037090678,-1.501834,0.06816602,0.018022064,-0.044815864,-0.13187595,-0.13187595,0.28125155,0.3794837,1.1147431,0.3297431,0.18643518,0.20981798,-1.4308109,0.13918912
18,0.36,0.0,-0.105000004,0.0,0.0,0.0,0.0,0.0,0.0,-1.0,0.0,-0.15,0.0,0.12590483,0.08293486,-0.056905746,0.01484756,-0.122109175,-0.057852864,0.074842125,-0.03168899,0.06816602,-0.13187595,0.3297431,0.13918912,0.060692564,0.16888136,-0.059262313,-0.10843641,-0.23850885,-0.08358189,0.16854547,-0.15519565,0.21861011,0.047019616,0.71396714,0.40275297,-0.7626544,-0.57503456,0.377255,-0.6989295,0.37499076,0.28125092,-0.9799625,0.39609262,-0.9032351,1.7279783,-2.5970035,-0.7498594,0.16027114,0.10454543,-0.070358455,-0.06444834,-0.21225132,-0.08577318,0.037723035,-0.023566106,0.037090678,-0.044815864,0.3794837,0.20981798,0.25887555,0.18096825,0.12592453,0.12592453,0.047558244,0.100233294,0.87009346,0.08509344,-0.107977115,-0.07522077,-1.6274143,-0.057414293,-0.1450374,-0.08928658,0.01088356,0.01088356,-0.22513378,-0.22143504,0.6587237,-0.12627631,-0.07703214,-0.092036895,-1.6290623,-0.059062243,-0.034368422,0.020996734,0.07598549,0.07598549,0.05610837,-0.006241711,0.7512765,-0.033723533,-0.0071709584,0.025692528,-1.4994507,0.07054937,0.022008087,-0.025805462,-0.12717544,-0.12717544,0.27011222,0.3548683,1.1234345,0.33843452,0.18318255,0.20565912,-1.4243221,0.14567792
19,0.38,0.0,-0.105000004,0.0,0.0,0.0,0.0,0.0,0.0,-1.0,0.0,-0.15,0.0,0.12592453,0.08509344,-0.057414293,0.01088356,-0.12627631,-0.059062243,0.07598549,-0.033723533,0.07054937,-0.12717544,0.33843452,0.14567792,0.000984814,0.10792817,-0.025426663,-0.19819996,-0.20835678,-0.06046778,0.057168186,-0.10172684,0.119167954,0.23502578,0.43457448,0.32444003,-0.56753886,-0.61359257,0.32957545,-0.78932965,0.35311884,0.23893407,-1.0763781,0.5405065,-0.98283416,1.7108504,-2.7932932,-0.8477936,0.18096825,0.100233294,-0.07522077,-0.08928658,-0.22143504,-0.092036895,0.020996734,-0.006241711,0.025692528,-0.025805462,0.3548683,0.20565912,0.2664098,0.2266223,0.12553962,0.12553962,0.033817835,0.067475334,0.87050074,0.08550072,-0.1126839,-0.09394506,-1.6275634,-0.057563305,-0.14975873,-0.12618876,0.0047504674,0.0047504674,-0.21680841,-0.23102072,0.65510947,-0.12989056,-0.069730826,-0.07954266,-1.6295938,-0.059593797,-0.036622763,-0.0217195,0.07429264,0.07429264,0.062093463,0.032461327,0.75094223,-0.034057796,-0.0071570314,-0.006177826,-1.499543,0.0704571,0.023677956,0.010833528,-0.118466996,-0.118466996,0.25631618,0.2938738,1.1255635,0.34056348,0.18031698,0.19010633,-1.4197778,0.1502223
20,0.4,0.0,-0.105000004,0.0,0.0,0.0,0.0,0.0,0.0,-1.0,0.0,-0.15,0.0,0.12553962,0.08550072,-0.057563305,0.0047504674,-0.12989056,-0.059593797,0.07429264,-0.034057796,0.0704571,-0.118466996,0.34056348,0.1502223,-0.019245831,0.020362526,-0.0074484814,-0.30665466,-0.18071339,-0.026578914,-0.084642604,-0.016713813,-0.004611753,0.435422,0.106449574,0.22721848,-0.18603255,-0.8383902,0.17317691,-0.9321901,0.32044014,0.3304491,-1.3201169,0.81297195,-1.174431,1.7644291,-3.1512501,-0.9963149,0.2266223,0.067475334,-0.09394506,-0.12618876,-0.23102072,-0.07954266,-0.0217195,0.032461327,-0.006177826,0.010833528,0.2938738,0.19010633,0.26168424,0.24507488,0.12507787,0.12507787,0.0065009724,0.05817896,0.86908245,0.084082425,-0.10969331,-0.10116672,-1.6274816,-0.057481527,-0.15817723,-0.13757566,-0.0034291963,-0.0034291963,-0.1959203,-0.22952527,0.65216,-0.13284004,-0.054782905,-0.080042414,-1.6294725,-0.05947244,-0.041084547,-0.029478963,0.0698354,0.0698354,0.072065085,0.046169173,0.7524532,-0.03254682,-0.010383746,-0.0075197946,-1.5020056,0.067994475,0.035198145,0.018022064,-0.106114686,-0.106114686,0.21178891,0.28125155,1.121188,0.33618802,0.17334333,0.18643518,-1.4172847,0.15271533
21,0.42,0.0,-0.105000004,0.0,0.0,0.0,0.0,0.0,0.0,-1.0,0.0,-0.15,0.0,0.12507787,0.084082425,-0.057481527,-0.0034291963,-0.13284004,-0.05947244,0.0698354,-0.03254682,0.067994475,-0.106114686,0.33618802,0.15271533,-0.023087017,-0.07091352,0.0040918505,-0.4089832,-0.14747298,0.0060662143,-0.22286186,0.075549684,-0.1231283,0.6176157,-0.21877325,0.12465005,-0.029103402,-0.84442985,0.10832471,-0.8412465,0.36297542,0.30818707,-1.2417672,0.8523275,-1.0865052,1.5332036,-3.0196092,-1.0142884,0.24507488,0.05817896,-0.10116672,-0.13757566,-0.22952527,-0.080042414,-0.029478963,0.046169173,-0.0075197946,0.018022064,0.28125155,0.18643518,0.24804407,0.25887555,0.12477874,0.12477874,0.0032964833,0.047558244,0.8658054,0.08080536,-0.10694354,-0.107977115,-1.627292,-0.057291985,-0.14938256,-0.1450374,-0.013410741,-0.013410741,-0.18829836,-0.22513378,0.6500068,-0.13499326,-0.04489959,-0.07703214,-1.6286867,-0.058686614,-0.026275948,-0.034368422,0.0628164,0.0628164,0.05791403,0.05610837,0.7558279,-0.029172122,-0.007436894,-0.0071709584,-1.5066355,0.063364506,0.014827702,0.022008087,-0.090632185,-0.090632185,0.22434847,0.27011222,1.1105951,0.32559508,0.17540433,0.18318255,-1.4168724,0.15312767
22,0.44,0.0,-0.105000004,0.0,0.0,0.0,0.0,0.0,0.0,-1.0,0.0,-0.15,0.0,0.12477874,0.08080536,-0.057291985,-0.013410741,-0.13499326,-0.058686614,0.0628164,-0.029172122,0.063364506,-0.090632185,0.32559508,0.15312767,-0.014956825,-0.16385317,0.00947598,-0.49907723,-0.10766229,0.039293136,-0.35095015,0.16873379,-0.23149978,0.77412486,-0.5296457,0.02061902,0.082022965,-0.83049375,0.048116546,-0.69618875,0.41265303,0.30308253,-1.1045347,0.8312539,-0.95544946,1.2391173,-2.7838013,-0.9948924,0.25887555,0.047558244,-0.107977115,-0.1450374,-0.22513378,-0.07703214,-0.034368422,0.05610837,-0.0071709584,0.022008087,0.27011222,0.18318255,0.23067059,0.2664098,0.1247642,0.1247642,0.0037034974,0.033817835,0.8606475,0.07564747,-0.10473039,-0.1126839,-1.6270816,-0.05708158,-0.13574916,-0.14975873,-0.024860203,-0.024860203,-0.1830872,-0.21680841,0.64881206,-0.13618797,-0.03346332,-0.069730826,-1.6271778,-0.057177782,-0.004846506,-0.036622763,0.053552255,0.053552255,0.038506825,0.062093463,0.7609609,-0.02403915,-0.0038153287,-0.0071570314,-1.5131762,0.05682385,-0.013865475,0.023677956,-0.07264474,-0.07264474,0.24558589,0.25631618,1.0942138,0.30921382,0.17810938,0.18031698,-1.4184957,0.1515044
23,0.46,0.0,-0.105000004,0.0,0.0,0.0,0.0,0.0,0.0,-1.0,0.0,-0.15,0.0,0.1247642,0.07564747,-0.05708158,-0.024860203,-0.13618797,-0.057177782,0.053552255,-0.02403915,0.05682385,-0.07264474,0.30921382,0.1515044,-0.00072711706,-0.25789478,0.010522147,-0.57247317,-0.059736717,0.075442456,-0.46320707,0.2566473,-0.32703367,0.89937246,-0.8190626,-0.08116266,0.13541493,-0.8108691,0.0065721176,-0.5140699,0.4744084,0.31927723,-0.9182147,0.7530507,-0.8029215,0.90205324,-2.4873605,-0.9409536,0.2664098,0.033817835,-0.1126839,-0.14975873,-0.21680841,-0.069730826,-0.036622763,0.062093463,-0.0071570314,0.023677956,0.25631618,0.18031698,0.21246913,0.26168424,0.12494487,0.12494487,0.004680898,0.0065009724,0.8534308,0.06843078,-0.10459118,-0.10969331,-1.6268102,-0.05681014,-0.11690317,-0.15817723,-0.0374725,-0.0374725,-0.17947017,-0.1959203,0.64890033,-0.1360997,-0.021294512,-0.054782905,-1.6247913,-0.054791212,0.021933034,-0.041084547,0.042380296,0.042380296,0.01751986,0.072065085,0.76775944,-0.017240584,0.00018441107,-0.010383746,-1.5213743,0.048625708,-0.046895202,0.035198145,-0.052668862,-0.052668862,0.2711972,0.21178891,1.0721455,0.28714544,0.17936575,0.17334333,-1.4221123,0.1478877
24,0.48,0.0,-0.105000004,0.0,0.0,0.0,0.0,0.0,0.0,-1.0,0.0,-0.15,0.0,0.12494487,0.06843078,-0.05681014,-0.0374725,-0.1360997,-0.054791212,0.042380296,-0.017240584,0.048625708,-0.052668862,0.28714544,0.1478877,0.009033916,-0.36083525,0.013571937,-0.630615,0.004414592,0.119328484,-0.558598,0.33992964,-0.40990722,0.99879396,-1.1034204,-0.18083683,0.08983898,-0.86246717,0.024629971,-0.3505503,0.6080251,0.3787322,-0.7274621,0.6824055,-0.65612847,0.62488985,-2.3483057,-0.8890375,0.26168424,0.0065009724,-0.10969331,-0.15817723,-0.1959203,-0.054782905,-0.041084547,0.072065085,-0.010383746,0.035198145,0.21178891,0.17334333,0.19819999,0.24804407,0.125087,0.125087,-0.005651394,0.0032964833,0.8444379,0.05943787,-0.09901384,-0.10694354,-1.6264455,-0.05644548,-0.10297556,-0.14938256,-0.050645187,-0.050645187,-0.17648803,-0.18829836,0.6503266,-0.13467342,-0.014668085,-0.04489959,-1.621489,-0.051488996,0.042715445,-0.026275948,0.029990349,0.029990349,0.009991219,0.05791403,0.77569646,-0.00930357,-0.0033667237,-0.007436894,-1.5308377,0.039162397,-0.064180195,0.014827702,-0.03176913,-0.03176913,0.27757245,0.22434847,1.0455813,0.2605813,0.1735205,0.17540433,-1.4274741,0.14252591
25,0.5,0.0,-0.105000004,0.0,0.0,0.0,0.0,0.0,0.0,-1.0,0.0,-0.15,0.0,0.125087,0.05943787,-0.05644548,-0.050645187,-0.13467342,-0.051488996,0.029990349,-0.00930357,0.039162397,-0.03176913,0.2605813,0.14252591,0.0071056816,-0.44964555,0.01823468,-0.6586343,0.07131471,0.16510823,-0.6194973,0.3968493,-0.4731626,1.0449866,-1.3282033,-0.26809186,-0.02059214,-0.69981116,0.03846147,-0.05542035,0.61273056,0.3820722,-0.38030452,0.41374463,-0.44951296,0.104434446,-1.710412,-0.74313414,0.24804407,0.0032964833,-0.10694354,-0.14938256,-0.18829836,-0.04489959,-0.026275948,0.05791403,-0.007436894,0.014827702,0.22434847,0.17540433,0.1886757,0.23067059,0.124909945,0.124909945,0.0121292975,0.0037034974,0.83405185,0.04905182,-0.113140635,-0.10473039,-1.6259685,-0.055968404,-0.07055664,-0.13574916,-0.06371058,-0.06371058,-0.18053086,-0.1830872,0.65306175,-0.13193828,-0.0043531284,-0.03346332,-1.6172397,-0.04723966,0.08489129,-0.004846506,0.017182665,0.017182665,-0.017319368,0.038506825,0.7841504,-0.0008496046,0.007903745,-0.0038153287,-1.541142,0.028858066,-0.124174915,-0.013865475,-0.011119621,-0.011119621,0.3350597,0.24558589,1.0159363,0.23093623,0.1766829,0.17810938,-1.434279,0.13572109
26,0.52,0.0,-0.105000004,0.0,0.0,0.0,0.0,0.0,0.0,-1.0,0.0,-0.15,0.0,0.124909945,0.04905182,-0.055968404,-0.06371058,-0.13193828,-0.04723966,0.017182665,-0.0008496046,0.028858066,-0.011119621,0.23093623,0.13572109,-0.008852322,-0.51930106,0.023851417,-0.65326965,0.13675666,0.21246463,-0.6403842,0.42269805,-0.51521665,1.0324755,-1.4822545,-0.3402412,-0.14876828,-0.4955508,0.04572581,0.26001078,0.5779363,0.38189635,0.006497407,0.110299565,-0.23464403,-0.4492476,-0.9891651,-0.57654154,0.23067059,0.0037034974,-0.10473039,-0.13574916,-0.1830872,-0.03346332,-0.004846506,0.038506825,-0.0038153287,-0.013865475,0.24558589,0.17810938,0.1813691,0.21246913,0.12414414,0.12414414,0.0303873,0.004680898,0.82269037,0.03769034,-0.12817696,-0.10459118,-1.6253978,-0.05539775,-0.039436992,-0.11690317,-0.075954415,-0.075954415,-0.17753886,-0.17947017,0.6570106,-0.12798941,0.00018824637,-0.021294512,-1.6120319,-0.042031884,0.1292558,0.021933034,0.0048164492,0.0048164492,-0.03638723,0.01751986,0.7924892,0.007489145,0.027028752,0.00018441107,-1.5518516,0.018148422,-0.18604666,-0.046895202,0.008102918,0.008102918,0.39175063,0.2711972,0.9847226,0.19972259,0.18440107,0.17936575,-1.4422168,0.1277833
27,0.54,0.0,-0.105000004,0.0,0.0,0.0,0.0,0.0,0.0,-1.0,0.0,-0.15,0.0,0.12414414,0.03769034,-0.05539775,-0.075954415,-0.12798941,-0.042031884,0.0048164492,0.007489145,0.018148422,0.008102918,0.19972259,0.1277833,-0.03829031,-0.5680742,0.028535387,-0.6121918,0.19744392,0.26038918,-0.6183108,0.4169384,-0.5354813,0.9611269,-1.5606819,-0.39689016,-0.26740798,-0.28156137,0.03536724,0.58614117,0.51334715,0.3719588,0.40755647,-0.18813686,-0.021159744,-0.98537177,-0.24564286,-0.4111607,0.21246913,0.004680898,-0.10459118,-0.11690317,-0.17947017,-0.021294512,0.021933034,0.01751986,0.00018441107,-0.046895202,0.2711972,0.17936575,0.16711901,0.19819999,0.12261521,0.12261521,0.03998217,-0.005651394,0.81060046,0.025600433,-0.13913327,-0.09901384,-1.6246672,-0.054667115,-0.010996621,-0.10297556,-0.08680312,-0.08680312,-0.15936525,-0.17648803,0.6620339,-0.12296611,0.0023002848,-0.014668085,-1.6059742,-0.035974145,0.16799632,0.042715445,-0.006402135,-0.006402135,-0.04200389,0.009991219,0.80033123,0.015331209,0.05158555,-0.0033667237,-1.5626603,0.007339716,-0.23418431,-0.064180195,0.025078153,0.025078153,0.42901367,0.27757245,0.9531197,0.16811967,0.19318272,0.1735205,-1.4510704,0.118929625
28,0.56,0.0,-0.105000004,0.0,0.0,0.0,0.0,0.0,0.0,-1.0,0.0,-0.15,0.0,0.12261521,0.025600433,-0.054667115,-0.08680312,-0.12296611,-0.035974145,-0.006402135,0.015331209,0.007339716,0.025078153,0.16811967,0.118929625,-0.07644643,-0.6044961,0.03653397,-0.5424356,0.25116435,0.30288634,-0.56092924,0.39210176,-0.54043806,0.84876174,-1.580146,-0.44268247,-0.33802027,-0.15256973,0.06429641,0.8362633,0.42997128,0.30679923,0.72462237,-0.36142087,0.12584992,-1.339073,0.32073838,-0.29336825,0.19819999,-0.005651394,-0.09901384,-0.10297556,-0.17648803,-0.014668085,0.042715445,0.009991219,-0.0033667237,-0.064180195,0.27757245,0.1735205,0.15305004,0.1886757,0.120257854,0.120257854,0.035469532,0.0121292975,0.79848987,0.013489842,-0.1330834,-0.113140635,-1.6240339,-0.054033875,0.008042462,-0.07055664,-0.09546061,-0.09546061,-0.13964629,-0.18053086,0.66785246,-0.117147565,0.0047766604,-0.0043531284,-1.5991378,-0.02913773,0.18724367,0.08489129,-0.015496662,-0.015496662,-0.03675493,-0.017319368,0.80701345,0.022013426,0.06371462,0.007903745,-1.573037,-0.0030369759,-0.25284675,-0.124174915,0.038415328,0.038415328,0.43467712,0.3350597,0.92307806,0.13807803,0.19016989,0.1766829,-1.4604602,0.10953987
29,0.58,0.0,-0.105000004,0.0,0.0,0.0,0.0,0.0,0.0,-1.0,0.0,-0.15,0.0,0.120257854,0.013489842,-0.054033875,-0.09546061,-0.117147565,-0.02913773,-0.015496662,0.022013426,-0.0030369759,0.038415328,0.13807803,0.10953987,-0.11786789,-0.6055286,0.03166219,-0.4328741,0.29092717,0.3418182,-0.45472634,0.33411127,-0.5188366,0.6668587,-1.5020823,-0.4694894,-0.35578611,0.18396127,-0.05641375,1.1793536,0.2846502,0.2604702,1.1544402,-0.657825,0.37124044,-1.941474,1.2222707,-0.10442958,0.1886757,0.0121292975,-0.113140635,-0.07055664,-0.18053086,-0.0043531284,0.08489129,-0.017319368,0.007903745,-0.124174915,0.3350597,0.1766829,0.11760742,0.1813691,0.117072016,0.117072016,0.032409035,0.0303873,0.78703934,0.0020393133,-0.10163649,-0.12817696,-1.6237541,-0.05375409,0.031521637,-0.039436992,-0.10126147,-0.10126147,-0.08704348,-0.17753886,0.67428815,-0.11071187,-0.016886227,0.00018824637,-1.5917078,-0.021707773,0.20478305,0.1292558,-0.021572476,-0.021572476,-0.02654372,-0.03638723,0.81207496,0.027074933,0.111333534,0.027028752,-1.5823653,-0.012365222,-0.23772839,-0.18604666,0.046879604,0.046879604,0.43291152,0.39175063,0.896388,0.11138797,0.17825836,0.18440107,-1.4699353,0.100064754
30,0.6,0.0,-0.105000004,0.0,0.0,0.0,0.0,0.0,0.0,-1.0,0.0,-0.15,0.0,0.117072016,0.0020393133,-0.05375409,-0.10126147,-0.11071187,-0.021707773,-0.021572476,0.027074933,-0.012365222,0.046879604,0.11138797,0.100064754,-0.15929179,-0.5725261,0.013991738,-0.29004303,0.3217858,0.37149835,-0.30379075,0.25307447,-0.4664126,0.4232139,-1.3345026,-0.4737579,-0.3425536,0.4967323,-0.17234583,1.449709,0.19018608,0.163082,1.5311015,-0.8508338,0.6472802,-2.450054,2.0190494,0.11105116,0.1813691,0.0303873,-0.12817696,-0.039436992,-0.17753886,0.00018824637,0.1292558,-0.03638723,0.027028752,-0.18604666,0.39175063,0.18440107,0.08355455,0.16711901,0.11297307,0.11297307,0.023452394,0.03998217,0.7767358,-0.008264244,-0.055134676,-0.13913327,-1.6239944,-0.053994298,0.04122566,-0.010996621,-0.103707865,-0.103707865,-0.035794858,-0.15936525,0.681395,-0.10360503,-0.051067203,0.0023002848,-1.5839179,-0.013917804,0.21784121,0.16799632,-0.02396624,-0.02396624,-0.006415682,-0.04200389,0.8153449,0.030344903,0.14860415,0.05158555,-1.5900061,-0.02000606,-0.19783597,-0.23418431,0.049673572,0.049673572,0.41128618,0.42901367,0.87433225,0.08933222,0.1598123,0.19318272,-1.4790479,0.09095216
31,0.62,0.0,-0.105000004,0.0,0.0,0.0,0.0,0.0,0.0,-1.0,0.0,-0.15,0.0,0.11297307,-0.008264244,-0.053994298,-0.103707865,-0.10360503,-0.013917804,-0.02396624,0.030344903,-0.02000606,0.049673572,0.08933222,0.09095216,-0.2049472,-0.51517695,-0.012007875,-0.12231983,0.35534328,0.3894961,-0.1196882,0.16349776,-0.38203928,0.13969839,-1.1027873,-0.45562744,-0.36814347,0.709674,-0.24315302,1.6325128,0.2050865,0.046338916,1.7872744,-0.90329826,0.9238001,-2.7381005,2.554187,0.31804085,0.16711901,0.03998217,-0.13913327,-0.010996621,-0.15936525,0.0023002848,0.16799632,-0.04200389,0.05158555,-0.23418431,0.42901367,0.19318272,0.059575748,0.15305004,0.107912734,0.107912734,0.012981586,0.035469532,0.7677794,-0.017220616,-0.017372541,-0.1330834,-1.624624,-0.05462396,0.045776553,0.008042462,-0.10258461,-0.10258461,0.0020356365,-0.13964629,0.6892275,-0.095772505,-0.079516284,0.0047766604,-1.5759957,-0.005995631,0.22762355,0.18724367,-0.022477498,-0.022477498,0.013852401,-0.03675493,0.81689227,0.03189224,0.1666705,0.06371462,-1.5956053,-0.025605202,-0.16114931,-0.25284675,0.04669274,0.04669274,0.38156515,0.43467712,0.8574755,0.07247549,0.14441323,0.19016989,-1.4875726,0.0824275
32,0.64,0.0,-0.105000004,0.0,0.0,0.0,0.0,0.0,0.0,-1.0,0.0,-0.15,0.0,0.107912734,-0.017220616,-0.05462396,-0.10258461,-0.095772505,-0.005995631,-0.022477498,0.03189224,-0.025605202,0.04669274,0.07247549,0.0824275,-0.25301674,-0.44781968,-0.031483278,0.0561627,0.39162713,0.39611113,0.07443711,0.07736706,-0.27995583,-0.14904162,-0.8428377,-0.42623368,-0.37569508,0.783196,-0.17494173,1.6776121,0.21937618,-0.063911736,1.8203709,-0.8429991,1.0593791,-2.6953368,2.7392287,0.4156353,0.15305004,0.035469532,-0.1330834,0.008042462,-0.13964629,0.0047766604,0.18724367,-0.03675493,0.06371462,-0.25284675,0.43467712,0.19016989,0.050051786,0.11760742,0.10153393,0.10153393,0.01093284,0.032409035,0.76034045,-0.024659574,0.0007979125,-0.10163649,-1.6251004,-0.05510032,0.04891961,0.031521637,-0.097730465,-0.097730465,0.0107442625,-0.08704348,0.6983405,-0.08665955,-0.089630924,-0.016886227,-1.5685478,0.0014522076,0.23069319,0.20478305,-0.017067384,-0.017067384,0.019583246,-0.02654372,0.816917,0.031916976,0.16827226,0.111333534,-1.5983237,-0.02832365,-0.14906774,-0.23772839,0.03856313,0.03856313,0.37153137,0.43291152,0.846069,0.061068952,0.13674273,0.17825836,-1.4954566,0.074543476
33,0.66,0.0,-0.105000004,0.0,0.0,0.0,0.0,0.0,0.0,-1.0,0.0,-0.15,0.0,0.10153393,-0.024659574,-0.05510032,-0.097730465,-0.08665955,0.0014522076,-0.017067384,0.031916976,-0.02832365,0.03856313,0.061068952,0.074543476,-0.31894034,-0.37194845,-0.023819903,0.24270725,0.45564696,0.37238958,0.2705057,0.0012361407,-0.13592283,-0.4064806,-0.5703274,-0.39419925,-0.52421325,0.8398,0.08042382,1.6945069,0.46238118,-0.34452,1.7760899,-0.7236396,1.4118087,-2.3155968,2.7713525,0.43047136,0.11760742,0.032409035,-0.10163649,0.031521637,-0.08704348,-0.016886227,0.20478305,-0.02654372,0.111333534,-0.23772839,0.43291152,0.17825836,0.045316752,0.08355455,0.09356185,0.09356185,0.013170794,0.023452394,0.7544378,-0.030562222,0.015102185,-0.055134676,-1.6246719,-0.054671884,0.057660572,0.04122566,-0.089332044,-0.089332044,-0.0033078752,-0.035794858,0.7091982,-0.07580185,-0.09207105,-0.051067203,-1.562336,0.0076640844,0.22939733,0.21784121,-0.00789616,-0.00789616,0.025161093,-0.006415682,0.8158165,0.030816495,0.15611398,0.14860415,-1.5976222,-0.027622104,-0.14997728,-0.19783597,0.026440602,0.026440602,0.37656206,0.41128618,0.8398591,0.0548591,0.13294503,0.1598123,-1.5027747,0.06722534
34,0.68,0.0,-0.105000004,0.0,0.0,0.0,0.0,0.0,0.0,-1.0,0.0,-0.15,0.0,0.09356185,-0.030562222,-0.054671884,-0.089332044,-0.07580185,0.0076640844,-0.00789616,0.030816495,-0.027622104,0.026440602,0.0548591,0.06722534,-0.39860398,-0.2951338,0.021423789,0.41992116,0.542884,0.3105929,0.4585612,-0.055025406,0.035074472,-0.6061263,-0.31049237,-0.36590907,-0.6292512,0.8241817,0.42296004,1.5491574,0.65502876,-0.6864587,1.6397877,-0.51687706,1.6132495,-1.7026742,2.5677905,0.38584685,0.08355455,0.023452394,-0.055134676,0.04122566,-0.035794858,-0.051067203,0.21784121,-0.006415682,0.14860415,-0.19783597,0.41128618,0.1598123,0.057563666,0.059575748,0.08394761,0.08394761,0.017532744,0.012981586,0.750016,-0.034984052,0.021626987,-0.017372541,-1.6227933,-0.052793264,0.059175145,0.045776553,-0.07776249,-0.07776249,-0.041453194,0.0020356365,0.7219712,-0.06302881,-0.084194355,-0.079516284,-1.5579522,0.012047887,0.2163277,0.22762355,0.0047111567,0.0047111567,0.021465102,0.013852401,0.81400657,0.02900654,0.12910861,0.1666705,-1.5934051,-0.023405075,-0.1654017,-0.16114931,0.011499714,0.011499714,0.39158857,0.38156515,0.83830935,0.05330932,0.13518953,0.14441323,-1.5095676,0.060432434
35,0.7000000000000001,0.0,-0.105000004,0.0,0.0,0.0,0.0,0.0,0.0,-1.0,0.0,-0.15,0.0,0.08394761,-0.034984052,-0.052793264,-0.07776249,-0.06302881,0.012047887,0.0047111567,0.02900654,-0.023405075,0.011499714,0.05330932,0.060432434,-0.48071215,-0.22109233,0.09392952,0.5784776,0.63865125,0.21918777,0.63036585,-0.09049864,0.21085255,-0.7470444,-0.07749015,-0.33964357,-0.6261996,0.7741433,0.6587466,1.3211735,0.7054203,-0.93848944,1.430427,-0.30803648,1.6024195,-1.0996677,2.2383177,0.35820872,0.059575748,0.012981586,-0.017372541,0.045776553,0.0020356365,-0.079516284,0.22762355,0.013852401,0.1666705,-0.16114931,0.38156515,0.14441323,0.07671492,0.050051786,0.07292858,0.07292858,0.026977874,0.01093284,0.74710965,-0.037890375,0.018169396,0.0007979125,-1.6193064,-0.049306393,0.05192131,0.04891961,-0.0635003,-0.0635003,-0.079849675,0.0107442625,0.7362944,-0.048705637,-0.07939736,-0.089630924,-1.5556072,0.014392853,0.19554695,0.23069319,0.020228442,0.020228442,0.013354553,0.019583246,0.8116722,0.026672184,0.10484066,0.16827226,-1.5859576,-0.015957594,-0.17695831,-0.14906774,-0.0054472033,-0.0054472033,0.4048282,0.37153137,0.84107566,0.056075633,0.1423417,0.13674273,-1.5157667,0.054233313
36,0.72,0.0,-0.105000004,0.0,0.0,0.0,0.0,0.0,0.0,-1.0,0.0,-0.15,0.0,0.07292858,-0.037890375,-0.049306393,-0.0635003,-0.048705637,0.014392853,0.020228442,0.026672184,-0.015957594,-0.0054472033,0.056075633,0.054233313,-0.5509513,-0.14531699,0.17434067,0.71310943,0.7161602,0.11724709,0.77586424,-0.11671759,0.37237585,-0.8473459,0.13831453,-0.30995902,-0.49096733,0.7663669,0.7081159,1.0508071,0.5071638,-1.0059559,1.1339583,-0.21173036,1.4153116,-0.68171376,2.0058837,0.38118917,0.050051786,0.01093284,0.0007979125,0.04891961,0.0107442625,-0.089630924,0.23069319,0.019583246,0.16827226,-0.14906774,0.37153137,0.13674273,0.09411762,0.045316752,0.060851857,0.060851857,0.043640114,0.013170794,0.7457718,-0.0392282,0.0067439675,0.015102185,-1.6141745,-0.044174433,0.044157732,0.057660572,-0.046996642,-0.046996642,-0.1039352,-0.0033078752,0.7514071,-0.03359294,-0.08343645,-0.09207105,-1.5553132,0.014686823,0.17300764,0.22939733,0.03799291,0.03799291,0.004510166,0.025161093,0.80900365,0.024003625,0.09477947,0.15611398,-1.5758741,-0.0058740377,-0.1837283,-0.14997728,-0.023772102,-0.023772102,0.4154312,0.37656206,0.8479342,0.06293416,0.1516537,0.13294503,-1.5212643,0.048735738
37,0.74,0.0,-0.105000004,0.0,0.0,0.0,0.0,0.0,0.0,-1.0,0.0,-0.15,0.0,0.060851857,-0.0392282,-0.044174433,-0.046996642,-0.03359294,0.014686823,0.03799291,0.024003625,-0.0058740377,-0.023772102,0.06293416,0.048735738,-0.60383606,-0.06688987,0.25659558,0.8251829,0.7556349,0.014699332,0.88822335,-0.13342829,0.5041803,-0.9162449,0.3429274,-0.27487832,-0.30917764,0.76646286,0.6993103,0.80063945,0.13320704,-0.9789073,0.78318036,-0.11605468,1.0908053,-0.36134213,1.8340857,0.42122784,0.045316752,0.013170794,0.015102185,0.057660572,-0.0033078752,-0.09207105,0.22939733,0.025161093,0.15611398,-0.14997728,0.37656206,0.13294503,0.110424705,0.057563666,0.048352733,0.048352733,0.06552117,0.017532744,0.74603677,-0.03896326,-0.007893942,0.021626987,-1.6075395,-0.037539482,0.03379561,0.059175145,-0.028867472,-0.028867472,-0.12405044,-0.041453194,0.76617587,-0.01882416,-0.09189307,-0.084194355,-1.556851,0.013149023,0.14557555,0.2163277,0.057114623,0.057114623,-0.002429122,0.021465102,0.80604386,0.021043837,0.088647775,0.12910861,-1.5640409,0.005959153,-0.18430495,-0.1654017,-0.043066476,-0.043066476,0.42530817,0.39158857,0.85870135,0.07370132,0.1625646,0.13518953,-1.5258836,0.044116497
38,0.76,0.0,-0.105000004,0.0,0.0,0.0,0.0,0.0,0.0,-1.0,0.0,-0.15,0.0,0.048352733,-0.03896326,-0.037539482,-0.028867472,-0.01882416,0.013149023,0.057114623,0.021043837,0.005959153,-0.043066476,0.07370132,0.044116497,-0.6249563,0.013245918,0.33174646,0.9064585,0.73843926,-0.07689009,0.9560857,-0.14799063,0.5916567,-0.9647187,0.5383572,-0.23095997,-0.00065624714,0.7570508,0.6077741,0.48205146,-0.399659,-0.8454946,0.3387448,-0.090985574,0.64169455,-0.15179062,1.6843088,0.49113232,0.057563666,0.017532744,0.021626987,0.059175145,-0.041453194,-0.084194355,0.2163277,0.021465102,0.12910861,-0.1654017,0.39158857,0.13518953,0.12549067,0.07671492,0.036158714,0.036158714,0.097585015,0.026977874,0.7479669,-0.03703314,-0.02888482,0.018169396,-1.5997443,-0.029744267,0.019837152,0.05192131,-0.00989026,-0.00989026,-0.14617907,-0.079849675,0.779531,-0.005469024,-0.104146294,-0.07939736,-1.560003,0.00999701,0.11588502,0.19554695,0.07658134,0.07658134,-0.006409904,0.013354553,0.8027723,0.017772257,0.0896476,0.10484066,-1.5513127,0.018687367,-0.18062837,-0.17695831,-0.062849335,-0.062849335,0.4357018,0.4048282,0.87304896,0.088048935,0.1752281,0.1423417,-1.5294061,0.04059398
39,0.78,0.0,-0.105000004,0.0,0.0,0.0,0.0,0.0,0.0,-1.0,0.0,-0.15,0.0,0.036158714,-0.03703314,-0.029744267,-0.00989026,-0.005469024,0.00999701,0.07658134,0.017772257,0.018687367,-0.062849335,0.088048935,0.04059398,-0.6097009,0.09650715,0.3897578,0.9488606,0.6677562,-0.15760197,0.97333556,-0.1635776,0.6364118,-0.9891431,0.7173798,-0.17612508,0.34003037,0.7600998,0.4263846,0.09918437,-0.88517153,-0.7163307,-0.14759353,-0.095731,0.22152229,0.08449445,1.4711527,0.5772917,0.07671492,0.026977874,0.018169396,0.05192131,-0.079849675,-0.07939736,0.19554695,0.013354553,0.10484066,-0.17695831,0.4048282,0.1423417,0.13919374,0.09411762,0.0249232,0.0249232,0.13094398,0.043640114,0.75168383,-0.033316195,-0.05295077,0.0067439675,-1.5912791,-0.021279097,0.0035545826,0.044157732,0.0091611035,0.0091611035,-0.17083164,-0.1039352,0.7907304,0.0057303905,-0.117102586,-0.08343645,-1.5646523,0.0053477287,0.08542997,0.17300764,0.09539223,0.09539223,-0.00458931,0.004510166,0.79916775,0.014167726,0.09287706,0.09477947,-1.5383024,0.03169763,-0.17366341,-0.1837283,-0.08257153,-0.08257153,0.44269848,0.4154312,0.89050853,0.10550851,0.18679655,0.1516537,-1.531625,0.03837502
40,0.8,0.0,-0.105000004,0.0,0.0,0.0,0.0,0.0,0.0,-1.0,0.0,-0.15,0.0,0.0249232,-0.033316195,-0.021279097,0.0091611035,0.0057303905,0.0053477287,0.09539223,0.014167726,0.03169763,-0.08257153,0.10550851,0.03837502,-0.56177574,0.18584692,0.42325586,0.9525682,0.5599706,-0.23246628,0.9405448,-0.1802262,0.650515,-0.9861096,0.87297744,-0.110946186,0.6350576,0.78925675,0.18278888,-0.26959985,-1.2031535,-0.6368224,-0.61248696,-0.1004892,-0.07418368,0.34437293,1.1988243,0.6547029,0.09411762,0.043640114,0.0067439675,0.044157732,-0.1039352,-0.08343645,0.17300764,0.004510166,0.09477947,-0.1837283,0.4154312,0.1516537,0.14827421,0.110424705,0.015218714,0.015218714,0.15656245,0.06552117,0.7573294,-0.027670622,-0.07691543,-0.007893942,-1.5826826,-0.012682557,-0.01305769,0.03379561,0.027507473,0.027507473,-0.195025,-0.12405044,0.79920167,0.014201641,-0.12860793,-0.09189307,-1.5707105,-0.00071048737,0.057234466,0.14557555,0.11253923,0.11253923,0.002290791,-0.002429122,0.79525125,0.010251224,0.09893243,0.088647775,-1.5255386,0.04446149,-0.16247793,-0.18430495,-0.1016142,-0.1016142,0.44710493,0.42530817,0.9105238,0.12552375,0.19537109,0.1625646,-1.53236,0.037640095
41,0.8200000000000001,0.0,-0.105000004,0.0,0.0,0.0,0.0,0.0,0.0,-1.0,0.0,-0.15,0.0,0.015218714,-0.027670622,-0.012682557,0.027507473,0.014201641,-0.00071048737,0.11253923,0.010251224,0.04446149,-0.1016142,0.12552375,0.037640095,-0.4852243,0.28227738,0.42982438,0.91731846,0.42356306,-0.3029137,0.8573504,-0.19582656,0.63819134,-0.95213366,1.0007614,-0.0367473,0.88251036,0.82576025,-0.0751436,-0.6284139,-1.4314117,-0.57231903,-1.0646985,-0.085539326,-0.32129675,0.6274544,0.89370424,0.7166482,0.110424705,0.06552117,-0.007893942,0.03379561,-0.12405044,-0.09189307,0.14557555,-0.002429122,0.088647775,-0.18430495,0.42530817,0.1625646,0.15589884,0.12549067,0.007520304,0.007520304,0.17421478,0.097585015,0.7651395,-0.019860506,-0.100377604,-0.02888482,-1.5745722,-0.004572153,-0.031030193,0.019837152,0.044373676,0.044373676,-0.21808779,-0.14617907,0.80445606,0.019456029,-0.13296497,-0.104146294,-1.5781095,-0.00810945,0.030408159,0.11588502,0.1270818,0.1270818,0.009421473,-0.006409904,0.79109997,0.0060999393,0.10427005,0.0896476,-1.5134014,0.056598663,-0.15057857,-0.18062837,-0.11934314,-0.11934314,0.4471531,0.4357018,0.93249273,0.1474927,0.20062228,0.1752281,-1.531459,0.03854108
42,0.84,0.0,-0.105000004,0.0,0.0,0.0,0.0,0.0,0.0,-1.0,0.0,-0.15,0.0,0.007520304,-0.019860506,-0.004572153,0.044373676,0.019456029,-0.00810945,0.1270818,0.0060999393,0.056598663,-0.11934314,0.1474927,0.03854108,-0.3849205,0.39050448,0.40551734,0.8433103,0.26271904,-0.3699482,0.72712815,-0.2075651,0.6068614,-0.88644695,1.0984467,0.04504841,1.0760607,0.90319556,-0.36068332,-0.97293663,-1.6120886,-0.51844466,-1.4697927,-0.04509555,-0.49182907,0.9076867,0.57650715,0.76264346,0.12549067,0.097585015,-0.02888482,0.019837152,-0.14617907,-0.104146294,0.11588502,-0.006409904,0.0896476,-0.18062837,0.4357018,0.1752281,0.16292116,0.13919374,0.0021932647,0.0021932647,0.1858666,0.13094398,0.7752898,-0.009710252,-0.11853308,-0.05295077,-1.5675683,0.0024317503,-0.049716797,0.0035545826,0.059033487,0.059033487,-0.23323306,-0.17083164,0.80609185,0.021091819,-0.13266328,-0.117102586,-1.5867527,-0.0167526,0.007542506,0.08542997,0.1381975,0.1381975,0.014662353,-0.00458931,0.7868876,0.0018875599,0.11430331,0.09287706,-1.5021962,0.06780386,-0.14066158,-0.17366341,-0.13514526,-0.13514526,0.4443122,0.44269848,0.9557266,0.1707266,0.2044975,0.18679655,-1.5288476,0.041152477
43,0.86,0.0,-0.105000004,0.0,0.0,0.0,0.0,0.0,0.0,-1.0,0.0,-0.15,0.0,0.0021932647,-0.009710252,0.0024317503,0.059033487,0.021091819,-0.0167526,0.1381975,0.0018875599,0.06780386,-0.13514526,0.1707266,0.041152477,-0.26635197,0.50751126,0.35019624,0.73299056,0.08178811,-0.43215778,0.5557848,-0.2106182,0.5602622,-0.7901063,1.1616949,0.1305674,1.2116337,0.9491606,-0.637613,-1.2825944,-1.7450167,-0.45270047,-1.8056126,0.038393594,-0.62197566,1.1680701,0.22911577,0.7706481,0.13919374,0.13094398,-0.05295077,0.0035545826,-0.17083164,-0.117102586,0.08542997,-0.00458931,0.09287706,-0.17366341,0.44269848,0.18679655,0.17116244,0.14827421,-0.00056521967,-0.00056521967,0.19170868,0.15656245,0.7877482,0.0027481914,-0.13519338,-0.07691543,-1.5622231,0.0077769756,-0.0678532,-0.01305769,0.07086231,0.07086231,-0.2417192,-0.195025,0.8038505,0.018850446,-0.12555605,-0.12860793,-1.5964853,-0.026485205,-0.015092932,0.057234466,0.14525084,0.14525084,0.017040433,0.002290791,0.78286207,-0.002137959,0.12505743,0.09893243,-1.492138,0.077862024,-0.1320024,-0.16247793,-0.14843228,-0.14843228,0.4388731,0.44710493,0.97948927,0.19448924,0.20849942,0.19537109,-1.5245577,0.045442343
44,0.88,0.0,-0.105000004,0.0,0.0,0.0,0.0,0.0,0.0,-1.0,0.0,-0.15,0.0,-0.00056521967,0.0027481914,0.0077769756,0.07086231,0.018850446,-0.026485205,0.14525084,-0.002137959,0.077862024,-0.14843228,0.19448924,0.045442343,-0.13792422,0.62292206,0.26726323,0.5914413,-0.11206819,-0.4866321,0.35266715,-0.20127471,0.50290895,-0.6643509,1.1881316,0.214492,1.2641993,0.8970674,-0.8733872,-1.533979,-1.8057728,-0.36178458,-2.0424714,0.15317145,-0.7057868,1.4072686,-0.1290532,0.7286457,0.14827421,0.15656245,-0.07691543,-0.01305769,-0.195025,-0.12860793,0.057234466,0.002290791,0.09893243,-0.16247793,0.44710493,0.19537109,0.18173899,0.15589884,-0.0006733118,-0.0006733118,0.19501144,0.17421478,0.8022832,0.017283201,-0.14927943,-0.100377604,-1.559,0.011000037,-0.084767506,-0.031030193,0.079335615,0.079335615,-0.24685769,-0.21808779,0.7976286,0.012628555,-0.11542582,-0.13296497,-1.6070112,-0.037011147,-0.037699685,0.030408159,0.14779001,0.14779001,0.016510991,0.009421473,0.779257,-0.0057430267,0.13245156,0.10427005,-1.4834061,0.086593986,-0.12027047,-0.15057857,-0.15871438,-0.15871438,0.43049985,0.4471531,1.0029945,0.21799451,0.21224222,0.20062228,-1.5187266,0.051273465
45,0.9,0.0,-0.105000004,0.0,0.0,0.0,0.0,0.0,0.0,-1.0,0.0,-0.15,0.0,-0.0006733118,0.017283201,0.011000037,0.079335615,0.012628555,-0.037011147,0.14779001,-0.0057430267,0.086593986,-0.15871438,0.21799451,0.051273465,-0.0054046065,0.7267506,0.16115487,0.42366534,-0.3110957,-0.5262961,0.126959,-0.18025306,0.43660024,-0.5141046,1.1752648,0.2915575,1.260666,0.75381124,-1.0595986,-1.7294441,-1.7912114,-0.20839241,-2.1848545,0.25738668,-0.7696441,1.5918539,-0.4983189,0.63882434,0.15589884,0.17421478,-0.100377604,-0.031030193,-0.21808779,-0.13296497,0.030408159,0.009421473,0.10427005,-0.15057857,0.4471531,0.20062228,0.19403149,0.16292116,0.0018522851,0.0018522851,0.19908324,0.1858666,0.8185123,0.033512294,-0.15851545,-0.11853308,-1.5581867,0.011813402,-0.098097205,-0.049716797,0.08405105,0.08405105,-0.2512462,-0.23323306,0.7875819,0.0025818944,-0.10454453,-0.13266328,-1.6179491,-0.047949076,-0.060142085,0.007542506,0.14559363,0.14559363,0.012413641,0.014662353,0.77625054,-0.008749485,0.1379464,0.11430331,-1.4760528,0.09394729,-0.1029464,-0.14066158,-0.1656541,-0.1656541,0.41988355,0.4443122,1.0254577,0.24045771,0.21436507,0.2044975,-1.5115558,0.05844426
46,0.92,0.0,-0.105000004,0.0,0.0,0.0,0.0,0.0,0.0,-1.0,0.0,-0.15,0.0,0.0018522851,0.033512294,0.011813402,0.08405105,0.0025818944,-0.047949076,0.14559363,-0.008749485,0.09394729,-0.1656541,0.24045771,0.05844426,0.12627985,0.8114532,0.04067055,0.23577166,-0.5023331,-0.546894,-0.109818965,-0.15032166,0.36766252,-0.34698564,1.1231601,0.35854012,1.2105927,0.54500943,-1.1576148,-1.860437,-1.6560085,-0.020673776,-2.2142482,0.33245167,-0.77256113,1.6986656,-0.85440576,0.52160233,0.16292116,0.1858666,-0.11853308,-0.049716797,-0.23323306,-0.13266328,0.007542506,0.014662353,0.11430331,-0.14066158,0.4443122,0.2044975,0.20814928,0.17116244,0.0069309277,0.0069309277,0.19909003,0.19170868,0.83592486,0.050924838,-0.16138077,-0.13519338,-1.559955,0.010045052,-0.10909377,-0.0678532,0.08475543,0.08475543,-0.25823227,-0.2417192,0.7740875,-0.010912538,-0.09500661,-0.12555605,-1.6288147,-0.058814645,-0.07956512,-0.015092932,0.13860658,0.13860658,0.008193964,0.017040433,0.77394706,-0.011052966,0.13830835,0.12505743,-1.4700725,0.099927545,-0.07905998,-0.1320024,-0.16905794,-0.16905794,0.40804762,0.4388731,1.046125,0.26112503,0.21355012,0.20849942,-1.5032778,0.066722274
47,0.9400000000000001,0.0,-0.105000004,0.0,0.0,0.0,0.0,0.0,0.0,-1.0,0.0,-0.15,0.0,0.0069309277,0.050924838,0.010045052,0.08475543,-0.010912538,-0.058814645,0.13860658,-0.011052966,0.099927545,-0.16905794,0.26112503,0.066722274,0.25393215,0.8706278,-0.0884191,0.03521885,-0.6747229,-0.5432756,-0.34935215,-0.11517401,0.29900968,-0.17019175,1.0333683,0.41390184,1.1314386,0.2835582,-1.198058,-1.9165218,-1.4217919,0.20822418,-2.1637726,0.37075838,-0.7478859,1.7340037,-1.1836993,0.39348814,0.17116244,0.19170868,-0.13519338,-0.0678532,-0.2417192,-0.12555605,-0.015092932,0.017040433,0.12505743,-0.1320024,0.4388731,0.20849942,0.22171502,0.18173899,0.014441673,0.014441673,0.19346523,0.19501144,0.85395736,0.06895733,-0.15818062,-0.14927943,-1.5643449,0.0056551695,-0.1183282,-0.084767506,0.08135613,0.08135613,-0.2659585,-0.24685769,0.75766724,-0.027332783,-0.086758934,-0.11542582,-1.6391016,-0.06910157,-0.0947963,-0.037699685,0.12693028,0.12693028,0.0043478142,0.016510991,0.7723766,-0.012623429,0.13402608,0.13245156,-1.4654698,0.104530215,-0.051465083,-0.12027047,-0.16880605,-0.16880605,0.39308387,0.43049985,1.064291,0.27929097,0.21000454,0.21224222,-1.4941529,0.07584715
48,0.96,0.0,-0.105000004,0.0,0.0,0.0,0.0,0.0,0.0,-1.0,0.0,-0.15,0.0,0.014441673,0.06895733,0.0056551695,0.08135613,-0.027332783,-0.06910157,0.12693028,-0.012623429,0.104530215,-0.16880605,0.27929097,0.07584715,0.37553725,0.9016259,-0.21949372,-0.16996479,-0.82101285,-0.51434904,-0.5838148,-0.078521796,0.23013635,0.012594163,0.9082998,0.4562448,1.0350764,0.0059617995,-1.1749707,-1.8948559,-1.1270301,0.43939304,-2.0405743,0.37332347,-0.7279393,1.732436,-1.4788063,0.25626022,0.18173899,0.19501144,-0.14927943,-0.084767506,-0.24685769,-0.11542582,-0.037699685,0.016510991,0.13245156,-0.12027047,0.43049985,0.21224222,0.2344547,0.19403149,0.02421925,0.02421925,0.17993811,0.19908324,0.8720669,0.08706689,-0.15032831,-0.15851545,-1.5712324,-0.0012323856,-0.127094,-0.098097205,0.073953845,0.073953845,-0.2698758,-0.2512462,0.7389227,-0.04607731,-0.07889915,-0.10454453,-1.6483357,-0.07833564,-0.10561801,-0.060142085,0.11081376,0.11081376,0.0026288312,0.012413641,0.77148724,-0.01351279,0.12430924,0.1379464,-1.4622351,0.10776496,-0.021342818,-0.1029464,-0.1648121,-0.1648121,0.37208575,0.41988355,1.0793295,0.29432946,0.20292097,0.21436507,-1.4844816,0.08551848
49,0.98,0.0,-0.105000004,0.0,0.0,0.0,0.0,0.0,0.0,-1.0,0.0,-0.15,0.0,0.02421925,0.08706689,-0.0012323856,0.073953845,-0.04607731,-0.07833564,0.11081376,-0.01351279,0.10776496,-0.1648121,0.29432946,0.08551848,0.4888789,0.90547943,-0.34437966,-0.37011415,-0.9372267,-0.4617048,-0.8058262,-0.044467323,0.16173828,0.19969699,0.7519261,0.48356912,0.9203045,-0.25314426,-1.0762156,-1.7829821,-0.8041194,0.6478656,-1.8512437,0.33774728,-0.70153755,1.7135738,-1.7261655,0.104839824,0.19403149,0.19908324,-0.15851545,-0.098097205,-0.2512462,-0.10454453,-0.060142085,0.012413641,0.1379464,-0.1029464,0.41988355,0.21436507,0.2427493,0.20814928,0.03606332,0.03606332,0.16003114,0.19909003,0.8896703,0.104670286,-0.13999382,-0.16138077,-1.5803183,-0.010318279,-0.13474879,-0.10909377,0.06280965,0.06280965,-0.26796985,-0.25823227,0.7184582,-0.06654185,-0.07263816,-0.09500661,-1.6561215,-0.08612144,-0.109170675,-0.07956512,0.09068398,0.09068398,0.00378819,0.008193964,0.77120584,-0.013794184,0.11082434,0.13830835,-1.4603976,0.10960245,0.005894829,-0.07905998,-0.15700883,-0.15700883,0.34738296,0.40804762,1.0907263,0.30572623,0.19346558,0.21355012,-1.4746135,0.095386505
50,1.0,0.0,-0.105000004,0.0,0.0,0.0,0.0,0.0,0.0,-1.0,0.0,-0.15,0.0,0.03606332,0.104670286,-0.010318279,0.06280965,-0.06654185,-0.08612144,0.09068398,-0.013794184,0.10960245,-0.15700883,0.30572623,0.095386505,0.5922036,0.88017046,-0.4542935,-0.5572096,-1.0232275,-0.3892879,-1.006489,-0.0140683185,0.091874056,0.39016348,0.5698407,0.49340117,0.7920793,-0.5220898,-0.8988069,-1.5990999,-0.48957452,0.8125334,-1.5842204,0.29329285,-0.6931099,1.6845796,-1.9121596,-0.064483926,0.20814928,0.19909003,-0.16138077,-0.10909377,-0.25823227,-0.09500661,-0.07956512,0.008193964,0.13830835,-0.07905998,0.40804762,0.21355012,0.24618278,0.22171502,0.049708605,0.049708605,0.13481024,0.19346523,0.90613955,0.12113953,-0.12994534,-0.15818062,-1.5911506,-0.021150589,-0.13980912,-0.1183282,0.04831951,0.04831951,-0.26218125,-0.2659585,0.69689083,-0.088109195,-0.06526499,-0.086758934,-1.6621503,-0.09215021,-0.10644313,-0.0947963,0.06714206,0.06714206,0.007896548,0.0043478142,0.7714495,-0.01355052,0.09321746,0.13402608,-1.4600148,0.10998523,0.02739526,-0.051465083,-0.14539488,-0.14539488,0.32072192,0.39308387,1.0980593,0.31305927,0.18168491,0.21000454,-1.4649312,0.1050688
51,1.02,0.0,-0.105000004,0.0,0.0,0.0,0.0,0.0,0.0,-1.0,0.0,-0.15,0.0,0.049708605,0.12113953,-0.021150589,0.04831951,-0.088109195,-0.09215021,0.06714206,-0.01355052,0.10998523,-0.14539488,0.31305927,0.1050688,0.68226415,0.82346165,-0.5416141,-0.7245071,-1.0783658,-0.30143628,-1.177096,0.012184031,0.01913727,0.58069736,0.36665386,0.48411635,0.6372504,-0.8022413,-0.6562292,-1.3574842,-0.1787374,0.93105066,-1.2440953,0.2454987,-0.69712394,1.6242487,-2.0476038,-0.24312249,0.22171502,0.19346523,-0.15818062,-0.1183282,-0.2659585,-0.086758934,-0.0947963,0.0043478142,0.13402608,-0.051465083,0.39308387,0.21000454,0.24500516,0.2344547,0.064832225,0.064832225,0.105567805,0.17993811,0.9207879,0.13578784,-0.118017636,-0.15032831,-1.6031698,-0.033169746,-0.14154427,-0.127094,0.030974148,0.030974148,-0.253362,-0.2698758,0.6749034,-0.11009663,-0.057942964,-0.07889915,-1.6661911,-0.09619105,-0.0985242,-0.10561801,0.040938802,0.040938802,0.014111439,0.0026288312,0.77215666,-0.01284337,0.07034128,0.12430924,-1.4611818,0.10881829,0.042643037,-0.021342818,-0.13005048,-0.13005048,0.2924139,0.37208575,1.1009612,0.31596118,0.16953775,0.20292097,-1.4558485,0.1141516
52,1.04,0.0,-0.105000004,0.0,0.0,0.0,0.0,0.0,0.0,-1.0,0.0,-0.15,0.0,0.064832225,0.13578784,-0.033169746,0.030974148,-0.11009663,-0.09619105,0.040938802,-0.01284337,0.10881829,-0.13005048,0.31596118,0.1141516,0.75618094,0.7324158,-0.6009552,-0.86726815,-1.0993735,-0.20204344,-1.3101629,0.035358705,-0.05834852,0.76722,0.14509489,0.45413718,0.4602316,-1.0993087,-0.37143365,-1.0787044,0.15222673,1.0088854,-0.84488344,0.20884499,-0.717444,1.5264552,-2.1512408,-0.43012685,0.2344547,0.17993811,-0.15032831,-0.127094,-0.2698758,-0.07889915,-0.10561801,0.0026288312,0.12430924,-0.021342818,0.37208575,0.20292097,0.2392265,0.2427493,0.08100902,0.08100902,0.071301155,0.16003114,0.9329191,0.14791906,-0.10391966,-0.13999382,-1.6157664,-0.045766354,-0.13940127,-0.13474879,0.011348901,0.011348901,-0.2416649,-0.26796985,0.6532509,-0.13174915,-0.050783858,-0.07263816,-1.6681141,-0.09811401,-0.084783874,-0.109170675,0.012988936,0.012988936,0.022504,0.00378819,0.77330005,-0.011699975,0.0434505,0.11082434,-1.4639994,0.10600066,0.051559407,0.005894829,-0.111217365,-0.111217365,0.26211214,0.34738296,1.0991653,0.3141653,0.15801036,0.19346558,-1.4477773,0.12222278
53,1.06,0.0,-0.105000004,0.0,0.0,0.0,0.0,0.0,0.0,-1.0,0.0,-0.15,0.0,0.08100902,0.14791906,-0.045766354,0.011348901,-0.13174915,-0.09811401,0.012988936,-0.011699975,0.10600066,-0.111217365,0.3141653,0.12222278,0.8088398,0.6065594,-0.62983096,-0.9812624,-1.0826261,-0.09614621,-1.3974934,0.05717075,-0.14088088,0.94165564,-0.08979143,0.40356013,0.2414302,-1.389735,-0.07277413,-0.7689416,0.5055407,1.0367911,-0.3824417,0.18892008,-0.7389754,1.3558086,-2.2026858,-0.60962075,0.2427493,0.16003114,-0.13999382,-0.13474879,-0.26796985,-0.07263816,-0.109170675,0.00378819,0.11082434,0.005894829,0.34738296,0.19346558,0.22993514,0.24618278,0.09772362,0.09772362,0.036574714,0.13481024,0.9418673,0.15686727,-0.08817401,-0.12994534,-1.6283478,-0.058347702,-0.13549754,-0.13980912,-0.009895194,-0.009895194,-0.22873808,-0.26218125,0.63270205,-0.15229797,-0.04628431,-0.06526499,-1.6678455,-0.097845435,-0.06536146,-0.10644313,-0.015682172,-0.015682172,0.032333225,0.007896548,0.774887,-0.010113001,0.016734371,0.09321746,-1.4685767,0.10142338,0.051659,0.02739526,-0.08932863,-0.08932863,0.23495372,0.32072192,1.0925375,0.3075375,0.14754261,0.18168491,-1.4411138,0.12888622
54,1.08,0.0,-0.105000004,0.0,0.0,0.0,0.0,0.0,0.0,-1.0,0.0,-0.15,0.0,0.09772362,0.15686727,-0.058347702,-0.009895194,-0.15229797,-0.097845435,-0.015682172,-0.010113001,0.10142338,-0.08932863,0.3075375,0.12888622,0.8357296,0.4474091,-0.62906945,-1.0622048,-1.0274411,0.013431564,-1.4335555,0.0793494,-0.22886398,1.0944369,-0.33138874,0.33317366,-0.011980439,-1.6550992,0.20853572,-0.42904744,0.85303783,1.0366917,0.11614747,0.18530566,-0.76260316,1.1012018,-2.1891296,-0.7752866,0.24618278,0.13481024,-0.12994534,-0.13980912,-0.26218125,-0.06526499,-0.10644313,0.007896548,0.09321746,0.02739526,0.32072192,0.18168491,0.21674974,0.24500516,0.11439541,0.11439541,0.006648686,0.105567805,0.9470374,0.16203737,-0.07613457,-0.118017636,-1.6403213,-0.0703212,-0.1282573,-0.14154427,-0.032025147,-0.032025147,-0.21525595,-0.253362,0.61400044,-0.17099959,-0.040444896,-0.057942964,-1.6653863,-0.09538627,-0.040981185,-0.0985242,-0.04399428,-0.04399428,0.042647813,0.014111439,0.77694404,-0.008055985,-0.0038290843,0.07034128,-1.4750452,0.09495485,0.04046988,0.042643037,-0.06499353,-0.06499353,0.21686009,0.2924139,1.0810785,0.2960785,0.13699965,0.16953775,-1.4361953,0.1338048
55,1.1,0.0,-0.105000004,0.0,0.0,0.0,0.0,0.0,0.0,-1.0,0.0,-0.15,0.0,0.11439541,0.16203737,-0.0703212,-0.032025147,-0.17099959,-0.09538627,-0.04399428,-0.008055985,0.09495485,-0.06499353,0.2960785,0.1338048,0.83358943,0.25850528,-0.5986738,-1.1064976,-0.93508196,0.122958384,-1.4156055,0.102851845,-0.3234251,1.2167553,-0.5729482,0.24592724,-0.28708,-1.8773081,0.48033476,-0.06670294,1.1766379,1.0011581,0.6235177,0.19036104,-0.79483426,0.7726631,-2.1114714,-0.9075381,0.24500516,0.105567805,-0.118017636,-0.14154427,-0.253362,-0.057942964,-0.0985242,0.014111439,0.07034128,0.042643037,0.2924139,0.16953775,0.20334937,0.2392265,0.13040058,0.13040058,-0.018980052,0.071301155,0.94790465,0.16290462,-0.07011583,-0.10391966,-1.6511085,-0.08110845,-0.11480823,-0.13940127,-0.05425422,-0.05425422,-0.20119765,-0.2416649,0.59783924,-0.18716079,-0.028863654,-0.050783858,-1.6608102,-0.09081018,-0.01108411,-0.084783874,-0.07083951,-0.07083951,0.05279655,0.022504,0.7795161,-0.0054839253,-0.017503923,0.0434505,-1.4835336,0.08646643,0.019052152,0.051559407,-0.03897044,-0.03897044,0.20861651,0.26211214,1.0649118,0.27991182,0.12456665,0.15801036,-1.4332762,0.13672388
56,1.12,0.0,-0.105000004,0.0,0.0,0.0,0.0,0.0,0.0,-1.0,0.0,-0.15,0.0,0.13040058,0.16290462,-0.08110845,-0.05425422,-0.18716079,-0.09081018,-0.07083951,-0.0054839253,0.08646643,-0.03897044,0.27991182,0.13672388,0.8002585,0.043361112,-0.539362,-1.1114535,-0.8080604,0.2288014,-1.3422616,0.128602,-0.42442113,1.3011546,-0.80833673,0.1459514,-0.57272655,-2.0577457,0.73605824,0.3085841,1.4652838,0.9322912,1.1262919,0.20347357,-0.8236476,0.38542494,-1.9775236,-0.9964758,0.2392265,0.071301155,-0.10391966,-0.13940127,-0.2416649,-0.050783858,-0.084783874,0.022504,0.0434505,0.051559407,0.26211214,0.15801036,0.19167818,0.22993514,0.14511164,0.14511164,-0.04086385,0.036574714,0.94410074,0.15910071,-0.068618335,-0.08817401,-1.6601717,-0.090171695,-0.096744195,-0.13549754,-0.07580366,-0.07580366,-0.1876027,-0.22873808,0.58481544,-0.20018458,-0.011335462,-0.04628431,-1.6542976,-0.08429754,0.023715861,-0.06536146,-0.0951214,-0.0951214,0.059428055,0.032333225,0.7826524,-0.0023476481,-0.025638958,0.016734371,-1.4940968,0.0759033,-0.011710089,0.051659,-0.012174906,-0.012174906,0.21064857,0.23495372,1.0443555,0.2593555,0.11126747,0.14754261,-1.4325175,0.13748252
57,1.1400000000000001,0.0,-0.105000004,0.0,0.0,0.0,0.0,0.0,0.0,-1.0,0.0,-0.15,0.0,0.14511164,0.15910071,-0.090171695,-0.07580366,-0.20018458,-0.08429754,-0.0951214,-0.0023476481,0.0759033,-0.012174906,0.2593555,0.13748252,0.7355528,-0.19019456,-0.4531597,-1.0774721,-0.6511906,0.32563025,-1.2140944,0.15681279,-0.5281589,1.3397768,-1.0278158,0.037929803,-0.85008144,-2.1579163,0.9639341,0.6676143,1.698644,0.8156719,1.6060978,0.21782203,-0.8164984,-0.061817933,-1.7561496,-1.0383435,0.22993514,0.036574714,-0.08817401,-0.13549754,-0.22873808,-0.04628431,-0.06536146,0.032333225,0.016734371,0.051659,0.23495372,0.14754261,0.18236953,0.21674974,0.15791157,0.15791157,-0.060371153,0.006648686,0.9355022,0.15050215,-0.07248681,-0.07613457,-1.6671145,-0.097114444,-0.07485214,-0.1282573,-0.095902026,-0.095902026,-0.17398001,-0.21525595,0.57540464,-0.20959538,0.010121301,-0.040444896,-1.6460602,-0.076060176,0.05962515,-0.040981185,-0.11580101,-0.11580101,0.05861796,0.042647813,0.7863893,0.0013892651,-0.027869849,-0.0038290843,-1.506622,0.063378096,-0.048876043,0.04046988,0.014317965,0.014317965,0.2251874,0.21686009,1.0199974,0.23499733,0.10129004,0.13699965,-1.4340043,0.13599575
58,1.16,0.0,-0.105000004,0.0,0.0,0.0,0.0,0.0,0.0,-1.0,0.0,-0.15,0.0,0.15791157,0.15050215,-0.097114444,-0.095902026,-0.20959538,-0.076060176,-0.11580101,0.0013892651,0.063378096,0.014317965,0.23499733,0.13599575,0.63999635,-0.42992705,-0.34713474,-1.0049185,-0.47054052,0.41186893,-1.0339804,0.18684666,-0.62625945,1.3246436,-1.2179058,-0.07433903,-1.1125853,-2.1398816,1.1183211,1.0108331,1.8667486,0.68746954,2.0419567,0.22553115,-0.7315518,-0.5676502,-1.416124,-1.0427655,0.21674974,0.006648686,-0.07613457,-0.1282573,-0.21525595,-0.040444896,-0.040981185,0.042647813,-0.0038290843,0.04046988,0.21686009,0.13699965,0.17349261,0.20334937,0.16827191,0.16827191,-0.075602315,-0.018980052,0.9222138,0.13721377,-0.08084925,-0.07011583,-1.6717242,-0.10172415,-0.051020693,-0.11480823,-0.11376354,-0.11376354,-0.15748332,-0.20119765,0.56995225,-0.21504778,0.030387223,-0.028863654,-1.6362627,-0.0662626,0.09823054,-0.01108411,-0.13191834,-0.13191834,0.051640715,0.05279655,0.79073966,0.0057396293,-0.021915914,-0.017503923,-1.5208291,0.04917097,-0.09125135,0.019052152,0.03933285,0.03933285,0.25022888,0.20861651,0.9926751,0.2076751,0.09661811,0.12456665,-1.4377755,0.13222456
59,1.18,0.0,-0.105000004,0.0,0.0,0.0,0.0,0.0,0.0,-1.0,0.0,-0.15,0.0,0.16827191,0.13721377,-0.10172415,-0.11376354,-0.21504778,-0.0662626,-0.13191834,0.0057396293,0.04917097,0.03933285,0.2076751,0.13222456,0.51801753,-0.66441816,-0.23048753,-0.8930759,-0.27261898,0.48988083,-0.8058671,0.21751878,-0.7103546,1.2507445,-1.366113,-0.18856202,-1.3245645,-2.0150514,1.1819036,1.3482888,1.9674928,0.5843519,2.424954,0.22177935,-0.57159007,-1.1022806,-0.97081316,-1.0247796,0.20334937,-0.018980052,-0.07011583,-0.11480823,-0.20119765,-0.028863654,-0.01108411,0.05279655,-0.017503923,0.019052152,0.20861651,0.12456665,0.16165389,0.19167818,0.17579639,0.17579639,-0.08644389,-0.04086385,0.9045452,0.11954516,-0.091272004,-0.068618335,-1.6739461,-0.10394609,-0.028752793,-0.096744195,-0.12863946,-0.12863946,-0.13509595,-0.1876027,0.5686524,-0.21634763,0.04561267,-0.011335462,-1.6250159,-0.055015802,0.14119557,0.023715861,-0.14262897,-0.14262897,0.046007242,0.059428055,0.7956397,0.0106396675,-0.008300912,-0.025638958,-1.5363095,0.03369057,-0.1344288,-0.011710089,0.061650984,0.061650984,0.27720618,0.21064857,0.96344376,0.17844373,0.09847899,0.11126747,-1.443809,0.12619102
60,1.2,0.0,-0.105000004,0.0,0.0,0.0,0.0,0.0,0.0,-1.0,0.0,-0.15,0.0,0.17579639,0.11954516,-0.10394609,-0.12863946,-0.21634763,-0.055015802,-0.14262897,0.0106396675,0.03369057,0.061650984,0.17844373,0.12619102,0.37622416,-0.88343036,-0.11109916,-0.74379575,-0.06499371,0.56233865,-0.5355317,0.24500191,-0.7740217,1.1159066,-1.4615686,-0.30167916,-1.4674289,-1.7979183,1.1697407,1.6561756,1.9932379,0.50840056,2.739556,0.18268913,-0.35715076,-1.6380497,-0.43912706,-0.97807616,0.19167818,-0.04086385,-0.068618335,-0.096744195,-0.1876027,-0.011335462,0.023715861,0.059428055,-0.025638958,-0.011710089,0.21064857,0.11126747,0.14229739,0.18236953,0.18023707,0.18023707,-0.090652786,-0.060371153,0.8829686,0.09796858,-0.097697206,-0.07248681,-1.6738906,-0.10389054,-0.008985173,-0.07485214,-0.13985275,-0.13985275,-0.1052915,-0.17398001,0.5715569,-0.2134431,0.052389987,0.010121301,-1.612409,-0.042408943,0.18444368,0.05962515,-0.14728594,-0.14728594,0.04844689,0.05861796,0.8008922,0.015892148,0.010499921,-0.027869849,-1.55254,0.017460108,-0.16634354,-0.048876043,0.08009836,0.08009836,0.2959128,0.2251874,0.93356675,0.14856672,0.104302935,0.10129004,-1.4519584,0.118041635
61,1.22,0.0,-0.105000004,0.0,0.0,0.0,0.0,0.0,0.0,-1.0,0.0,-0.15,0.0,0.18023707,0.09796858,-0.10389054,-0.13985275,-0.2134431,-0.042408943,-0.14728594,0.015892148,0.017460108,0.08009836,0.14856672,0.118041635,0.22203436,-1.078828,0.0027800426,-0.56066453,0.14522819,0.6303441,-0.23284864,0.2626227,-0.8115215,0.9223689,-1.4938502,-0.40746886,-1.5358541,-1.5110525,1.0809636,1.9191589,1.9506356,0.4443418,2.9500005,0.08335787,-0.09656052,-2.1337667,0.17135692,-0.87461185,0.18236953,-0.060371153,-0.07248681,-0.07485214,-0.17398001,0.010121301,0.05962515,0.05861796,-0.027869849,-0.048876043,0.2251874,0.10129004,0.11390856,0.17349261,0.18146402,0.18146402,-0.084846236,-0.075602315,0.8581262,0.0731262,-0.09061476,-0.08084925,-1.6718068,-0.10180676,0.011167545,-0.051020693,-0.14684641,-0.14684641,-0.07218924,-0.15748332,0.5786267,-0.20637333,0.047735065,0.030387223,-1.5985892,-0.02858913,0.21719041,0.09823054,-0.14542523,-0.14542523,0.053970437,0.051640715,0.8061997,0.021199703,0.035298355,-0.021915914,-1.5688683,0.001131773,-0.1782563,-0.09125135,0.0936002,0.0936002,0.30327123,0.25022888,0.90443313,0.119433105,0.10892508,0.09661811,-1.4619318,0.10806823
62,1.24,0.0,-0.105000004,0.0,0.0,0.0,0.0,0.0,0.0,-1.0,0.0,-0.15,0.0,0.18146402,0.0731262,-0.10180676,-0.14684641,-0.20637333,-0.02858913,-0.14542523,0.021199703,0.001131773,0.0936002,0.119433105,0.10806823,0.061347425,-1.2421181,0.104186565,-0.34968346,0.35348907,0.6909909,0.0930357,0.26537675,-0.8164143,0.675092,-1.4566814,-0.49866748,-1.5461571,-1.1537784,0.93002146,2.1162188,1.8653622,0.3550279,3.0661302,-0.05875764,0.21477146,-2.5651598,0.8192421,-0.7068125,0.17349261,-0.075602315,-0.08084925,-0.051020693,-0.15748332,0.030387223,0.09823054,0.051640715,-0.021915914,-0.09125135,0.25022888,0.09661811,0.082500994,0.16165389,0.17940924,0.17940924,-0.072343946,-0.08644389,0.83080286,0.04580283,-0.0692214,-0.091272004,-1.6680298,-0.09802973,0.02893838,-0.028752793,-0.14925136,-0.14925136,-0.04400168,-0.13509595,0.5897854,-0.19521463,0.03294882,0.04561267,-1.5838157,-0.013815641,0.23796722,0.14119557,-0.13674481,-0.13674481,0.063253604,0.046007242,0.8112996,0.026299596,0.06343338,-0.008300912,-1.5845492,-0.014549136,-0.17050962,-0.1344288,0.10128088,0.10128088,0.30702925,0.27720618,0.87736964,0.092369616,0.10860303,0.09847899,-1.473289,0.09671104
63,1.26,0.0,-0.105000004,0.0,0.0,0.0,0.0,0.0,0.0,-1.0,0.0,-0.15,0.0,0.17940924,0.04580283,-0.09802973,-0.14925136,-0.19521463,-0.013815641,-0.13674481,0.026299596,-0.014549136,0.10128088,0.092369616,0.09671104,-0.10273926,-1.3661692,0.18885036,-0.120247275,0.5579352,0.73867404,0.43402073,0.2549942,-0.7840452,0.38403404,-1.3531753,-0.56786,-1.525947,-0.7413119,0.7438736,2.218123,1.7636988,0.21661381,3.1004713,-0.18023244,0.55840063,-2.8879416,1.4163233,-0.47561437,0.16165389,-0.08644389,-0.091272004,-0.028752793,-0.13509595,0.04561267,0.14119557,0.046007242,-0.008300912,-0.1344288,0.27720618,0.09847899,0.0530369,0.14229739,0.17399286,0.17399286,-0.05907345,-0.090652786,0.80192953,0.016929507,-0.039688982,-0.097697206,-1.6628678,-0.09286773,0.04371874,-0.008985173,-0.14690377,-0.14690377,-0.02016947,-0.1052915,0.60494834,-0.18005168,0.013783962,0.052389987,-1.5685005,0.0014995337,0.25647974,0.18444368,-0.12117148,-0.12117148,0.072338596,0.04844689,0.81607807,0.03107804,0.088172585,0.010499921,-1.5988125,-0.028812408,-0.15665825,-0.16634354,0.10267504,0.10267504,0.30778676,0.2959128,0.8534381,0.06843805,0.10327519,0.104302935,-1.4855043,0.08449578
64,1.28,0.0,-0.105000004,0.0,0.0,0.0,0.0,0.0,0.0,-1.0,0.0,-0.15,0.0,0.17399286,0.016929507,-0.09286773,-0.14690377,-0.18005168,0.0014995337,-0.12117148,0.03107804,-0.028812408,0.10267504,0.06843805,0.08449578,-0.27081913,-1.4436675,0.2580976,0.117379114,0.7581486,0.76575744,0.7786664,0.23892267,-0.7131644,0.06970811,-1.1965775,-0.61076236,-1.5100971,-0.27426094,0.5752568,2.2198894,1.6594207,0.012249517,3.02496,-0.22913484,0.90158033,-3.008403,1.8705828,-0.21212828,0.14229739,-0.090652786,-0.097697206,-0.008985173,-0.1052915,0.052389987,0.18444368,0.04844689,0.010499921,-0.16634354,0.2959128,0.104302935,0.029957257,0.11390856,0.16510206,0.16510206,-0.049768858,-0.084846236,0.7726006,-0.012399435,-0.009259202,-0.09061476,-1.656442,-0.08644199,0.052772358,0.011167545,-0.13979396,-0.13979396,-0.00072156265,-0.07218924,0.6239598,-0.16104025,-0.0065572523,0.047735065,-1.5532354,0.01676464,0.27113536,0.21719041,-0.09902429,-0.09902429,0.07700537,0.053970437,0.8204866,0.03548658,0.10532352,0.035298355,-1.6108758,-0.040875793,-0.14650819,-0.1782563,0.0978618,0.0978618,0.30726475,0.30327123,0.83336544,0.048365414,0.09471222,0.10892508,-1.4980698,0.07193029
65,1.3,0.0,-0.105000004,0.0,0.0,0.0,0.0,0.0,0.0,-1.0,0.0,-0.15,0.0,0.16510206,-0.012399435,-0.08644199,-0.13979396,-0.16104025,0.01676464,-0.09902429,0.03548658,-0.040875793,0.0978618,0.048365414,0.07193029,-0.4445399,-1.4664484,0.32128924,0.3554902,0.9505725,0.7632583,1.1073598,0.22042803,-0.60316765,-0.2406624,-1.0036327,-0.6282774,-1.5080945,0.2528451,0.4975089,2.1482987,1.523844,-0.2679836,2.7682319,-0.24623564,1.2379833,-2.8715081,2.154139,0.034654904,0.11390856,-0.084846236,-0.09061476,0.011167545,-0.07218924,0.047735065,0.21719041,0.053970437,0.035298355,-0.1782563,0.30327123,0.10892508,0.01587705,0.082500994,0.15269256,0.15269256,-0.042991675,-0.072343946,0.74397737,-0.04102266,0.018279828,-0.0692214,-1.6486789,-0.07867885,0.05645618,0.02893838,-0.12810323,-0.12810323,0.009197306,-0.04400168,0.6464699,-0.13853014,-0.027757116,0.03294882,-1.5387428,0.03125727,0.2757493,0.23796722,-0.071008205,-0.071008205,0.07771684,0.063253604,0.8245512,0.0395512,0.11267969,0.06343338,-1.6200131,-0.050013065,-0.14399073,-0.17050962,0.08742948,0.08742948,0.31112134,0.30702925,0.81766117,0.03266114,0.088863775,0.10860303,-1.5105711,0.05942893
66,1.32,0.0,-0.105000004,0.0,0.0,0.0,0.0,0.0,0.0,-1.0,0.0,-0.15,0.0,0.15269256,-0.04102266,-0.07867885,-0.12810323,-0.13853014,0.03125727,-0.071008205,0.0395512,-0.050013065,0.08742948,0.03266114,0.05942893,-0.6204754,-1.4311621,0.38815477,0.58453673,1.1255069,0.72463095,1.4008044,0.20323102,-0.45686126,-0.52161586,-0.7852123,-0.6250696,-1.4728353,0.793192,0.5110122,1.9888903,1.3017151,-0.59884197,2.3394668,-0.22840557,1.536107,-2.5021405,2.326262,0.23049593,0.082500994,-0.072343946,-0.0692214,0.02893838,-0.04400168,0.03294882,0.23796722,0.063253604,0.06343338,-0.17050962,0.30702925,0.10860303,0.01193887,0.0530369,0.13686596,0.13686596,-0.03666246,-0.05907345,0.71715283,-0.06784719,0.04453457,-0.039688982,-1.6394212,-0.06942117,0.057701226,0.04371874,-0.112198226,-0.112198226,0.009670671,-0.02016947,0.67196476,-0.11303526,-0.051904835,0.013783962,-1.5257545,0.0442456,0.27184448,0.25647974,-0.038016986,-0.038016986,0.07360703,0.072338596,0.8283044,0.043304384,0.111965366,0.088172585,-1.6256824,-0.0556823,-0.14684682,-0.15665825,0.0722145,0.0722145,0.32277298,0.30778676,0.80662155,0.021621525,0.08810077,0.10327519,-1.5226967,0.04730332
67,1.34,0.0,-0.105000004,0.0,0.0,0.0,0.0,0.0,0.0,-1.0,0.0,-0.15,0.0,0.13686596,-0.06784719,-0.06942117,-0.112198226,-0.11303526,0.0442456,-0.038016986,0.043304384,-0.0556823,0.0722145,0.021621525,0.04730332,-0.7913302,-1.3412266,0.46288192,0.79525006,1.2747442,0.6494149,1.649561,0.18765841,-0.28345916,-0.76074886,-0.55198,-0.6062822,-1.369895,1.2835808,0.5617853,1.7472966,1.0098362,-0.92236555,1.835329,-0.20799069,1.7380278,-2.0283237,2.3923402,0.37249038,0.0530369,-0.05907345,-0.039688982,0.04371874,-0.02016947,0.013783962,0.25647974,0.072338596,0.088172585,-0.15665825,0.30778676,0.10327519,0.017262768,0.029957257,0.11793029,0.11793029,-0.026088782,-0.049768858,0.69304436,-0.09195566,0.06367884,-0.009259202,-1.6285532,-0.0585531,0.056240916,0.052772358,-0.09265377,-0.09265377,-0.00046827644,-0.00072156265,0.6997905,-0.08520955,-0.07968409,-0.0065572523,-1.5149363,0.055063725,0.2591053,0.27113536,-0.0011206158,-0.0011206158,0.06465794,0.07700537,0.83171624,0.046716213,0.109536126,0.10532352,-1.627601,-0.057600975,-0.1502618,-0.14650819,0.053105276,0.053105276,0.3406316,0.30726475,0.8003583,0.015358269,0.09263686,0.09471222,-1.5342144,0.035785675
68,1.36,0.0,-0.105000004,0.0,0.0,0.0,0.0,0.0,0.0,-1.0,0.0,-0.15,0.0,0.11793029,-0.09195566,-0.0585531,-0.09265377,-0.08520955,0.055063725,-0.0011206158,0.046716213,-0.057600975,0.053105276,0.015358269,0.035785675,-0.9467834,-1.2054248,0.54340434,0.97722256,1.3912861,0.5409054,1.8448185,0.17059278,-0.09593569,-0.95546114,-0.31316373,-0.57588357,-1.1738348,1.6758525,0.59107363,1.416028,0.6619371,-1.2039301,1.2646034,-0.21671271,1.8121719,-1.5440193,2.368967,0.47306904,0.029957257,-0.049768858,-0.009259202,0.052772358,-0.00072156265,-0.0065572523,0.27113536,0.07700537,0.10532352,-0.14650819,0.30726475,0.09471222,0.032214794,0.01587705,0.096421674,0.096421674,-0.00871665,-0.042991675,0.672396,-0.11260402,0.06959178,0.018279828,-1.6160623,-0.04606223,0.050255988,0.05645618,-0.070218325,-0.070218325,-0.022347573,0.009197306,0.7290988,-0.05590123,-0.10888504,-0.027757116,-1.5068653,0.06313479,0.23902884,0.2757493,0.038378783,0.038378783,0.05324426,0.07771684,0.83470607,0.04970604,0.10887781,0.11267969,-1.6257777,-0.05577767,-0.15604712,-0.14399073,0.030948294,0.030948294,0.36099178,0.31112134,0.79889464,0.013894618,0.100709304,0.088863775,-1.5448794,0.025120616
69,1.3800000000000001,0.0,-0.105000004,0.0,0.0,0.0,0.0,0.0,0.0,-1.0,0.0,-0.15,0.0,0.096421674,-0.11260402,-0.04606223,-0.070218325,-0.05590123,0.06313479,0.038378783,0.04970604,-0.05577767,0.030948294,0.013894618,0.025120616,-1.0754311,-1.0324178,0.6245429,1.1217724,1.465415,0.40355247,1.97497,0.14949067,0.09116644,-1.1078491,-0.0731817,-0.5332554,-0.87801486,1.9739401,0.57096255,1.0142565,0.235291,-1.4339902,0.6044488,-0.24830738,1.7482973,-1.093174,2.3032477,0.5756086,0.01587705,-0.042991675,0.018279828,0.05645618,0.009197306,-0.027757116,0.2757493,0.07771684,0.11267969,-0.14399073,0.31112134,0.088863775,0.055590194,0.01193887,0.07309401,0.07309401,0.014687143,-0.03666246,0.65579677,-0.12920326,0.06292147,0.04453457,-1.6020094,-0.032009363,0.038627148,0.057701226,-0.045734443,-0.045734443,-0.053223114,0.009670671,0.75888526,-0.026114762,-0.13904157,-0.051904835,-1.5020486,0.06795144,0.21367297,0.27184448,0.0790246,0.0790246,0.04385027,0.07360703,0.8371335,0.0521335,0.10969596,0.111965366,-1.6204692,-0.05046916,-0.16314273,-0.14684682,0.006559266,0.006559266,0.37909144,0.32277298,0.8022239,0.017223895,0.1098294,0.08810077,-1.5544056,0.015594482
70,1.4000000000000001,0.0,-0.105000004,0.0,0.0,0.0,0.0,0.0,0.0,-1.0,0.0,-0.15,0.0,0.07309401,-0.12920326,-0.032009363,-0.045734443,-0.026114762,0.06795144,0.0790246,0.0521335,-0.05046916,0.006559266,0.017223895,0.015594482,-1.1663831,-0.8299604,0.70264304,1.224194,1.4893227,0.24083525,2.032291,0.12137214,0.26542473,-1.2194514,0.16646436,-0.47630507,-0.49080163,2.188933,0.51710576,0.5812639,-0.24946022,-1.62288,-0.10578327,-0.30596536,1.5705175,-0.6699971,2.2233694,0.69344616,0.01193887,-0.03666246,0.04453457,0.057701226,0.009670671,-0.051904835,0.27184448,0.07360703,0.111965366,-0.14684682,0.32277298,0.08810077,0.081475854,0.017262768,0.04886993,0.04886993,0.041860886,-0.026088782,0.6437446,-0.14125544,0.045055814,0.06367884,-1.586616,-0.016615987,0.022085052,0.056240916,-0.0201114,-0.0201114,-0.09185615,-0.00046827644,0.7880106,0.003010571,-0.16801092,-0.07968409,-1.5009221,0.06907797,0.18187806,0.2591053,0.11925502,0.11925502,0.04089744,0.06465794,0.83880585,0.053805828,0.11100775,0.109536126,-1.6120585,-0.042058468,-0.16528381,-0.1502618,-0.019224396,-0.019224396,0.39463007,0.3406316,0.8102857,0.025285661,0.12100435,0.09263686,-1.5624722,0.007527828
71,1.42,0.0,-0.105000004,0.0,0.0,0.0,0.0,0.0,0.0,-1.0,0.0,-0.15,0.0,0.04886993,-0.14125544,-0.016615987,-0.0201114,0.003010571,0.06907797,0.11925502,0.053805828,-0.042058468,-0.019224396,0.025285661,0.007527828,-1.2112042,-0.6026082,0.7696689,1.2811521,1.4562656,0.056323975,2.0115213,0.08361627,0.42053306,-1.2891831,0.4030882,-0.40333152,-0.038214635,2.3526804,0.39045128,0.13113365,-0.78004795,-1.7708817,-0.84099865,-0.38543797,1.3389584,-0.2499125,2.118938,0.8223151,0.017262768,-0.026088782,0.06367884,0.056240916,-0.00046827644,-0.07968409,0.2591053,0.06465794,0.109536126,-0.1502618,0.3406316,0.09263686,0.10505544,0.032214794,0.02480865,0.02480865,0.06820094,-0.00871665,0.6366757,-0.14832431,0.022352539,0.06959178,-1.5703472,-0.00034713745,-0.00050899014,0.050255988,0.005678151,0.005678151,-0.13246965,-0.022347573,0.8152257,0.030225694,-0.19539297,-0.10888504,-1.5038046,0.06619549,0.14598908,0.23902884,0.15748222,0.15748222,0.04913837,0.05324426,0.8395247,0.05452466,0.1148607,0.10887781,-1.6009805,-0.030980468,-0.15721393,-0.15604712,-0.045600448,-0.045600448,0.40939808,0.36099178,0.8229111,0.037911057,0.1324907,0.100709304,-1.568765,0.0012350082
72,1.44,0.0,-0.105000004,0.0,0.0,0.0,0.0,0.0,0.0,-1.0,0.0,-0.15,0.0,0.02480865,-0.14832431,-0.00034713745,0.005678151,0.030225694,0.06619549,0.15748222,0.05452466,-0.030980468,-0.045600448,0.037911057,0.0012350082,-1.203064,-0.35344246,0.81344444,1.2894776,1.3607574,-0.14412501,1.9113603,0.035941523,0.55390227,-1.3188026,0.6312702,-0.3146421,0.46231192,2.4801764,0.15556607,-0.33354127,-1.3427703,-1.8581457,-1.563165,-0.46441144,1.0897596,0.14063153,1.9657227,0.94323456,0.032214794,-0.00871665,0.06959178,0.050255988,-0.022347573,-0.10888504,0.23902884,0.05324426,0.10887781,-0.15604712,0.36099178,0.100709304,0.12276655,0.055590194,0.002046002,0.002046002,0.08814717,0.014687143,0.6349417,-0.15005833,-0.0034588054,0.06292147,-1.5538739,0.016126156,-0.0304192,0.038627148,0.030614559,0.030614559,-0.17203465,-0.053223114,0.8392613,0.054261267,-0.21977001,-0.13904157,-1.5108858,0.059114218,0.105278224,0.21367297,0.1921774,0.1921774,0.065196484,0.04385027,0.8391644,0.05416435,0.12505464,0.10969596,-1.5877099,-0.017709851,-0.13691726,-0.16314273,-0.07180877,-0.07180877,0.4262489,0.37909144,0.8397575,0.054757476,0.14309621,0.1098294,-1.5730255,-0.0030254126
73,1.46,0.0,-0.105000004,0.0,0.0,0.0,0.0,0.0,0.0,-1.0,0.0,-0.15,0.0,0.002046002,-0.15005833,0.016126156,0.030614559,0.054261267,0.059114218,0.1921774,0.05416435,-0.017709851,-0.07180877,0.054757476,-0.0030254126,-1.1381325,-0.08670169,0.82366484,1.2468204,1.2017798,-0.35406488,1.7347591,-0.018014766,0.6635326,-1.310416,0.84232205,-0.21302247,0.98105174,2.5617814,-0.16647872,-0.80422604,-1.8948553,-1.8811283,-2.2328343,-0.5068198,0.8291586,0.49900657,1.7354504,1.0335532,0.055590194,0.014687143,0.06292147,0.038627148,-0.053223114,-0.13904157,0.21367297,0.04385027,0.10969596,-0.16314273,0.37909144,0.1098294,0.13569634,0.081475854,-0.018340372,-0.018340372,0.102197364,0.041860886,0.638766,-0.14623404,-0.035415374,0.045055814,-1.5380194,0.031980634,-0.06315249,0.022085052,0.053677842,0.053677842,-0.20642684,-0.09185615,0.85888904,0.07388902,-0.23360237,-0.16801092,-1.522193,0.047807097,0.061662525,0.18187806,0.2218982,0.2218982,0.08041216,0.04089744,0.8377432,0.052743196,0.14124668,0.11100775,-1.57276,-0.0027599335,-0.10992448,-0.16528381,-0.097053334,-0.097053334,0.44584775,0.39463007,0.8603235,0.07532346,0.15440777,0.12100435,-1.57504,-0.0050399303
74,1.48,0.0,-0.105000004,0.0,0.0,0.0,0.0,0.0,0.0,-1.0,0.0,-0.15,0.0,-0.018340372,-0.14623404,0.031980634,0.053677842,0.07388902,0.047807097,0.2218982,0.052743196,-0.0027599335,-0.097053334,0.07532346,-0.0050399303,-1.0193187,0.19121546,0.79272443,1.1531641,0.9813879,-0.56535316,1.4860398,-0.07105899,0.7474979,-1.2622283,1.028298,-0.100727215,1.4549122,2.5790243,-0.5476054,-1.2587471,-2.407767,-1.8263247,-2.8383665,-0.4811817,0.5584715,0.8616969,1.4377162,1.0990373,0.081475854,0.041860886,0.045055814,0.022085052,-0.09185615,-0.16801092,0.18187806,0.04089744,0.11100775,-0.16528381,0.39463007,0.12100435,0.14873287,0.10505544,-0.035439648,-0.035439648,0.11371919,0.06820094,0.6481698,-0.13683021,-0.07203867,0.022352539,-1.5236233,0.046376705,-0.095545575,-0.00050899014,0.07386212,0.07386212,-0.2270279,-0.13246965,0.87305146,0.08805144,-0.2365543,-0.19539297,-1.5375907,0.03240931,0.021452606,0.14598908,0.24536803,0.24536803,0.09154527,0.04913837,0.83549154,0.05049151,0.16302632,0.1148607,-1.5566314,0.013368607,-0.08913311,-0.15721393,-0.120445386,-0.120445386,0.46402442,0.40939808,0.8840012,0.09900117,0.16913077,0.1324907,-1.5746727,-0.0046726465
75,1.5,0.0,-0.105000004,0.0,0.0,0.0,0.0,0.0,0.0,-1.0,0.0,-0.15,0.0,-0.035439648,-0.13683021,0.046376705,0.07386212,0.08805144,0.03240931,0.24536803,0.05049151,0.013368607,-0.120445386,0.09900117,-0.0046726465,-0.85496384,0.4701899,0.7198012,1.0092142,0.70812035,-0.76989114,1.173492,-0.11258441,0.80642754,-1.1696026,1.183884,0.01836554,1.8349597,2.499796,-0.9231082,-1.690473,-2.8226404,-1.6967461,-3.344722,-0.35846457,0.30177468,1.254216,1.0992239,1.1255047,0.10505544,0.06820094,0.022352539,-0.00050899014,-0.13246965,-0.19539297,0.14598908,0.04913837,0.1148607,-0.15721393,0.40939808,0.1324907,0.15931591,0.12276655,-0.048585627,-0.048585627,0.12824097,0.08814717,0.66289234,-0.122107685,-0.11555697,-0.0034588054,-1.5114865,0.058513522,-0.121566385,-0.0304192,0.090186894,0.090186894,-0.2304823,-0.17203465,0.88093555,0.09593552,-0.22761196,-0.21977001,-1.5567721,0.01322794,-0.017677754,0.105278224,0.26149705,0.26149705,0.09966975,0.065196484,0.8327798,0.0477798,0.18643165,0.12505464,-1.5397363,0.030263782,-0.075187586,-0.13691726,-0.14100426,-0.14100426,0.4789071,0.4262489,0.91014695,0.12514693,0.18607599,0.14309621,-1.5718846,-0.0018845797
76,1.52,0.0,-0.105000004,0.0,0.0,0.0,0.0,0.0,0.0,-1.0,0.0,-0.15,0.0,-0.048585627,-0.122107685,0.058513522,0.090186894,0.09593552,0.01322794,0.26149705,0.0477798,0.030263782,-0.14100426,0.12514693,-0.0018845797,-0.657299,0.7361264,0.60684144,0.8162387,0.39420435,-0.95906746,0.8064511,-0.1355844,0.84476006,-1.0279437,1.3072871,0.13940047,2.088152,2.290837,-1.267307,-2.0944633,-3.1083474,-1.4902729,-3.7449524,-0.17511246,0.09383626,1.674702,0.7539969,1.1052227,0.12276655,0.08814717,-0.0034588054,-0.0304192,-0.17203465,-0.21977001,0.105278224,0.065196484,0.12505464,-0.13691726,0.4262489,0.14309621,0.16571833,0.13569634,-0.057348426,-0.057348426,0.14104918,0.102197364,0.6824213,-0.1025787,-0.1640448,-0.035415374,-1.5023956,0.06760442,-0.13877867,-0.06315249,0.10179901,0.10179901,-0.22209948,-0.20642684,0.88205266,0.097052634,-0.20838055,-0.23360237,-1.5791553,-0.009155273,-0.05302465,0.061662525,0.26943833,0.26943833,0.1048927,0.08041216,0.82996136,0.044961333,0.20979552,0.14124668,-1.5223943,0.047605753,-0.065911524,-0.10992448,-0.15778185,-0.15778185,0.487343,0.44584775,0.9381143,0.15311426,0.20250022,0.15440777,-1.5667052,0.0032948256
77,1.54,0.0,-0.105000004,0.0,0.0,0.0,0.0,0.0,0.0,-1.0,0.0,-0.15,0.0,-0.057348426,-0.1025787,0.06760442,0.10179901,0.097052634,-0.009155273,0.26943833,0.044961333,0.047605753,-0.15778185,0.15311426,0.0032948256,-0.43813998,0.9764503,0.4545454,0.58060575,0.05585581,-1.1191607,0.3970633,-0.14092314,0.86709726,-0.8388793,1.3983657,0.25897196,2.2222154,1.9706132,-1.5922668,-2.424307,-3.232185,-1.1627536,-4.016245,-0.0056225657,-0.06526823,2.0645535,0.41777,1.0530587,0.13569634,0.102197364,-0.035415374,-0.06315249,-0.20642684,-0.23360237,0.061662525,0.08041216,0.14124668,-0.10992448,0.44584775,0.15440777,0.16655487,0.14873287,-0.06145821,-0.06145821,0.15037599,0.11371919,0.7060759,-0.07892412,-0.20548211,-0.07203867,-1.4970752,0.07292485,-0.14926161,-0.095545575,0.10804422,0.10804422,-0.21581434,-0.2270279,0.8763758,0.09137577,-0.18463698,-0.2365543,-1.6039113,-0.03391123,-0.07828118,0.021452606,0.26870376,0.26870376,0.106770664,0.09154527,0.8273098,0.04230976,0.22992212,0.16302632,-1.5048344,0.06516564,-0.059564974,-0.08913311,-0.17009766,-0.17009766,0.48964643,0.46402442,0.96720797,0.18220794,0.21500808,0.16913077,-1.5591841,0.010815978
78,1.56,0.0,-0.105000004,0.0,0.0,0.0,0.0,0.0,0.0,-1.0,0.0,-0.15,0.0,-0.06145821,-0.07892412,0.07292485,0.10804422,0.09137577,-0.03391123,0.26870376,0.04230976,0.06516564,-0.17009766,0.18220794,0.010815978,-0.20548919,1.1827291,0.26602012,0.3122606,-0.28384346,-1.2377977,-0.036729127,-0.13257894,0.87799424,-0.61579084,1.4546841,0.37605628,2.2759392,1.5811751,-1.876117,-2.6492023,-3.136314,-0.73095655,-4.109275,0.12169509,-0.17743668,2.3163931,0.06952624,0.9919626,0.14873287,0.11371919,-0.07203867,-0.095545575,-0.2270279,-0.2365543,0.021452606,0.09154527,0.16302632,-0.08913311,0.46402442,0.16913077,0.16347802,0.15931591,-0.060846787,-0.060846787,0.15715012,0.12824097,0.7331252,-0.051874816,-0.22900492,-0.11555697,-1.4962033,0.07379675,-0.15422912,-0.121566385,0.108574696,0.108574696,-0.22145107,-0.2304823,0.864371,0.079370975,-0.1617263,-0.22761196,-1.629986,-0.059985995,-0.093872026,-0.017677754,0.25912455,0.25912455,0.10446398,0.09966975,0.8250316,0.040031552,0.2456823,0.18643165,-1.4872549,0.082745194,-0.04867968,-0.075187586,-0.17755757,-0.17755757,0.49016172,0.4789071,0.9966788,0.2116788,0.2236065,0.18607599,-1.549408,0.020592093
79,1.58,0.0,-0.105000004,0.0,0.0,0.0,0.0,0.0,0.0,-1.0,0.0,-0.15,0.0,-0.060846787,-0.051874816,0.07379675,0.108574696,0.079370975,-0.059985995,0.25912455,0.040031552,0.082745194,-0.17755757,0.2116788,0.020592093,0.030571133,1.352464,0.04359378,0.02652371,-0.6002383,-1.3037395,-0.47896087,-0.113909855,0.8789748,-0.3729951,1.473543,0.48880863,2.2327905,1.1796926,-2.1270003,-2.7229881,-2.8136752,-0.20925045,-4.047934,0.21380766,-0.27195734,2.4259179,-0.29237455,0.9147296,0.15931591,0.12824097,-0.11555697,-0.121566385,-0.2304823,-0.22761196,-0.017677754,0.09966975,0.18643165,-0.075187586,0.4789071,0.18607599,0.15989262,0.16571833,-0.055667344,-0.055667344,0.16339612,0.14104918,0.7627388,-0.022261202,-0.2288888,-0.1640448,-1.5003612,0.06963885,-0.15210848,-0.13877867,0.103383794,0.103383794,-0.23582447,-0.22209948,0.846873,0.06187296,-0.14366859,-0.20838055,-1.6561717,-0.08617163,-0.104406185,-0.05302465,0.24088392,0.24088392,0.09520711,0.1048927,0.82326454,0.038264513,0.25568518,0.20979552,-1.4698454,0.10015464,-0.032164913,-0.065911524,-0.18001722,-0.18001722,0.4860862,0.487343,1.0256999,0.24069983,0.22781515,0.20250022,-1.5375395,0.03246057
80,1.6,0.0,-0.105000004,0.0,0.0,0.0,0.0,0.0,0.0,-1.0,0.0,-0.15,0.0,-0.055667344,-0.022261202,0.06963885,0.103383794,0.06187296,-0.08617163,0.24088392,0.038264513,0.10015464,-0.18001722,0.24069983,0.03246057,0.2589721,1.4806798,-0.20789658,-0.2595449,-0.8748995,-1.3092793,-0.91203177,-0.08835066,0.8704701,-0.12298247,1.4510542,0.5934209,2.0869381,0.74423254,-2.3226323,-2.6345975,-2.3293128,0.366342,-3.822324,0.27108496,-0.3593455,2.4144745,-0.6779807,0.8039212,0.16571833,0.14104918,-0.1640448,-0.13877867,-0.22209948,-0.20838055,-0.05302465,0.1048927,0.20979552,-0.065911524,0.487343,0.20250022,0.16168219,0.16655487,-0.046300642,-0.046300642,0.16986409,0.15037599,0.79399014,0.008990109,-0.2120165,-0.20548211,-1.5098274,0.060172677,-0.14338747,-0.14926161,0.09275597,0.09275597,-0.25201225,-0.21581434,0.82481694,0.039816916,-0.12745303,-0.18463698,-1.6812447,-0.11124468,-0.113507286,-0.07828118,0.21459453,0.21459453,0.07471883,0.106770664,0.82206976,0.037069738,0.26175794,0.22992212,-1.4528327,0.11716735,-0.014425393,-0.059564974,-0.17754637,-0.17754637,0.47810644,0.48964643,1.0534018,0.2684018,0.22883135,0.21500808,-1.5238631,0.046136975
81,1.62,0.0,-0.105000004,0.0,0.0,0.0,0.0,0.0,0.0,-1.0,0.0,-0.15,0.0,-0.046300642,0.008990109,0.060172677,0.09275597,0.039816916,-0.11124468,0.21459453,0.037069738,0.11716735,-0.17754637,0.2684018,0.046136975,0.46833512,1.5625645,-0.47330952,-0.531391,-1.1028028,-1.2536504,-1.3144693,-0.059739843,0.85063684,0.123542204,1.385099,0.68381935,1.839082,0.2778837,-2.3699641,-2.4124928,-1.8121841,0.9296435,-3.4025273,0.29091918,-0.46061963,2.302451,-1.0698059,0.63996285,0.16655487,0.15037599,-0.20548211,-0.14926161,-0.21581434,-0.18463698,-0.07828118,0.106770664,0.22992212,-0.059564974,0.48964643,0.21500808,0.1700498,0.16347802,-0.033305004,-0.033305004,0.17133346,0.15715012,0.82590556,0.040905535,-0.18706569,-0.22900492,-1.5244099,0.045590162,-0.13535306,-0.15422912,0.07722369,0.07722369,-0.2687925,-0.22145107,0.79904634,0.014046311,-0.10653328,-0.1617263,-1.7040919,-0.13409185,-0.12557982,-0.093872026,0.18125063,0.18125063,0.04251154,0.10446398,0.8214199,0.03641987,0.26007527,0.2456823,-1.436489,0.13351107,0.0053506834,-0.04867968,-0.17029646,-0.17029646,0.46574575,0.49016172,1.0789725,0.29397243,0.22547203,0.2236065,-1.5087692,0.061230898
82,1.6400000000000001,0.0,-0.105000004,0.0,0.0,0.0,0.0,0.0,0.0,-1.0,0.0,-0.15,0.0,-0.033305004,0.040905535,0.045590162,0.07722369,0.014046311,-0.13409185,0.18125063,0.03641987,0.13351107,-0.17029646,0.29397243,0.061230898,0.6497818,1.5957723,-0.7291242,-0.7766143,-1.2885305,-1.1423573,-1.6671947,-0.032493286,0.817183,0.36249554,1.2785306,0.75469446,1.5158132,-0.1951735,-2.1969194,-2.0811048,-1.3520842,1.4228384,-2.8173888,0.26924023,-0.57931066,2.1540582,-1.42153,0.4318111,0.16347802,0.15715012,-0.22900492,-0.15422912,-0.22145107,-0.1617263,-0.093872026,0.10446398,0.2456823,-0.04867968,0.49016172,0.2236065,0.18136963,0.15989262,-0.017335108,-0.017335108,0.16681677,0.16339612,0.8575306,0.07253057,-0.1605505,-0.2288888,-1.5433843,0.026615739,-0.13684908,-0.15210848,0.057563122,0.057563122,-0.28272063,-0.23582447,0.7703416,-0.014658451,-0.08468177,-0.14366859,-1.7238045,-0.15380442,-0.13986994,-0.104406185,0.1421034,0.1421034,0.007527197,0.09520711,0.8211604,0.03616035,0.24298859,0.25568518,-1.4211439,0.14885616,0.03110836,-0.032164913,-0.15847419,-0.15847419,0.44101614,0.4860862,1.1016349,0.31663483,0.21122858,0.22781515,-1.4927443,0.077255726
83,1.6600000000000001,0.0,-0.105000004,0.0,0.0,0.0,0.0,0.0,0.0,-1.0,0.0,-0.15,0.0,-0.017335108,0.07253057,0.026615739,0.057563122,-0.014658451,-0.15380442,0.1421034,0.03616035,0.14885616,-0.15847419,0.31663483,0.077255726,0.7984948,1.5812517,-0.94872326,-0.9830283,-1.4352376,-0.9856274,-1.957361,-0.012974735,0.76725423,0.5911132,1.1331172,0.8012424,1.1572554,-0.643946,-1.7826002,-1.6463635,-0.9344417,1.8043352,-2.1302235,0.18957853,-0.719845,1.9827112,-1.744026,0.18580838,0.15989262,0.16339612,-0.2288888,-0.15210848,-0.23582447,-0.14366859,-0.104406185,0.09520711,0.25568518,-0.032164913,0.4860862,0.22781515,0.18962759,0.16168219,0.0009779334,0.0009779334,0.15427685,0.16986409,0.8879712,0.102971196,-0.13521186,-0.2120165,-1.565654,0.004346013,-0.1445854,-0.14338747,0.034749366,0.034749366,-0.28743246,-0.25201225,0.7395089,-0.0454911,-0.07101509,-0.12745303,-1.7396489,-0.16964889,-0.1475012,-0.113507286,0.09855012,0.09855012,-0.015600799,0.07471883,0.82095224,0.03595221,0.21215689,0.26175794,-1.4071413,0.16285872,0.061208587,-0.014425393,-0.14240268,-0.14240268,0.4068333,0.47810644,1.1206815,0.3356815,0.18771958,0.22883135,-1.4763316,0.09366846
84,1.68,0.0,-0.105000004,0.0,0.0,0.0,0.0,0.0,0.0,-1.0,0.0,-0.15,0.0,0.0009779334,0.102971196,0.004346013,0.034749366,-0.0454911,-0.16964889,0.09855012,0.03595221,0.16285872,-0.14240268,0.3356815,0.09366846,0.91565204,1.5220315,-1.1134856,-1.1406878,-1.541632,-0.7922214,-2.1776643,-0.010407492,0.70012796,0.80357593,0.9523307,0.82063615,0.81998456,-1.0496424,-1.2089261,-1.1327455,-0.5174244,2.0908682,-1.3960282,0.027719041,-0.86174077,1.7612518,-2.0222182,-0.078363135,0.16168219,0.16986409,-0.2120165,-0.14338747,-0.25201225,-0.12745303,-0.113507286,0.07471883,0.26175794,-0.014425393,0.47810644,0.22883135,0.1902813,0.1700498,0.021064825,0.021064825,0.12939054,0.17133346,0.91633606,0.13133603,-0.11114984,-0.18706569,-1.5899423,-0.019942284,-0.15334153,-0.13535306,0.00979867,0.00979867,-0.28142568,-0.2687925,0.70737296,-0.07762706,-0.06911615,-0.10653328,-1.7509769,-0.18097687,-0.14063075,-0.12557982,0.05201162,0.05201162,-0.018936215,0.04251154,0.8202842,0.03528416,0.17124084,0.26007527,-1.3948891,0.17511094,0.08685645,0.0053506834,-0.12249224,-0.12249224,0.36482877,0.46574575,1.1354859,0.35048586,0.16467051,0.22547203,-1.4601294,0.10987067
85,1.7,0.0,-0.105000004,0.0,0.0,0.0,0.0,0.0,0.0,-1.0,0.0,-0.15,0.0,0.021064825,0.13133603,-0.019942284,0.00979867,-0.07762706,-0.18097687,0.05201162,0.03528416,0.17511094,-0.12249224,0.35048586,0.10987067,1.0043446,1.4182428,-1.2144175,-1.2475349,-1.6067986,-0.56639874,-2.326925,-0.03340139,0.61260784,0.99552196,0.7402204,0.81011236,0.5211889,-1.4398305,-0.57023954,-0.6158357,-0.104907796,2.326563,-0.6733619,-0.20775323,-1.0274763,1.5049204,-2.2519176,-0.35921115,0.1700498,0.17133346,-0.18706569,-0.13535306,-0.2687925,-0.10653328,-0.12557982,0.04251154,0.26007527,0.0053506834,0.46574575,0.22547203,0.18421559,0.18136963,0.04237521,0.04237521,0.09732183,0.16681677,0.941749,0.15674895,-0.08995137,-0.1605505,-1.614947,-0.04494691,-0.15837026,-0.13684908,-0.016407635,-0.016407635,-0.2728668,-0.28272063,0.67480433,-0.1101957,-0.07541958,-0.08468177,-1.7573022,-0.18730211,-0.12548982,-0.13986994,0.0038977563,0.0038977563,-0.0013182332,0.007527197,0.8186409,0.03364086,0.12606591,0.24298859,-1.3849653,0.18503475,0.10115592,0.03110836,-0.09915984,-0.09915984,0.3124932,0.44101614,1.1453907,0.36039072,0.14467077,0.21122858,-1.4448735,0.1251266
