verayannn/SpotDMouse/P2-Terrain_Challenge/mp2/misc/openloop_scheduled_left_0.15.csv
step,time,obs_0,obs_1,obs_2,obs_3,obs_4,obs_5,obs_6,obs_7,obs_8,obs_9,obs_10,obs_11,obs_12,obs_13,obs_14,obs_15,obs_16,obs_17,obs_18,obs_19,obs_20,obs_21,obs_22,obs_23,obs_24,obs_25,obs_26,obs_27,obs_28,obs_29,obs_30,obs_31,obs_32,obs_33,obs_34,obs_35,obs_36,obs_37,obs_38,obs_39,obs_40,obs_41,obs_42,obs_43,obs_44,obs_45,obs_46,obs_47,obs_48,obs_49,obs_50,obs_51,obs_52,obs_53,obs_54,obs_55,obs_56,obs_57,obs_58,obs_59,action_0,delayed_action_0,joint_pos_0,joint_pos_rel_0,action_1,delayed_action_1,joint_pos_1,joint_pos_rel_1,action_2,delayed_action_2,joint_pos_2,joint_pos_rel_2,action_3,delayed_action_3,joint_pos_3,joint_pos_rel_3,action_4,delayed_action_4,joint_pos_4,joint_pos_rel_4,action_5,delayed_action_5,joint_pos_5,joint_pos_rel_5,action_6,delayed_action_6,joint_pos_6,joint_pos_rel_6,action_7,delayed_action_7,joint_pos_7,joint_pos_rel_7,action_8,delayed_action_8,joint_pos_8,joint_pos_rel_8,action_9,delayed_action_9,joint_pos_9,joint_pos_rel_9,action_10,delayed_action_10,joint_pos_10,joint_pos_rel_10,action_11,delayed_action_11,joint_pos_11,joint_pos_rel_11
0,0.0,0.0,0.105000004,0.0,0.0,0.0,0.0,0.0,0.0,-1.0,0.0,0.15,0.0,0.0,0.0,0.0,0.0,0.0,0.0,0.0,0.0,0.0,0.0,0.0,0.0,0.0,0.0,0.0,0.0,0.0,0.0,0.0,0.0,0.0,0.0,0.0,0.0,0.0,0.0,0.0,0.0,0.0,0.0,0.0,0.0,0.0,0.0,0.0,0.0,0.0,0.0,0.0,0.0,0.0,0.0,0.0,0.0,0.0,0.0,0.0,0.0,0.036444962,0.0,0.0,0.0,-0.11335439,0.0,0.785,0.0,-0.023378924,0.0,-1.57,0.0,-0.117346,0.0,0.0,0.0,-0.009345438,0.0,0.785,0.0,-0.15802011,0.0,-1.57,0.0,0.08260603,0.0,0.0,0.0,0.25447544,0.0,0.785,0.0,0.15774024,0.0,-1.57,0.0,-0.0014960612,0.0,0.0,0.0,0.02434048,0.0,0.785,0.0,0.008174891,0.0,-1.57,0.0
1,0.02,0.0,0.105000004,0.0,0.0,0.0,0.0,0.0,0.0,-1.0,0.0,0.15,0.0,0.0,0.0,0.0,0.0,0.0,0.0,0.0,0.0,0.0,0.0,0.0,0.0,0.0,0.0,0.0,0.0,0.0,0.0,0.0,0.0,0.0,0.0,0.0,0.0,0.0,0.0,0.0,0.0,0.0,0.0,0.0,0.0,0.0,0.0,0.0,0.0,0.0,0.0,0.0,0.0,0.0,0.0,0.0,0.0,0.0,0.0,0.0,0.0,0.036444962,0.0,0.0,0.0,-0.11335439,0.0,0.785,0.0,-0.023378924,0.0,-1.57,0.0,-0.117346,0.0,0.0,0.0,-0.009345438,0.0,0.785,0.0,-0.15802011,0.0,-1.57,0.0,0.08260603,0.0,0.0,0.0,0.25447544,0.0,0.785,0.0,0.15774024,0.0,-1.57,0.0,-0.0014960612,0.0,0.0,0.0,0.02434048,0.0,0.785,0.0,0.008174891,0.0,-1.57,0.0
2,0.04,0.0,0.105000004,0.0,0.0,0.0,0.0,0.0,0.0,-1.0,0.0,0.15,0.0,0.0,0.0,0.0,0.0,0.0,0.0,0.0,0.0,0.0,0.0,0.0,0.0,0.0,0.0,0.0,0.0,0.0,0.0,0.0,0.0,0.0,0.0,0.0,0.0,0.0,0.0,0.0,0.0,0.0,0.0,0.0,0.0,0.0,0.0,0.0,0.0,0.0,0.0,0.0,0.0,0.0,0.0,0.0,0.0,0.0,0.0,0.0,0.0,0.036444962,0.0,0.0,0.0,-0.11335439,0.0,0.785,0.0,-0.023378924,0.0,-1.57,0.0,-0.117346,0.0,0.0,0.0,-0.009345438,0.0,0.785,0.0,-0.15802011,0.0,-1.57,0.0,0.08260603,0.0,0.0,0.0,0.25447544,0.0,0.785,0.0,0.15774024,0.0,-1.57,0.0,-0.0014960612,0.0,0.0,0.0,0.02434048,0.0,0.785,0.0,0.008174891,0.0,-1.57,0.0
3,0.06,0.0,0.105000004,0.0,0.0,0.0,0.0,0.0,0.0,-1.0,0.0,0.15,0.0,0.0,0.0,0.0,0.0,0.0,0.0,0.0,0.0,0.0,0.0,0.0,0.0,0.0,0.0,0.0,0.0,0.0,0.0,0.0,0.0,0.0,0.0,0.0,0.0,0.0,0.0,0.0,0.0,0.0,0.0,0.0,0.0,0.0,0.0,0.0,0.0,0.0,0.0,0.0,0.0,0.0,0.0,0.0,0.0,0.0,0.0,0.0,0.0,0.036444962,0.036444962,0.0005831194,0.0005831194,-0.11335439,-0.11335439,0.7831864,-0.0018136501,-0.023378924,-0.023378924,-1.5703741,-0.00037407875,-0.117346,-0.117346,-0.001877536,-0.001877536,-0.009345438,-0.009345438,0.7848505,-0.00014954805,-0.15802011,-0.15802011,-1.5725284,-0.0025283098,0.08260603,0.08260603,0.0013216964,0.0013216964,0.25447544,0.25447544,0.7890716,0.0040715933,0.15774024,0.15774024,-1.5674762,0.002523899,-0.0014960612,-0.0014960612,-2.3936978e-05,-2.3936978e-05,0.02434048,0.02434048,0.7853895,0.00038945675,0.008174891,0.008174891,-1.5698693,0.00013077259
4,0.08,0.0,0.105000004,0.0,0.0,0.0,0.0,0.0,0.0,-1.0,0.0,0.15,0.0,0.0005831194,-0.0018136501,-0.00037407875,-0.001877536,-0.00014954805,-0.0025283098,0.0013216964,0.0040715933,0.002523899,-2.3936978e-05,0.00038945675,0.00013077259,0.02915597,-0.09068356,-0.018703079,-0.0938768,-0.00747633,-0.12641601,0.066084825,0.20358038,0.12619229,-0.0011968489,0.019472407,0.0065399166,0.2676518,-0.83247536,-0.171694,-0.86178905,-0.068632364,-1.1604992,0.6066587,1.8688681,1.1584443,-0.010987073,0.17875656,0.06003685,0.036444962,-0.11335439,-0.023378924,-0.117346,-0.009345438,-0.15802011,0.08260603,0.25447544,0.15774024,-0.0014960612,0.02434048,0.008174891,-0.018263102,0.036444962,0.0017015424,0.0017015424,-0.077870116,-0.11335439,0.77970773,-0.0052922964,-0.03230597,-0.023378924,-1.5710915,-0.0010914803,-0.059050705,-0.117346,-0.00547865,-0.00547865,0.025882218,-0.009345438,0.78456366,-0.0004363656,-0.17777878,-0.15802011,-1.5773777,-0.0073776245,0.1651907,0.08260603,0.0038567102,0.0038567102,0.27202263,0.25447544,0.79688096,0.011880934,0.20920242,0.15774024,-1.5626354,0.0073646307,0.08005338,-0.0014960612,-6.98481e-05,-6.98481e-05,0.026037611,0.02434048,0.78613645,0.0011364222,-0.005488803,0.008174891,-1.5696185,0.00038158894
5,0.1,0.0,0.105000004,0.0,0.0,0.0,0.0,0.0,0.0,-1.0,0.0,0.15,0.0,0.0017015424,-0.0052922964,-0.0010914803,-0.00547865,-0.0004363656,-0.0073776245,0.0038567102,0.011880934,0.0073646307,-6.98481e-05,0.0011364222,0.00038158894,0.05592115,-0.17393109,-0.035872478,-0.18005571,-0.014339566,-0.24246593,0.1267507,0.39046717,0.24203672,-0.0022955562,0.03734806,0.012543602,0.23637442,-0.73519325,-0.15163086,-0.76108176,-0.060611665,-1.0248852,0.5357655,1.6504753,1.0230703,-0.009703143,0.1578673,0.053021945,0.036444962,-0.11335439,-0.023378924,-0.117346,-0.009345438,-0.15802011,0.08260603,0.25447544,0.15774024,-0.0014960612,0.02434048,0.008174891,-0.009665623,0.036444962,0.0032927142,0.0032927142,-0.08305501,-0.11335439,0.7747587,-0.01024133,-0.032909602,-0.023378924,-1.5721122,-0.0021121502,-0.06516561,-0.117346,-0.0106019275,-0.0106019275,0.031976048,-0.009345438,0.78415567,-0.0008443594,-0.17406884,-0.15802011,-1.5842768,-0.014276743,0.1560092,0.08260603,0.007463255,0.007463255,0.26357892,0.25447544,0.80799127,0.02299124,0.20648342,0.15774024,-1.5557486,0.014251471,0.068070866,-0.0014960612,-0.00013516551,-0.00013516551,0.034525335,0.02434048,0.78719914,0.0021991134,-0.0028784848,0.008174891,-1.5692616,0.00073850155
6,0.12,0.0,0.105000004,0.0,0.0,0.0,0.0,0.0,0.0,-1.0,0.0,0.15,0.0,0.0032927142,-0.01024133,-0.0021121502,-0.0106019275,-0.0008443594,-0.014276743,0.007463255,0.02299124,0.014251471,-0.00013516551,0.0021991134,0.00073850155,0.07955859,-0.24745041,-0.051035564,-0.2561639,-0.020400733,-0.34495443,0.18032725,0.5555147,0.34434375,-0.0032658705,0.05313479,0.017845796,0.19909698,-0.61924905,-0.1277186,-0.6410552,-0.051053178,-0.863255,0.45127258,1.3901865,0.8617274,-0.008172907,0.13297087,0.044660248,0.036444962,-0.11335439,-0.023378924,-0.117346,-0.009345438,-0.15802011,0.08260603,0.25447544,0.15774024,-0.0014960612,0.02434048,0.008174891,-0.0008069873,0.036444962,0.00528208,0.00528208,-0.09041125,-0.11335439,0.7685712,-0.016428828,-0.034566797,-0.023378924,-1.5733883,-0.0033882856,-0.07283676,-0.117346,-0.017007316,-0.017007316,0.039725263,-0.009345438,0.7836456,-0.001354456,-0.17051199,-0.15802011,-1.5929024,-0.02290237,0.14669515,0.08260603,0.011972345,0.011972345,0.25495723,0.25447544,0.82188195,0.036881924,0.20330441,0.15774024,-1.5471382,0.022861838,0.05347866,-0.0014960612,-0.00021682873,-0.00021682873,0.044545446,0.02434048,0.7885278,0.0035277605,0.0003473111,0.008174891,-1.5688154,0.0011847019
7,0.14,0.0,0.105000004,0.0,0.0,0.0,0.0,0.0,0.0,-1.0,0.0,0.15,0.0,0.00528208,-0.016428828,-0.0033882856,-0.017007316,-0.001354456,-0.02290237,0.011972345,0.036881924,0.022861838,-0.00021682873,0.0035277605,0.0011847019,0.09946828,-0.30937532,-0.06380743,-0.3202694,-0.02550605,-0.43127993,0.22545451,0.69453335,0.43051648,-0.0040831612,0.06643188,0.022311822,0.15731227,-0.48928666,-0.1009145,-0.50651634,-0.04033898,-0.6820823,0.35656348,1.0984263,0.6808752,-0.00645765,0.105063975,0.03528803,0.036444962,-0.11335439,-0.023378924,-0.117346,-0.009345438,-0.15802011,0.08260603,0.25447544,0.15774024,-0.0014960612,0.02434048,0.008174891,0.007854767,-0.018263102,0.0067107407,0.0067107407,-0.099932425,-0.077870116,0.76197284,-0.023027182,-0.03728942,-0.03230597,-1.5750091,-0.005009055,-0.08121571,-0.059050705,-0.02349301,-0.02349301,0.048335027,0.025882218,0.7836184,-0.0013816357,-0.167458,-0.17777878,-1.6032083,-0.03320825,0.13786387,0.1651907,0.018515917,0.018515917,0.24664201,0.27202263,0.8382502,0.053250194,0.19940087,0.20920242,-1.5363427,0.033657312,0.036751904,0.08005338,0.0009933838,0.0009933838,0.056065172,0.026037611,0.7900937,0.0050936937,0.0040717223,-0.005488803,-1.5685172,0.0014828444
8,0.16,0.0,0.105000004,0.0,0.0,0.0,0.0,0.0,0.0,-1.0,0.0,0.15,0.0,0.0067107407,-0.023027182,-0.005009055,-0.02349301,-0.0013816357,-0.03320825,0.018515917,0.053250194,0.033657312,0.0009933838,0.0050936937,0.0014828444,0.07143306,-0.32991654,-0.08104056,-0.3242848,-0.0013578217,-0.5152951,0.3271786,0.8184137,0.53977376,0.06051063,0.07829593,0.01490961,-0.2891932,-0.08956788,-0.13778248,0.06562492,0.22984305,-0.63325024,0.86168164,0.914971,0.8652164,0.5942776,0.087653525,-0.075091295,-0.018263102,-0.077870116,-0.03230597,-0.059050705,0.025882218,-0.17777878,0.1651907,0.27202263,0.20920242,0.08005338,0.026037611,-0.005488803,-0.009676442,-0.009665623,0.007698575,0.007698575,-0.0736809,-0.08305501,0.7551124,-0.029887617,-0.018963799,-0.032909602,-1.5769151,-0.0069150925,-0.06622608,-0.06516561,-0.029945295,-0.029945295,0.04646888,0.031976048,0.7841484,-0.00085163116,-0.17353824,-0.17406884,-1.6147213,-0.044721246,0.14142719,0.1560092,0.026635949,0.026635949,0.25902203,0.26357892,0.85631335,0.07131332,0.21399152,0.20648342,-1.5238603,0.046139717,0.03954546,0.068070866,0.0032004314,0.0032004314,0.04269569,0.034525335,0.79197073,0.0069707036,-0.004037959,-0.0028784848,-1.5683274,0.0016726255
9,0.18,0.0,0.105000004,0.0,0.0,0.0,0.0,0.0,0.0,-1.0,0.0,0.15,0.0,0.007698575,-0.029887617,-0.0069150925,-0.029945295,-0.00085163116,-0.044721246,0.026635949,0.07131332,0.046139717,0.0032004314,0.0069707036,0.0016726255,0.049391724,-0.34302124,-0.09530175,-0.32261422,0.02650157,-0.5756523,0.40600157,0.9031558,0.62412006,0.11035238,0.09385145,0.009488837,-0.22519803,-0.014727664,-0.1049847,0.11910696,0.25618416,-0.38918534,0.61889756,0.5160401,0.60157144,0.43818384,0.11774522,-0.054533847,-0.009665623,-0.08305501,-0.032909602,-0.06516561,0.031976048,-0.17406884,0.1560092,0.26357892,0.20648342,0.068070866,0.034525335,-0.0028784848,-0.0035077631,-0.0008069873,0.008377751,0.008377751,-0.08685268,-0.09041125,0.7481048,-0.036895216,-0.026716635,-0.034566797,-1.5790577,-0.009057641,-0.07327308,-0.07283676,-0.036282104,-0.036282104,0.05870324,0.039725263,0.7853148,0.00031477213,-0.17010441,-0.17051199,-1.6269557,-0.056955695,0.13148054,0.14669515,0.03584475,0.03584475,0.25131765,0.25495723,0.8752706,0.09027058,0.21393996,0.20330441,-1.5102257,0.0597744,0.018562533,0.05347866,0.0060503716,0.0060503716,0.06172162,0.044545446,0.7942436,0.009243548,0.003757807,0.0003473111,-1.5681951,0.0018049479
10,0.2,0.0,0.105000004,0.0,0.0,0.0,0.0,0.0,0.0,-1.0,0.0,0.15,0.0,0.008377751,-0.036895216,-0.009057641,-0.036282104,0.00031477213,-0.056955695,0.03584475,0.09027058,0.0597744,0.0060503716,0.009243548,0.0018049479,0.03395883,-0.35037905,-0.10712601,-0.31684044,0.058319345,-0.6117253,0.4604401,0.94786245,0.68173414,0.142497,0.11364208,0.006616095,-0.15747933,0.042222522,-0.07804977,0.15623982,0.2836064,-0.14694193,0.36982515,0.121397115,0.32917878,0.25977483,0.1516455,-0.029408205,-0.0008069873,-0.09041125,-0.034566797,-0.07283676,0.039725263,-0.17051199,0.14669515,0.25495723,0.20330441,0.05347866,0.044545446,0.0003473111,0.005036272,0.007854767,0.0088805575,0.0088805575,-0.1040948,-0.099932425,0.7410293,-0.043970704,-0.038976684,-0.03728942,-1.5813999,-0.011399865,-0.08096765,-0.08121571,-0.042440496,-0.042440496,0.06938782,0.048335027,0.78718615,0.0021861196,-0.16625136,-0.167458,-1.6394353,-0.06943524,0.12222791,0.13786387,0.0456519,0.0456519,0.24831441,0.24664201,0.8943376,0.10933757,0.21392041,0.19940087,-1.495995,0.07400501,-0.0035389545,0.036751904,0.009152233,0.009152233,0.083250694,0.056065172,0.79700404,0.012004018,0.013867648,0.0040717223,-1.5680621,0.0019379854
11,0.22,0.0,0.105000004,0.0,0.0,0.0,0.0,0.0,0.0,-1.0,0.0,0.15,0.0,0.0088805575,-0.043970704,-0.011399865,-0.042440496,0.0021861196,-0.06943524,0.0456519,0.10933757,0.07400501,0.009152233,0.012004018,0.0019379854,0.0251403,-0.3537737,-0.11710899,-0.30791962,0.0935678,-0.62397635,0.4903576,0.95335,0.71152914,0.15509307,0.13802247,0.0066547436,-0.09182093,0.080958664,-0.057362713,0.18328208,0.3049188,0.08328752,0.12730178,-0.25294012,0.05536251,0.07003297,0.18744609,-0.0017614387,0.007854767,-0.099932425,-0.03728942,-0.08121571,0.048335027,-0.167458,0.13786387,0.24664201,0.19940087,0.036751904,0.056065172,0.0040717223,0.015671514,-0.009676442,0.008919222,0.008919222,-0.1229459,-0.0736809,0.7345358,-0.050464213,-0.054416087,-0.018963799,-1.5835636,-0.013563514,-0.089167,-0.06622608,-0.04799249,-0.04799249,0.077121824,0.04646888,0.7896375,0.00463748,-0.16110021,-0.17353824,-1.6518456,-0.08184552,0.1132471,0.14142719,0.05577067,0.05577067,0.2493165,0.25902203,0.9130968,0.12809676,0.21485958,0.21399152,-1.4814203,0.088579774,-0.02370686,0.03954546,0.012438857,0.012438857,0.10427746,0.04269569,0.79992545,0.01492542,0.02570797,-0.004037959,-1.5680623,0.001937747
12,0.24,0.0,0.105000004,0.0,0.0,0.0,0.0,0.0,0.0,-1.0,0.0,0.15,0.0,0.008919222,-0.050464213,-0.013563514,-0.04799249,0.00463748,-0.08184552,0.05577067,0.12809676,0.088579774,0.012438857,0.01492542,0.001937747,0.0019332413,-0.3246766,-0.108184814,-0.27759972,0.12256671,-0.6205117,0.5059384,0.93795997,0.7287378,0.16433121,0.14607143,-9.055715e-06,-0.22108571,0.3803187,0.11939812,0.37687105,0.2362678,0.23147854,-0.013882399,-0.44635215,-0.06971405,0.035176378,0.02972269,-0.06330228,-0.009676442,-0.0736809,-0.018963799,-0.06622608,0.04646888,-0.17353824,0.14142719,0.25902203,0.21399152,0.03954546,0.04269569,-0.004037959,-0.02504848,-0.0035077631,0.008614414,0.008614414,-0.105097234,-0.08685268,0.72859216,-0.05640787,-0.047304228,-0.026716635,-1.5856125,-0.015612483,-0.098821804,-0.07327308,-0.052903496,-0.052903496,0.08068399,0.05870324,0.79275715,0.0077571273,-0.1779612,-0.17010441,-1.6637379,-0.09373784,0.1351191,0.13148054,0.06570253,0.06570253,0.26156637,0.25131765,0.93084,0.14583999,0.20801757,0.21393996,-1.4669858,0.10301423,-0.04185846,0.018562533,0.0154601075,0.0154601075,0.10013963,0.06172162,0.80321074,0.01821071,0.036890704,0.003757807,-1.5680643,0.0019357204
13,0.26,0.0,0.105000004,0.0,0.0,0.0,0.0,0.0,0.0,-1.0,0.0,0.15,0.0,0.008614414,-0.05640787,-0.015612483,-0.052903496,0.0077571273,-0.09373784,0.06570253,0.14583999,0.10301423,0.0154601075,0.01821071,0.0019357204,-0.015240388,-0.29718217,-0.102447316,-0.24555022,0.15598094,-0.5946169,0.49659285,0.88716125,0.72172517,0.1510625,0.16426444,-0.00010282594,-0.15827253,0.35629565,0.08728971,0.38304642,0.26752096,0.43627787,-0.24769251,-0.7664795,-0.29757103,-0.1743927,0.12026894,-0.0008583923,-0.0035077631,-0.08685268,-0.026716635,-0.07327308,0.05870324,-0.17010441,0.13148054,0.25131765,0.21393996,0.018562533,0.06172162,0.003757807,-0.011667043,0.005036272,0.008129766,0.008129766,-0.11940036,-0.1040948,0.7230852,-0.0619148,-0.064920776,-0.038976684,-1.5876831,-0.01768303,-0.10501544,-0.08096765,-0.05717152,-0.05717152,0.086289674,0.06938782,0.79658276,0.011582732,-0.172167,-0.16625136,-1.674696,-0.104695916,0.12706818,0.12222791,0.07499096,0.07499096,0.2656956,0.24831441,0.94700223,0.1620022,0.21461366,0.21392041,-1.4531468,0.11685324,-0.05388903,-0.0035389545,0.017778948,0.017778948,0.11880802,0.083250694,0.80708104,0.022081017,0.047237787,0.013867648,-1.5679064,0.0020936728
14,0.28,0.0,0.105000004,0.0,0.0,0.0,0.0,0.0,0.0,-1.0,0.0,0.15,0.0,0.008129766,-0.0619148,-0.01768303,-0.05717152,0.011582732,-0.104695916,0.07499096,0.1620022,0.11685324,0.017778948,0.022081017,0.0020936728,-0.024232414,-0.27534637,-0.10352631,-0.21340123,0.19128072,-0.54790664,0.46442148,0.8081107,0.6919524,0.115942046,0.1935146,0.0078992555,-0.077669874,0.29555112,0.022878265,0.37370372,0.27413827,0.6190766,-0.4542428,-1.0095756,-0.5042652,-0.37074584,0.21595156,0.07349254,0.005036272,-0.1040948,-0.038976684,-0.08096765,0.06938782,-0.16625136,0.12222791,0.24831441,0.21392041,-0.0035389545,0.083250694,0.013867648,0.007487662,0.015671514,0.007659942,0.007659942,-0.13304502,-0.1229459,0.7178678,-0.067132235,-0.08368187,-0.054416087,-1.5899549,-0.0199548,-0.11011925,-0.089167,-0.060823325,-0.060823325,0.08928162,0.077121824,0.8010804,0.01608038,-0.16423616,-0.16110021,-1.6843336,-0.11433351,0.1170339,0.1132471,0.08322721,0.08322721,0.26821056,0.2493165,0.9611613,0.17616129,0.22297572,0.21485958,-1.4403013,0.12969875,-0.06294922,-0.02370686,0.01903361,0.01903361,0.13762881,0.10427746,0.81171966,0.02671963,0.056155454,0.02570797,-1.567412,0.0025880337
15,0.3,0.0,0.105000004,0.0,0.0,0.0,0.0,0.0,0.0,-1.0,0.0,0.15,0.0,0.007659942,-0.067132235,-0.0199548,-0.060823325,0.01608038,-0.11433351,0.08322721,0.17616129,0.12969875,0.01903361,0.02671963,0.0025880337,-0.023491208,-0.2608721,-0.11359009,-0.18259034,0.2248818,-0.48187795,0.41181254,0.7079548,0.6422772,0.06273314,0.23193124,0.024720784,0.014558645,0.22098455,-0.059257578,0.35113236,0.24724786,0.78147393,-0.6315649,-1.1780264,-0.6774427,-0.52555925,0.29074025,0.15189475,0.015671514,-0.1229459,-0.054416087,-0.089167,0.077121824,-0.16110021,0.1132471,0.2493165,0.21485958,-0.02370686,0.10427746,0.02570797,0.029932268,-0.02504848,0.006567715,0.006567715,-0.14460102,-0.105097234,0.7133779,-0.07162213,-0.10154118,-0.047304228,-1.5922314,-0.02223134,-0.114542514,-0.098821804,-0.063927345,-0.063927345,0.090262845,0.08068399,0.8061295,0.021129489,-0.15540102,-0.1779612,-1.692678,-0.12267792,0.10628596,0.1351191,0.09055028,0.09055028,0.26882365,0.26156637,0.9731604,0.18816036,0.23091629,0.20801757,-1.4289201,0.1410799,-0.07031127,-0.04185846,0.01894673,0.01894673,0.15504445,0.10013963,0.81687355,0.031873524,0.06409339,0.036890704,-1.5664349,0.0035651922
16,0.32,0.0,0.105000004,0.0,0.0,0.0,0.0,0.0,0.0,-1.0,0.0,0.15,0.0,0.006567715,-0.07162213,-0.02223134,-0.063927345,0.021129489,-0.12267792,0.09055028,0.18816036,0.1410799,0.01894673,0.031873524,0.0035651922,-0.05461134,-0.22449467,-0.11382623,-0.15520094,0.25245625,-0.41721934,0.36615366,0.59995216,0.5690594,-0.004344061,0.25769496,0.04885649,-0.2781656,0.41742405,0.034181334,0.30986357,0.18117163,0.74776757,-0.5509286,-1.2180107,-0.8776674,-0.63584334,0.16229308,0.21365464,-0.02504848,-0.105097234,-0.047304228,-0.098821804,0.08068399,-0.1779612,0.1351191,0.26156637,0.20801757,-0.04185846,0.10013963,0.036890704,-0.021287784,-0.011667043,0.00513326,0.00513326,-0.13096207,-0.11940036,0.709494,-0.07550603,-0.09402297,-0.064920776,-1.5947214,-0.024721384,-0.12133747,-0.10501544,-0.06651074,-0.06651074,0.095900446,0.086289674,0.81163067,0.02663064,-0.1604797,-0.172167,-1.6994342,-0.12943411,0.1301166,0.12706818,0.09664268,0.09664268,0.29429248,0.2656956,0.98278946,0.19778943,0.23543842,0.21461366,-1.4191887,0.15081131,-0.07328166,-0.05388903,0.017395673,0.017395673,0.14233832,0.11880802,0.82265073,0.037650704,0.07222351,0.047237787,-1.5648649,0.0051351786
17,0.34,0.0,0.105000004,0.0,0.0,0.0,0.0,0.0,0.0,-1.0,0.0,0.15,0.0,0.00513326,-0.07550603,-0.024721384,-0.06651074,0.02663064,-0.12943411,0.09664268,0.19778943,0.15081131,0.017395673,0.037650704,0.0051351786,-0.07172275,-0.19419482,-0.1245013,-0.1291695,0.27505797,-0.33780736,0.30462006,0.48145443,0.4865695,-0.07755285,0.288859,0.07849965,-0.13960713,0.34999084,-0.061572514,0.28863302,0.12669793,0.86251295,-0.6820475,-1.2797935,-0.93935645,-0.6706666,0.20362349,0.2564903,-0.011667043,-0.11940036,-0.064920776,-0.10501544,0.086289674,-0.172167,0.12706818,0.2656956,0.21461366,-0.05388903,0.11880802,0.047237787,-0.0013166517,0.007487662,0.003726066,0.003726066,-0.13636589,-0.13304502,0.70609176,-0.078908265,-0.10704118,-0.08368187,-1.5976348,-0.02763474,-0.124705285,-0.11011925,-0.068598524,-0.068598524,0.09560791,0.08928162,0.8174331,0.032433093,-0.15454865,-0.16423616,-1.7043384,-0.13433838,0.120206356,0.1170339,0.10121044,0.10121044,0.29220763,0.26821056,0.9898992,0.20489919,0.24182768,0.22297572,-1.4112023,0.15879774,-0.07670563,-0.06294922,0.01435832,0.01435832,0.15478276,0.13762881,0.8291363,0.044136286,0.07835578,0.056155454,-1.5626392,0.007360816
18,0.36,0.0,0.105000004,0.0,0.0,0.0,0.0,0.0,0.0,-1.0,0.0,0.15,0.0,0.003726066,-0.078908265,-0.02763474,-0.068598524,0.032433093,-0.13433838,0.10121044,0.20489919,0.15879774,0.01435832,0.044136286,0.007360816,-0.0703597,-0.17011149,-0.14566748,-0.10438924,0.29012138,-0.24521127,0.22838789,0.35548705,0.3993235,-0.15186766,0.32427797,0.111282736,0.03546409,0.28322735,-0.15446499,0.26881698,0.050263263,0.95813113,-0.7972897,-1.3104464,-0.95661974,-0.65739304,0.2327108,0.27582914,0.007487662,-0.13304502,-0.08368187,-0.11011925,0.08928162,-0.16423616,0.1170339,0.26821056,0.22297572,-0.06294922,0.13762881,0.056155454,0.025095373,0.029932268,0.002748914,0.002748914,-0.14257756,-0.14460102,0.7030711,-0.08192891,-0.12119473,-0.10154118,-1.6011428,-0.031142712,-0.128868,-0.114542514,-0.07021945,-0.07021945,0.094160095,0.090262845,0.8233518,0.038351774,-0.14813071,-0.15540102,-1.707185,-0.13718498,0.106989264,0.10628596,0.10401165,0.10401165,0.28755644,0.26882365,0.9943979,0.20939785,0.24637038,0.23091629,-1.405002,0.16499805,-0.078685135,-0.07031127,0.009888388,0.009888388,0.16718626,0.15504445,0.83636594,0.051365912,0.08408011,0.06409339,-1.559735,0.010265112
19,0.38,0.0,0.105000004,0.0,0.0,0.0,0.0,0.0,0.0,-1.0,0.0,0.15,0.0,0.002748914,-0.08192891,-0.031142712,-0.07021945,0.038351774,-0.13718498,0.10401165,0.20939785,0.16499805,0.009888388,0.051365912,0.010265112,-0.048857607,-0.15103349,-0.17540154,-0.08104616,0.29593268,-0.14233011,0.14006057,0.2249329,0.31001395,-0.2234966,0.36148155,0.14521597,0.21990433,0.22957139,-0.22634609,0.24769416,-0.039491605,1.0229168,-0.88392895,-1.3122431,-0.9476458,-0.60895604,0.23776011,0.27589703,0.029932268,-0.14460102,-0.10154118,-0.114542514,0.090262845,-0.15540102,0.10628596,0.26882365,0.23091629,-0.07031127,0.15504445,0.06409339,0.054520123,-0.021287784,0.0013920498,0.0013920498,-0.14965692,-0.13096207,0.7007278,-0.084272206,-0.13583127,-0.09402297,-1.6049832,-0.034983158,-0.13446906,-0.12133747,-0.071453705,-0.071453705,0.09210883,0.095900446,0.8292817,0.04428166,-0.14116758,-0.1604797,-1.708067,-0.138067,0.092137694,0.1301166,0.10542629,0.10542629,0.28199324,0.29429248,0.99667954,0.21167952,0.24871993,0.23543842,-1.4006246,0.16937542,-0.078985296,-0.07328166,0.004153018,0.004153018,0.17811635,0.14233832,0.8438678,0.058867753,0.0892475,0.07222351,-1.5561488,0.013851285
20,0.4,0.0,0.105000004,0.0,0.0,0.0,0.0,0.0,0.0,-1.0,0.0,0.15,0.0,0.0013920498,-0.084272206,-0.034983158,-0.071453705,0.04428166,-0.138067,0.10542629,0.21167952,0.16937542,0.004153018,0.058867753,0.013851285,-0.06784321,-0.11716518,-0.19202152,-0.06171271,0.29649353,-0.04410147,0.07073219,0.11408365,0.21886703,-0.28676853,0.37509263,0.17930973,-0.15865347,0.35924178,-0.096442625,0.20341584,-0.08955002,0.9472846,-0.68125397,-1.0895746,-0.9359335,-0.5093173,0.009275854,0.26651198,-0.021287784,-0.13096207,-0.09402297,-0.12133747,0.095900446,-0.1604797,0.1301166,0.29429248,0.23543842,-0.07328166,0.14233832,0.07222351,-0.004012063,-0.0013166517,3.74167e-05,3.74167e-05,-0.12637341,-0.13636589,0.6990165,-0.085983515,-0.120378785,-0.10704118,-1.6092248,-0.039224744,-0.13259216,-0.124705285,-0.07233501,-0.07233501,0.09948848,0.09560791,0.83502775,0.050027728,-0.15235218,-0.15454865,-1.7069596,-0.13695955,0.12418476,0.120206356,0.10531986,0.10531986,0.31378564,0.29220763,0.9967487,0.21174866,0.25317678,0.24182768,-1.3980169,0.17198312,-0.0777757,-0.07670563,-0.0026557706,-0.0026557706,0.1501434,0.15478276,0.8515873,0.06658727,0.094943635,0.07835578,-1.5519314,0.018068671
21,0.42,0.0,0.105000004,0.0,0.0,0.0,0.0,0.0,0.0,-1.0,0.0,0.15,0.0,3.74167e-05,-0.085983515,-0.039224744,-0.07233501,0.050027728,-0.13695955,0.10531986,0.21174866,0.17198312,-0.0026557706,0.06658727,0.018068671,-0.067731656,-0.08556411,-0.21208028,-0.04406537,0.2873045,0.055371903,-0.005321391,0.0034583136,0.13038519,-0.34043944,0.3859758,0.21086681,0.022733945,0.32759115,-0.12269292,0.18175061,-0.17923288,0.92727774,-0.7208062,-1.052047,-0.88230073,-0.40093297,-0.02012204,0.23231415,-0.0013166517,-0.13636589,-0.10704118,-0.124705285,0.09560791,-0.15454865,0.120206356,0.29220763,0.24182768,-0.07670563,0.15478276,0.07835578,0.017863773,0.025095373,-0.0008491561,-0.0008491561,-0.12931475,-0.14257756,0.697861,-0.08713901,-0.1316309,-0.12119473,-1.6139382,-0.04393816,-0.14148949,-0.128868,-0.07291942,-0.07291942,0.09682752,0.094160095,0.84039223,0.055392206,-0.14821655,-0.14813071,-1.703895,-0.13389492,0.114267185,0.106989264,0.10356034,0.10356034,0.30999604,0.28755644,0.99463934,0.20963931,0.2524425,0.24637038,-1.3971012,0.17289889,-0.07655003,-0.078685135,-0.0102980975,-0.0102980975,0.15429088,0.16718626,0.859465,0.07446498,0.099085525,0.08408011,-1.5471579,0.022842169
22,0.44,0.0,0.105000004,0.0,0.0,0.0,0.0,0.0,0.0,-1.0,0.0,0.15,0.0,-0.0008491561,-0.08713901,-0.04393816,-0.07291942,0.055392206,-0.13389492,0.10356034,0.20963931,0.17289889,-0.0102980975,0.07446498,0.022842169,-0.04432864,-0.0577743,-0.23567255,-0.02922048,0.26822296,0.15323406,-0.08797568,-0.105467334,0.04578919,-0.38211635,0.3938864,0.23867777,0.23651381,0.2824911,-0.14871189,0.15037699,-0.26710612,0.8806564,-0.7570635,-1.001044,-0.81831425,-0.27365336,-0.050892733,0.18782817,0.025095373,-0.14257756,-0.12119473,-0.128868,0.094160095,-0.14813071,0.106989264,0.28755644,0.24637038,-0.078685135,0.16718626,0.08408011,0.04692392,0.054520123,-0.00079190533,-0.00079190533,-0.1353611,-0.14965692,0.69715726,-0.08784276,-0.14476185,-0.13583127,-1.6191833,-0.04918325,-0.15092462,-0.13446906,-0.073292695,-0.073292695,0.09368664,0.09210883,0.84518963,0.060189605,-0.14212659,-0.14116758,-1.6989576,-0.12895751,0.10106988,0.092137694,0.10004908,0.10004908,0.3029928,0.28199324,0.9904389,0.20543885,0.25061497,0.24871993,-1.3977845,0.17221558,-0.07397324,-0.078985296,-0.018492535,-0.018492535,0.15953206,0.17811635,0.86741585,0.08241582,0.10167102,0.0892475,-1.541926,0.028074026
23,0.46,0.0,0.105000004,0.0,0.0,0.0,0.0,0.0,0.0,-1.0,0.0,0.15,0.0,-0.00079190533,-0.08784276,-0.04918325,-0.073292695,0.060189605,-0.12895751,0.10004908,0.20543885,0.17221558,-0.018492535,0.08241582,0.028074026,0.0028625391,-0.035188682,-0.26225296,-0.018663634,0.23987135,0.24687012,-0.17556328,-0.21002224,-0.034162544,-0.40972182,0.39754117,0.26159438,0.44740018,0.2258234,-0.16859238,0.106262445,-0.3460986,0.810544,-0.7759021,-0.9260644,-0.7486086,-0.13114092,-0.09249312,0.13399811,0.054520123,-0.14965692,-0.13583127,-0.13446906,0.09210883,-0.14116758,0.092137694,0.28199324,0.24871993,-0.078985296,0.17811635,0.0892475,0.079725616,-0.004012063,-0.0007763691,-0.0007763691,-0.14376906,-0.12637341,0.69727767,-0.08772236,-0.1582605,-0.120378785,-1.6245183,-0.054518223,-0.15932763,-0.13259216,-0.073423415,-0.073423415,0.0910382,0.09948848,0.8494129,0.06441289,-0.13429025,-0.15235218,-1.6925781,-0.122578025,0.08629075,0.12418476,0.09549876,0.09549876,0.29426607,0.31378564,0.984895,0.19989496,0.24819732,0.25317678,-1.3998936,0.17010641,-0.06987097,-0.0777757,-0.0269299,-0.0269299,0.16436478,0.1501434,0.8747341,0.08973408,0.10215064,0.094943635,-1.536335,0.03366506
24,0.48,0.0,0.105000004,0.0,0.0,0.0,0.0,0.0,0.0,-1.0,0.0,0.15,0.0,-0.0007763691,-0.08772236,-0.054518223,-0.073423415,0.06441289,-0.122578025,0.09549876,0.19989496,0.17010641,-0.0269299,0.08973408,0.03366506,0.00077681034,0.0060204417,-0.2667501,-0.0065358644,0.21116522,0.31897694,-0.22751583,-0.27719474,-0.10545799,-0.42186823,0.3659135,0.27955103,-0.020063004,0.38956028,0.042636752,0.11730532,-0.34028092,0.58294314,-0.42074424,-0.5494367,-0.64356005,0.0196069,-0.41755491,0.0811317,-0.004012063,-0.12637341,-0.120378785,-0.13259216,0.09948848,-0.15235218,0.12418476,0.31378564,0.25317678,-0.0777757,0.1501434,0.094943635,0.0055371225,0.017863773,-0.00045094558,-0.00045094558,-0.10394747,-0.12931475,0.69813013,-0.086869895,-0.14153273,-0.1316309,-1.629948,-0.059947968,-0.15913773,-0.14148949,-0.07346188,-0.07346188,0.09916413,0.09682752,0.8529131,0.067913055,-0.15531236,-0.14821655,-1.6849664,-0.11496639,0.1346376,0.114267185,0.089948274,0.089948274,0.3333499,0.30999604,0.9781916,0.19319159,0.25354764,0.2524425,-1.4033017,0.16669834,-0.06557553,-0.07655003,-0.03530844,-0.03530844,0.120793216,0.15429088,0.88128364,0.096283615,0.10487803,0.099085525,-1.5305154,0.03948462
25,0.5,0.0,0.105000004,0.0,0.0,0.0,0.0,0.0,0.0,-1.0,0.0,0.15,0.0,-0.00045094558,-0.086869895,-0.059947968,-0.07346188,0.067913055,-0.11496639,0.089948274,0.19319159,0.16669834,-0.03530844,0.096283615,0.03948462,0.016271178,0.04262337,-0.27148816,-0.0019231993,0.17500834,0.38057974,-0.2775243,-0.33517015,-0.17040128,-0.418927,0.32747605,0.29097784,0.14198972,0.3340884,0.041864384,0.044435795,-0.399493,0.4634405,-0.38627276,-0.44351226,-0.56243193,0.1619983,-0.46994853,0.015441716,0.017863773,-0.12931475,-0.1316309,-0.14148949,0.09682752,-0.14821655,0.114267185,0.30999604,0.2524425,-0.07655003,0.15429088,0.099085525,0.02635733,0.04692392,0.00062341976,0.00062341976,-0.10591668,-0.1353611,0.699554,-0.085446,-0.15061378,-0.14476185,-1.6355041,-0.065504074,-0.16708425,-0.15092462,-0.073562436,-0.073562436,0.09607041,0.09368664,0.855564,0.07056397,-0.15099382,-0.14212659,-1.6763306,-0.106330514,0.12868376,0.10106988,0.083414085,0.083414085,0.32878557,0.3029928,0.97048914,0.18548912,0.25090367,0.25061497,-1.4078639,0.1621362,-0.06068807,-0.07397324,-0.043321755,-0.043321755,0.11876328,0.15953206,0.88697714,0.10197711,0.10327863,0.10167102,-1.5246236,0.04537642
26,0.52,0.0,0.105000004,0.0,0.0,0.0,0.0,0.0,0.0,-1.0,0.0,0.15,0.0,0.00062341976,-0.085446,-0.065504074,-0.073562436,0.07056397,-0.106330514,0.083414085,0.18548912,0.1621362,-0.043321755,0.10197711,0.04537642,0.05371827,0.07119517,-0.27780643,-0.0050277254,0.1325464,0.43179572,-0.32670942,-0.3851239,-0.22810665,-0.40066576,0.28467414,0.29459032,0.3385575,0.2486498,0.028873991,-0.02788415,-0.44580317,0.34837788,-0.3627116,-0.35132137,-0.47520676,0.30169505,-0.49771428,-0.059950043,0.04692392,-0.1353611,-0.14476185,-0.15092462,0.09368664,-0.14212659,0.10106988,0.3029928,0.25061497,-0.07397324,0.15953206,0.10167102,0.056622118,0.079725616,0.0028997273,0.0028997273,-0.11182485,-0.14376906,0.7013407,-0.08365935,-0.16089165,-0.1582605,-1.6412185,-0.07121849,-0.17346351,-0.15932763,-0.07385321,-0.07385321,0.09278208,0.0910382,0.85728097,0.07228094,-0.14452264,-0.13429025,-1.6668725,-0.09687245,0.11828396,0.08629075,0.075918004,0.075918004,0.32009783,0.29426607,0.9619444,0.17694438,0.24711594,0.24819732,-1.4134151,0.15658498,-0.05511285,-0.06987097,-0.05066604,-0.05066604,0.11993285,0.16436478,0.89175254,0.106752515,0.10024246,0.10215064,-1.518844,0.051156044
27,0.54,0.0,0.105000004,0.0,0.0,0.0,0.0,0.0,0.0,-1.0,0.0,0.15,0.0,0.0028997273,-0.08365935,-0.07121849,-0.07385321,0.07228094,-0.09687245,0.075918004,0.17694438,0.15658498,-0.05066604,0.106752515,0.051156044,0.113815375,0.08933379,-0.28571805,-0.014538542,0.0858473,0.47290257,-0.3748039,-0.42723742,-0.27756137,-0.36721444,0.2387689,0.28897908,0.53450155,0.14373052,0.01627021,-0.085700385,-0.4711129,0.23918614,-0.33696014,-0.26336247,-0.38100043,0.43529615,-0.5125062,-0.14578082,0.079725616,-0.14376906,-0.1582605,-0.15932763,0.0910382,-0.13429025,0.08629075,0.29426607,0.24819732,-0.06987097,0.16436478,0.10215064,0.09272911,0.0055371225,0.005058022,0.005058022,-0.12033243,-0.10394747,0.704052,-0.080948055,-0.17077398,-0.14153273,-1.6466327,-0.07663262,-0.17774908,-0.15913773,-0.074312344,-0.074312344,0.08980067,0.09916413,0.8581857,0.07318568,-0.13680649,-0.15531236,-1.6572725,-0.087272406,0.105427,0.1346376,0.06852155,0.06852155,0.30864564,0.3333499,0.95349824,0.16849822,0.24246393,0.25354764,-1.4196427,0.15035737,-0.048655722,-0.06557553,-0.05707101,-0.05707101,0.122557946,0.120793216,0.8948058,0.10980576,0.09573573,0.10487803,-1.5133123,0.056687713
28,0.56,0.0,0.105000004,0.0,0.0,0.0,0.0,0.0,0.0,-1.0,0.0,0.15,0.0,0.005058022,-0.080948055,-0.07663262,-0.074312344,0.07318568,-0.087272406,0.06852155,0.16849822,0.15035737,-0.05707101,0.10980576,0.056687713,0.10791474,0.13556404,-0.27070868,-0.022956662,0.045236733,0.4800035,-0.36982244,-0.4223066,-0.31138113,-0.32024848,0.15266101,0.2765828,-0.09058874,0.3958067,0.22921495,-0.07262597,-0.40027627,-0.08614166,0.16566715,0.18198135,-0.22164592,0.54865617,-0.8668769,-0.20627122,0.0055371225,-0.10394747,-0.14153273,-0.15913773,0.09916413,-0.15531236,0.1346376,0.3333499,0.25354764,-0.06557553,0.120793216,0.10487803,0.01167281,0.02635733,0.007368263,0.007368263,-0.06595702,-0.10591668,0.70752335,-0.07747668,-0.16142923,-0.15061378,-1.6517338,-0.0817337,-0.18382685,-0.16708425,-0.07504387,-0.07504387,0.09451851,0.09607041,0.85824037,0.07324034,-0.16203737,-0.15099382,-1.6477755,-0.07777548,0.16378161,0.12868376,0.061361175,0.061361175,0.357019,0.32878557,0.945343,0.16034299,0.2521151,0.25090367,-1.426356,0.1436441,-0.035605844,-0.06068807,-0.06230047,-0.06230047,0.0672562,0.11876328,0.8960928,0.111092746,0.08972998,0.10327863,-1.5082188,0.061781287
29,0.58,0.0,0.105000004,0.0,0.0,0.0,0.0,0.0,0.0,-1.0,0.0,0.15,0.0,0.007368263,-0.07747668,-0.0817337,-0.07504387,0.07324034,-0.07777548,0.061361175,0.16034299,0.1436441,-0.06230047,0.111092746,0.061781287,0.11551203,0.17356944,-0.2550521,-0.036576476,0.0027341284,0.47484413,-0.3580188,-0.40776,-0.33566096,-0.2614729,0.064349405,0.25467622,0.035210423,0.3055092,0.23035502,-0.11768378,-0.4046492,-0.200965,0.2267007,0.26867646,-0.12324618,0.6420394,-0.859552,-0.2896096,0.02635733,-0.10591668,-0.15061378,-0.16708425,0.09607041,-0.15099382,0.12868376,0.32878557,0.25090367,-0.06068807,0.11876328,0.10327863,0.029836997,0.056622118,0.01023316,0.01023316,-0.06628162,-0.11182485,0.7115112,-0.07348883,-0.16441548,-0.16089165,-1.6565385,-0.086538434,-0.18828848,-0.17346351,-0.07611284,-0.07611284,0.08994231,0.09278208,0.85743314,0.072433114,-0.15850553,-0.14452264,-1.638577,-0.06857693,0.16245243,0.11828396,0.054487802,0.054487802,0.35167125,0.32009783,0.9375862,0.15258616,0.24525765,0.24711594,-1.4333763,0.13662374,-0.03275324,-0.05511285,-0.06615665,-0.06615665,0.06314698,0.11993285,0.89567935,0.11067933,0.084706746,0.10024246,-1.5037531,0.06624699
30,0.6,0.0,0.105000004,0.0,0.0,0.0,0.0,0.0,0.0,-1.0,0.0,0.15,0.0,0.01023316,-0.07348883,-0.086538434,-0.07611284,0.072433114,-0.06857693,0.054487802,0.15258616,0.13662374,-0.06615665,0.11067933,0.06624699,0.14324489,0.19939376,-0.24023898,-0.053448264,-0.04036141,0.45992455,-0.34366855,-0.38784254,-0.35101578,-0.19280879,-0.020670146,0.22328626,0.21762392,0.18152547,0.21760026,-0.14317855,-0.396492,-0.2889127,0.2463011,0.3133251,-0.033545148,0.714008,-0.80107105,-0.3696559,0.056622118,-0.11182485,-0.16089165,-0.17346351,0.09278208,-0.14452264,0.11828396,0.32009783,0.24711594,-0.05511285,0.11993285,0.10024246,0.056113742,0.09272911,0.014111018,0.014111018,-0.072878934,-0.12033243,0.715726,-0.06927401,-0.16582796,-0.17077398,-1.6610662,-0.09106612,-0.19041753,-0.17774908,-0.077536725,-0.077536725,0.0855685,0.08980067,0.85578525,0.070785224,-0.15270883,-0.13680649,-1.6298329,-0.05983281,0.15523857,0.105427,0.04790132,0.04790132,0.33919868,0.30864564,0.93027276,0.14527273,0.23643439,0.24246393,-1.4405382,0.12946188,-0.031625573,-0.048655722,-0.06848149,-0.06848149,0.06451556,0.122557946,0.8937058,0.10870576,0.07949779,0.09573573,-1.5000987,0.06990135
31,0.62,0.0,0.105000004,0.0,0.0,0.0,0.0,0.0,0.0,-1.0,0.0,0.15,0.0,0.014111018,-0.06927401,-0.09106612,-0.077536725,0.070785224,-0.05983281,0.04790132,0.14527273,0.12946188,-0.06848149,0.10870576,0.06990135,0.19389287,0.21074022,-0.22638473,-0.071194574,-0.08239575,0.4372062,-0.329324,-0.36567178,-0.35809192,-0.11624229,-0.098677166,0.1827154,0.41911012,0.04035418,0.20405845,-0.14580777,-0.37296,-0.35573003,0.24165682,0.32763702,0.04736643,0.76457924,-0.7094896,-0.44389296,0.09272911,-0.12033243,-0.17077398,-0.17774908,0.08980067,-0.13680649,0.105427,0.30864564,0.24246393,-0.048655722,0.122557946,0.09573573,0.08649289,0.01167281,0.017530195,0.017530195,-0.08442339,-0.06595702,0.72089154,-0.06410849,-0.16596696,-0.16142923,-1.6650362,-0.09503615,-0.19109933,-0.18382685,-0.07934947,-0.07934947,0.08230963,0.09451851,0.8534669,0.0684669,-0.14538872,-0.16203737,-1.622204,-0.052203894,0.14369626,0.16378161,0.04273183,0.04273183,0.32163933,0.357019,0.9243886,0.13938856,0.22683017,0.2521151,-1.4474509,0.122549176,-0.031052388,-0.035605844,-0.06906838,-0.06906838,0.06895155,0.0672562,0.88942844,0.10442841,0.07384096,0.08972998,-1.4974283,0.072571754
32,0.64,0.0,0.105000004,0.0,0.0,0.0,0.0,0.0,0.0,-1.0,0.0,0.15,0.0,0.017530195,-0.06410849,-0.09503615,-0.07934947,0.0684669,-0.052203894,0.04273183,0.13938856,0.122549176,-0.06906838,0.10442841,0.072571754,0.17095885,0.25827596,-0.19850303,-0.090637565,-0.11591749,0.3814485,-0.25847462,-0.2942093,-0.34563434,-0.029344477,-0.21386755,0.1335215,-0.2725801,0.3689413,0.32839656,-0.15570444,-0.28136334,-0.65176094,0.75578094,0.7730402,0.22895046,0.8349196,-1.025871,-0.5100686,0.01167281,-0.06595702,-0.16142923,-0.18382685,0.09451851,-0.16203737,0.16378161,0.357019,0.2521151,-0.035605844,0.0672562,0.08972998,0.012593925,0.029836997,0.020694839,0.020694839,-0.036620095,-0.06628162,0.7267898,-0.058210254,-0.15723237,-0.16441548,-1.6683973,-0.098397255,-0.19524986,-0.18828848,-0.08154502,-0.08154502,0.08551775,0.08994231,0.8505126,0.0655126,-0.1660181,-0.15850553,-1.615822,-0.045821905,0.19940224,0.16245243,0.03905263,0.03905263,0.37089664,0.35167125,0.9199649,0.13496488,0.23306605,0.24525765,-1.4540154,0.11598468,-0.024437089,-0.03275324,-0.06793979,-0.06793979,0.016893812,0.06314698,0.8830336,0.09803355,0.06853054,0.084706746,-1.4958584,0.07414162
33,0.66,0.0,0.105000004,0.0,0.0,0.0,0.0,0.0,0.0,-1.0,0.0,0.15,0.0,0.020694839,-0.058210254,-0.098397255,-0.08154502,0.0655126,-0.045821905,0.03905263,0.13496488,0.11598468,-0.06793979,0.09803355,0.07414162,0.15823218,0.2949104,-0.16805252,-0.10977732,-0.1477148,0.31909797,-0.18395987,-0.22118357,-0.32822523,0.056429565,-0.31974205,0.07849605,-0.17153755,0.25365543,0.34305757,-0.1466989,-0.25480548,-0.69444203,0.76675725,0.7645234,0.2704187,0.7967959,-0.9034902,-0.5478597,0.029836997,-0.06628162,-0.16441548,-0.18828848,0.08994231,-0.15850553,0.16245243,0.35167125,0.24525765,-0.03275324,0.06314698,0.084706746,0.018319547,0.056113742,0.023936834,0.023936834,-0.039516382,-0.072878934,0.73308975,-0.05191028,-0.15122908,-0.16582796,-1.6710949,-0.10109484,-0.19533622,-0.19041753,-0.08406803,-0.08406803,0.08174662,0.0855685,0.8469787,0.061978698,-0.16418377,-0.15270883,-1.6107361,-0.04073608,0.20149985,0.15523857,0.036791526,0.036791526,0.3617382,0.33919868,0.9168707,0.13187069,0.22453076,0.23643439,-1.4601802,0.10981989,-0.029825319,-0.031625573,-0.06519956,-0.06519956,0.016865239,0.06451556,0.8748537,0.089853644,0.06496009,0.07949779,-1.4954675,0.07453251
34,0.68,0.0,0.105000004,0.0,0.0,0.0,0.0,0.0,0.0,-1.0,0.0,0.15,0.0,0.023936834,-0.05191028,-0.10109484,-0.08406803,0.061978698,-0.04073608,0.036791526,0.13187069,0.10981989,-0.06519956,0.089853644,0.07453251,0.16209982,0.31499812,-0.13487668,-0.12615044,-0.17669436,0.25429112,-0.11305524,-0.15470923,-0.30824187,0.13701129,-0.40899616,0.019542899,-0.015129322,0.090033785,0.3583319,-0.11517652,-0.21876359,-0.6970385,0.70977175,0.6810133,0.28847837,0.7216827,-0.7170355,-0.5663091,0.056113742,-0.072878934,-0.16582796,-0.19041753,0.0855685,-0.15270883,0.15523857,0.33919868,0.23643439,-0.031625573,0.06451556,0.07949779,0.029244475,0.08649289,0.02763464,0.02763464,-0.047094904,-0.08442339,0.73938507,-0.045614958,-0.14444274,-0.16596696,-1.673078,-0.10307789,-0.19428746,-0.19109933,-0.0868323,-0.0868323,0.078493714,0.08230963,0.8429552,0.057955146,-0.16164431,-0.14538872,-1.6069273,-0.036927223,0.19844908,0.14369626,0.035765287,0.035765287,0.34537643,0.32163933,0.9148576,0.1298576,0.21573596,0.22683017,-1.4659218,0.10407829,-0.036956962,-0.031052388,-0.0610068,-0.0610068,0.023342423,0.06895155,0.86531067,0.08031064,0.061609056,0.07384096,-1.4962999,0.07370019
35,0.7000000000000001,0.0,0.105000004,0.0,0.0,0.0,0.0,0.0,0.0,-1.0,0.0,0.15,0.0,0.02763464,-0.045614958,-0.10307789,-0.0868323,0.057955146,-0.036927223,0.035765287,0.1298576,0.10407829,-0.0610068,0.08031064,0.07370019,0.18489021,0.31476593,-0.099154696,-0.13821355,-0.20117788,0.19044322,-0.051311906,-0.10065544,-0.2870774,0.20963812,-0.47715098,-0.04161357,0.15734378,-0.10293102,0.37108767,-0.07037108,-0.16821656,-0.6674968,0.60298145,0.5457205,0.29292798,0.6228706,-0.49478292,-0.5676694,0.08649289,-0.08442339,-0.16596696,-0.19109933,0.08230963,-0.14538872,0.14369626,0.32163933,0.22683017,-0.031052388,0.06895155,0.07384096,0.045311324,0.012593925,0.030464748,0.030464748,-0.059565894,-0.036620095,0.74623936,-0.038760662,-0.13785349,-0.15723237,-1.6741791,-0.104179025,-0.19220394,-0.19524986,-0.08980372,-0.08980372,0.07682286,0.08551775,0.83864653,0.053646505,-0.15868801,-0.1660181,-1.6047834,-0.034783363,0.19114658,0.19940224,0.036836307,0.036836307,0.32500035,0.37089664,0.91472405,0.12972403,0.20794332,0.23306605,-1.4709777,0.09902239,-0.04489571,-0.024437089,-0.05546245,-0.05546245,0.034455344,0.016893812,0.85394514,0.06894511,0.058351617,0.06853054,-1.4983524,0.071647644
36,0.72,0.0,0.105000004,0.0,0.0,0.0,0.0,0.0,0.0,-1.0,0.0,0.15,0.0,0.030464748,-0.038760662,-0.104179025,-0.08980372,0.053646505,-0.034783363,0.036836307,0.12972403,0.09902239,-0.05546245,0.06894511,0.071647644,0.14150542,0.34271544,-0.05505817,-0.14857107,-0.215433,0.10719021,0.053551007,-0.006677471,-0.25279593,0.27721742,-0.5682754,-0.102628745,-0.45743728,0.15585175,0.4365352,-0.05085382,-0.066485465,-0.8252053,0.9790615,0.89492786,0.40656844,0.5532938,-0.6838331,-0.5468035,0.012593925,-0.036620095,-0.15723237,-0.19524986,0.08551775,-0.1660181,0.19940224,0.37089664,0.23306605,-0.024437089,0.016893812,0.06853054,-0.02158615,0.018319547,0.03247159,0.03247159,-0.03418767,-0.039516382,0.753359,-0.031641006,-0.12348641,-0.15122908,-1.6743112,-0.10431111,-0.184607,-0.19533622,-0.09287823,-0.09287823,0.079310894,0.08174662,0.83414453,0.049144506,-0.17550117,-0.16418377,-1.6042607,-0.03426063,0.24500078,0.20149985,0.039899014,0.039899014,0.37228906,0.3617382,0.91623384,0.13123381,0.2149005,0.22453076,-1.475357,0.094643,-0.050759386,-0.029825319,-0.048897725,-0.048897725,-0.0009892583,0.016865239,0.8412115,0.05621147,0.05488531,0.06496009,-1.5015557,0.06844437
37,0.74,0.0,0.105000004,0.0,0.0,0.0,0.0,0.0,0.0,-1.0,0.0,0.15,0.0,0.03247159,-0.031641006,-0.10431111,-0.09287823,0.049144506,-0.03426063,0.039899014,0.13123381,0.094643,-0.048897725,0.05621147,0.06844437,0.10034219,0.35598367,-0.0066021383,-0.15372555,-0.22509849,0.026137002,0.15313524,0.07548852,-0.21896741,0.32823622,-0.6366816,-0.16016553,-0.42316017,0.012133623,0.46244565,0.00022467374,-0.019790232,-0.77836925,0.8970469,0.75642043,0.39144135,0.3796429,-0.44612074,-0.49534717,0.018319547,-0.039516382,-0.15122908,-0.19533622,0.08174662,-0.16418377,0.20149985,0.3617382,0.22453076,-0.029825319,0.016865239,0.06496009,-0.03213039,0.029244475,0.033806913,0.033806913,-0.03778628,-0.047094904,0.7603817,-0.024618328,-0.11017306,-0.14444274,-1.6734097,-0.10340965,-0.17935899,-0.19428746,-0.09593551,-0.09593551,0.078732416,0.078493714,0.8295509,0.044550896,-0.17908019,-0.16164431,-1.605254,-0.035254,0.25493988,0.19844908,0.044707,0.044707,0.36517724,0.34537643,0.91899467,0.13399464,0.21231878,0.21573596,-1.4790943,0.090905786,-0.062394556,-0.036956962,-0.04168782,-0.04168782,0.006240584,0.023342423,0.82768923,0.042689204,0.05127478,0.061609056,-1.5058033,0.064196706
38,0.76,0.0,0.105000004,0.0,0.0,0.0,0.0,0.0,0.0,-1.0,0.0,0.15,0.0,0.033806913,-0.024618328,-0.10340965,-0.09593551,0.044550896,-0.035254,0.044707,0.13399464,0.090905786,-0.04168782,0.042689204,0.064196706,0.06676612,0.35113415,0.0450715,-0.15286407,-0.22967981,-0.049668215,0.2403993,0.1380411,-0.1868591,0.3604952,-0.676112,-0.21238104,-0.34033787,-0.15843336,0.47647625,0.057100464,0.029975284,-0.70425564,0.7520809,0.5500762,0.3648243,0.19110182,-0.1582323,-0.42808455,0.029244475,-0.047094904,-0.14444274,-0.19428746,0.078493714,-0.16164431,0.19844908,0.34537643,0.21573596,-0.036956962,0.023342423,0.061609056,-0.037898235,0.045311324,0.03471863,0.03471863,-0.043884866,-0.059565894,0.76688796,-0.018112063,-0.096407324,-0.13785349,-1.6714499,-0.10144985,-0.17317005,-0.19220394,-0.09884525,-0.09884525,0.07901478,0.07682286,0.8249906,0.039990544,-0.18281156,-0.15868801,-1.6076087,-0.037608624,0.26124826,0.19114658,0.050902307,0.050902307,0.3529463,0.32500035,0.92252964,0.13752961,0.21098599,0.20794332,-1.4822265,0.08777356,-0.07535258,-0.04489571,-0.034222733,-0.034222733,0.02015654,0.034455344,0.8140283,0.029028296,0.048530173,0.058351617,-1.5109593,0.059040785
39,0.78,0.0,0.105000004,0.0,0.0,0.0,0.0,0.0,0.0,-1.0,0.0,0.15,0.0,0.03471863,-0.018112063,-0.10144985,-0.09884525,0.039990544,-0.037608624,0.050902307,0.13752961,0.08777356,-0.034222733,0.029028296,0.059040785,0.045585815,0.32531404,0.097990654,-0.1454872,-0.22801895,-0.11772885,0.3097654,0.17674795,-0.15661085,0.3732544,-0.6830449,-0.2577955,-0.21580037,-0.34939122,0.47137517,0.11663611,0.08874378,-0.60890216,0.5598531,0.3111555,0.33747405,0.0017708659,0.1527121,-0.34894267,0.045311324,-0.059565894,-0.13785349,-0.19220394,0.07682286,-0.15868801,0.19114658,0.32500035,0.20794332,-0.04489571,0.034455344,0.058351617,-0.037193395,-0.02158615,0.034128387,0.034128387,-0.053116992,-0.03418767,0.7731015,-0.011898518,-0.083561935,-0.12348641,-1.6683174,-0.098317385,-0.16510206,-0.184607,-0.101400174,-0.101400174,0.079891875,0.079310894,0.8206475,0.035647452,-0.18539852,-0.17550117,-1.6114501,-0.041450024,0.26282933,0.24500078,0.059078988,0.059078988,0.33650503,0.37228906,0.9274435,0.14244348,0.21118739,0.2149005,-1.4845724,0.08542764,-0.08858842,-0.050759386,-0.026847923,-0.026847923,0.039806724,-0.0009892583,0.80010575,0.015105724,0.04742225,0.05488531,-1.5168685,0.05313158
40,0.8,0.0,0.105000004,0.0,0.0,0.0,0.0,0.0,0.0,-1.0,0.0,0.15,0.0,0.034128387,-0.011898518,-0.098317385,-0.101400174,0.035647452,-0.041450024,0.059078988,0.14244348,0.08542764,-0.026847923,0.015105724,0.05313158,-0.0295122,0.3106775,0.15662166,-0.12774605,-0.21715416,-0.1920695,0.40883404,0.24569443,-0.117297605,0.36874053,-0.6961294,-0.29546267,-0.70398724,-0.23846388,0.50687516,0.20941982,0.17270501,-0.6447737,0.8103253,0.57636964,0.41101044,-0.16087858,0.09845855,-0.26329085,-0.02158615,-0.03418767,-0.12348641,-0.184607,0.079310894,-0.17550117,0.24500078,0.37228906,0.2149005,-0.050759386,-0.0009892583,0.05488531,-0.10218911,-0.03213039,0.03196146,0.03196146,-0.04582817,-0.03778628,0.7787806,-0.0062194467,-0.055210106,-0.11017306,-1.6639582,-0.09395814,-0.13731954,-0.17935899,-0.10345229,-0.10345229,0.08373147,0.078732416,0.81664056,0.03164053,-0.2004255,-0.17908019,-1.6166383,-0.04663825,0.3170751,0.25493988,0.069035344,0.069035344,0.37780082,0.36517724,0.93339634,0.14839631,0.22301249,0.21231878,-1.4861376,0.083862424,-0.09736955,-0.062394556,-0.019981032,-0.019981032,0.025582023,0.006240584,0.78649575,0.001495719,0.03599805,0.05127478,-1.523362,0.046638012
41,0.8200000000000001,0.0,0.105000004,0.0,0.0,0.0,0.0,0.0,0.0,-1.0,0.0,0.15,0.0,0.03196146,-0.0062194467,-0.09395814,-0.10345229,0.03164053,-0.04663825,0.069035344,0.14839631,0.083862424,-0.019981032,0.001495719,0.046638012,-0.10834633,0.28395227,0.21796,-0.102605656,-0.20034647,-0.25941017,0.49781787,0.29764196,-0.07826202,0.34334454,-0.6804996,-0.32468024,-0.7142533,-0.34475493,0.51296633,0.27166754,0.22378373,-0.5567249,0.68604463,0.3982562,0.3958815,-0.3511322,0.36624315,-0.17366986,-0.03213039,-0.03778628,-0.11017306,-0.17935899,0.078732416,-0.17908019,0.25493988,0.36517724,0.21231878,-0.062394556,0.006240584,0.05127478,-0.12279399,-0.037898235,0.02827374,0.02827374,-0.052909918,-0.043884866,0.7836725,-0.0013275146,-0.03524015,-0.096407324,-1.6583529,-0.0883528,-0.11992146,-0.17317005,-0.10486204,-0.10486204,0.08628027,0.07901478,0.81308573,0.028085709,-0.20721233,-0.18281156,-1.6229997,-0.052999616,0.3342031,0.26124826,0.08046473,0.08046473,0.37747195,0.3529463,0.93995,0.15494996,0.22920918,0.21098599,-1.4869324,0.083067656,-0.109484605,-0.07535258,-0.014023734,-0.014023734,0.04242401,0.02015654,0.7738409,-0.011159122,0.031618137,0.048530173,-1.5302469,0.0397532
42,0.84,0.0,0.105000004,0.0,0.0,0.0,0.0,0.0,0.0,-1.0,0.0,0.15,0.0,0.02827374,-0.0013275146,-0.0883528,-0.10486204,0.028085709,-0.052999616,0.08046473,0.15494996,0.083067656,-0.014023734,-0.011159122,0.0397532,-0.18438593,0.24459787,0.2802691,-0.07048775,-0.17774217,-0.31806767,0.57146907,0.3276828,-0.039740082,0.2978649,-0.6327426,-0.34424296,-0.6633728,-0.45213765,0.50225097,0.32767618,0.27161798,-0.4554643,0.51681584,0.18052945,0.37867475,-0.5273733,0.6561693,-0.07568888,-0.037898235,-0.043884866,-0.096407324,-0.17317005,0.07901478,-0.18281156,0.26124826,0.3529463,0.21098599,-0.07535258,0.02015654,0.048530173,-0.13939098,-0.037193395,0.023270555,0.023270555,-0.061044283,-0.053116992,0.7875125,0.002512455,-0.019107856,-0.083561935,-1.6515374,-0.081537366,-0.10259791,-0.16510206,-0.105487354,-0.105487354,0.08857812,0.079891875,0.81008816,0.025088131,-0.21232677,-0.18539852,-1.6303134,-0.060313344,0.34745264,0.26282933,0.09295304,0.09295304,0.3750848,0.33650503,0.9466016,0.1616016,0.23603493,0.21118739,-1.4869666,0.08303344,-0.12176867,-0.08858842,-0.009332957,-0.009332957,0.063029096,0.039806724,0.7628128,-0.022187233,0.0308676,0.04742225,-1.5373008,0.032699227
43,0.86,0.0,0.105000004,0.0,0.0,0.0,0.0,0.0,0.0,-1.0,0.0,0.15,0.0,0.023270555,0.002512455,-0.081537366,-0.105487354,0.025088131,-0.060313344,0.09295304,0.1616016,0.08303344,-0.009332957,-0.022187233,0.032699227,-0.25015932,0.19199836,0.3407706,-0.03126575,-0.14987865,-0.36568376,0.6244155,0.33258277,-0.0017114356,0.23453891,-0.5514055,-0.3526982,-0.54479635,-0.56113476,0.46571738,0.38261402,0.31266457,-0.33533326,0.30317825,-0.059876584,0.36181954,-0.6766495,0.9491523,0.03253883,-0.037193395,-0.053116992,-0.083561935,-0.16510206,0.079891875,-0.18539852,0.26282933,0.33650503,0.21118739,-0.08858842,0.039806724,0.04742225,-0.15068813,-0.10218911,0.016137844,0.016137844,-0.06888192,-0.04582817,0.7903468,0.005346775,-0.00951954,-0.055210106,-1.6433369,-0.07333684,-0.086674556,-0.13731954,-0.10490292,-0.10490292,0.08885263,0.08373147,0.80777735,0.022777319,-0.21501416,-0.2004255,-1.6385381,-0.06853807,0.3555661,0.3170751,0.10691564,0.10691564,0.37112433,0.37780082,0.95379424,0.16879421,0.2433455,0.22301249,-1.486088,0.083912015,-0.1335299,-0.09736955,-0.006135976,-0.006135976,0.08561173,0.025582023,0.7534554,-0.031544626,0.033947494,0.03599805,-1.5444725,0.025527596
44,0.88,0.0,0.105000004,0.0,0.0,0.0,0.0,0.0,0.0,-1.0,0.0,0.15,0.0,0.016137844,0.005346775,-0.07333684,-0.10490292,0.022777319,-0.06853807,0.10691564,0.16879421,0.083912015,-0.006135976,-0.031544626,0.025527596,-0.35663554,0.14171594,0.41002375,0.029221676,-0.115540504,-0.41123855,0.69812995,0.35963172,0.043930586,0.15984905,-0.46787,-0.35858357,-0.8974007,-0.5230321,0.5266967,0.56527966,0.3631854,-0.3011747,0.47688565,0.14188328,0.419542,-0.76070535,0.9433056,0.05883509,-0.10218911,-0.04582817,-0.055210106,-0.13731954,0.08373147,-0.2004255,0.3170751,0.37780082,0.22301249,-0.09736955,0.025582023,0.03599805,-0.19188397,-0.12279399,0.006880654,0.006880654,-0.0735604,-0.052909918,0.79202175,0.007021725,0.01443702,-0.03524015,-1.6337636,-0.0637635,-0.051162157,-0.11992146,-0.102909565,-0.102909565,0.093957216,0.08628027,0.8062337,0.021233678,-0.23146966,-0.20721233,-1.6474738,-0.07747376,0.39822972,0.3342031,0.12210605,0.12210605,0.40102994,0.37747195,0.9612654,0.17626536,0.26698166,0.22920918,-1.4842712,0.085728884,-0.12995404,-0.109484605,-0.0046542464,-0.0046542464,0.09986836,0.04242401,0.7462541,-0.03874594,0.017283814,0.031618137,-1.5515965,0.01840353
45,0.9,0.0,0.105000004,0.0,0.0,0.0,0.0,0.0,0.0,-1.0,0.0,0.15,0.0,0.006880654,0.007021725,-0.0637635,-0.102909565,0.021233678,-0.07747376,0.12210605,0.17626536,0.085728884,-0.0046542464,-0.03874594,0.01840353,-0.4628595,0.083747335,0.47866938,0.0996681,-0.07718301,-0.44678548,0.7595209,0.3735569,0.09084217,0.07408647,-0.36006594,-0.35620406,-0.86101264,-0.577501,0.49895993,0.63734734,0.38909447,-0.19472477,0.34016743,0.012751197,0.41659027,-0.83845216,1.1393597,0.1365905,-0.12279399,-0.052909918,-0.03524015,-0.11992146,0.08628027,-0.20721233,0.3342031,0.37747195,0.22920918,-0.109484605,0.04242401,0.031618137,-0.21214919,-0.13939098,-0.0043641124,-0.0043641124,-0.07916197,-0.061044283,0.79241157,0.0074115396,0.022904493,-0.019107856,-1.6229341,-0.05293405,-0.029434081,-0.10259791,-0.09936433,-0.09936433,0.09499289,0.08857812,0.805505,0.020504951,-0.23804271,-0.21232677,-1.6568809,-0.0868808,0.4137933,0.34745264,0.1381888,0.1381888,0.40662494,0.3750848,0.96872383,0.1837238,0.28462344,0.23603493,-1.481512,0.0884881,-0.13344887,-0.12176867,-0.0050459662,-0.0050459662,0.12383136,0.063029096,0.7416612,-0.043338835,0.017082045,0.0308676,-1.5584594,0.011540651
46,0.92,0.0,0.105000004,0.0,0.0,0.0,0.0,0.0,0.0,-1.0,0.0,0.15,0.0,-0.0043641124,0.0074115396,-0.05293405,-0.09936433,0.020504951,-0.0868808,0.1381888,0.1837238,0.0884881,-0.0050459662,-0.043338835,0.011540651,-0.56223834,0.019489743,0.54147124,0.17726168,-0.03643526,-0.4703496,0.8041373,0.3729223,0.13796175,-0.01958599,-0.22964591,-0.34314546,-0.76418287,-0.6166842,0.4233466,0.6804153,0.39876324,-0.07334647,0.16653176,-0.125364,0.40348846,-0.8836209,1.3124768,0.23386292,-0.13939098,-0.061044283,-0.019107856,-0.10259791,0.08857812,-0.21232677,0.34745264,0.3750848,0.23603493,-0.12176867,0.063029096,0.0308676,-0.23118673,-0.15068813,-0.017318,-0.017318,-0.08323531,-0.06888192,0.7914426,0.006442547,0.028323345,-0.00951954,-1.6111046,-0.041104555,-0.009220231,-0.086674556,-0.094203494,-0.094203494,0.09526363,0.08885263,0.8055782,0.020578146,-0.2430585,-0.21501416,-1.6664776,-0.09647751,0.4249799,0.3555661,0.15473442,0.15473442,0.41050497,0.37112433,0.97586817,0.19086814,0.3029181,0.2433455,-1.4778287,0.09217131,-0.13683116,-0.1335299,-0.0073931077,-0.0073931077,0.148109,0.08561173,0.74005455,-0.04494548,0.020597706,0.033947494,-1.5648053,0.005194783
47,0.9400000000000001,0.0,0.105000004,0.0,0.0,0.0,0.0,0.0,0.0,-1.0,0.0,0.15,0.0,-0.017318,0.006442547,-0.041104555,-0.094203494,0.020578146,-0.09647751,0.15473442,0.19086814,0.09217131,-0.0073931077,-0.04494548,0.005194783,-0.64769435,-0.048448704,0.5914765,0.2580419,0.00366069,-0.47983423,0.82728124,0.3572176,0.1841591,-0.11735707,-0.080332115,-0.31729525,-0.6045698,-0.6299113,0.28577802,0.68483853,0.37974048,0.0634435,-0.044862367,-0.26350394,0.37994346,-0.89127094,1.4441874,0.34711084,-0.15068813,-0.06888192,-0.00951954,-0.086674556,0.08885263,-0.21501416,0.3555661,0.37112433,0.2433455,-0.1335299,0.08561173,0.033947494,-0.24899484,-0.19188397,-0.032140158,-0.032140158,-0.0852331,-0.0735604,0.7891389,0.004138887,0.03087113,0.01443702,-1.5983202,-0.028320193,0.007839162,-0.051162157,-0.08710478,-0.08710478,0.09458248,0.093957216,0.80649257,0.02149254,-0.24621618,-0.23146966,-1.6762106,-0.10621059,0.43080232,0.39822972,0.17187294,0.17187294,0.41241553,0.40102994,0.982964,0.19796395,0.32027736,0.26698166,-1.4730074,0.09699261,-0.14085756,-0.12995404,-0.011465577,-0.011465577,0.17126472,0.09986836,0.7415644,-0.043435633,0.028797137,0.017283814,-1.5707235,-0.0007234812
48,0.96,0.0,0.105000004,0.0,0.0,0.0,0.0,0.0,0.0,-1.0,0.0,0.15,0.0,-0.032140158,0.004138887,-0.028320193,-0.08710478,0.02149254,-0.10621059,0.17187294,0.19796395,0.09699261,-0.011465577,-0.043435633,-0.0007234812,-0.741108,-0.11518262,0.6392195,0.35493565,0.045718372,-0.48665422,0.8569259,0.35479167,0.24106233,-0.20362347,0.075491995,-0.295915,-0.65027523,-0.5971137,0.24900901,0.80691147,0.38491765,0.0909395,0.0074077128,-0.13657953,0.46343985,-0.7543713,1.4561715,0.29780453,-0.19188397,-0.0735604,0.01443702,-0.051162157,0.093957216,-0.23146966,0.39822972,0.40102994,0.26698166,-0.12995404,0.09986836,0.017283814,-0.27500814,-0.21214919,-0.048587114,-0.048587114,-0.090037346,-0.07916197,0.7855514,0.00055140257,0.038599737,0.022904493,-1.5849024,-0.014902353,0.0326312,-0.029434081,-0.0780446,-0.0780446,0.097216204,0.09499289,0.8081933,0.0231933,-0.25662854,-0.23804271,-1.6858671,-0.11586702,0.44657448,0.4137933,0.1892753,0.1892753,0.41878256,0.40662494,0.98987615,0.20487612,0.349361,0.28462344,-1.466977,0.10302305,-0.1283378,-0.13344887,-0.017102707,-0.017102707,0.20148902,0.12383136,0.74636996,-0.03863007,0.021801071,0.017082045,-1.5760494,-0.0060493946
49,0.98,0.0,0.105000004,0.0,0.0,0.0,0.0,0.0,0.0,-1.0,0.0,0.15,0.0,-0.048587114,0.00055140257,-0.014902353,-0.0780446,0.0231933,-0.11586702,0.1892753,0.20487612,0.10302305,-0.017102707,-0.03863007,-0.0060493946,-0.8223477,-0.17937532,0.6708944,0.45300925,0.08503869,-0.48281863,0.87011755,0.3456097,0.30151975,-0.28185648,0.24027951,-0.26629612,-0.50862586,-0.5524308,0.08622563,0.7867363,0.34633085,0.19094089,-0.15311714,-0.19782354,0.47785836,-0.6530194,1.4885924,0.36659417,-0.21214919,-0.07916197,0.022904493,-0.029434081,0.09499289,-0.23804271,0.4137933,0.40662494,0.28462344,-0.13344887,0.12383136,0.017082045,-0.29687017,-0.23118673,-0.06635592,-0.06635592,-0.090440005,-0.08323531,0.7807939,-0.004206121,0.040135987,0.028323345,-1.5712254,-0.0012253523,0.049186144,-0.009220231,-0.06708752,-0.06708752,0.09835851,0.09526363,0.8105911,0.025591075,-0.26089084,-0.2430585,-1.6952218,-0.12522173,0.44963214,0.4249799,0.20655039,0.20655039,0.41935477,0.41050497,0.9964548,0.21145475,0.37104064,0.3029181,-1.4596982,0.11030185,-0.12597665,-0.13683116,-0.024099993,-0.024099993,0.22804125,0.148109,0.75454116,-0.030458868,0.029343734,0.020597706,-1.580586,-0.010585904
50,1.0,0.0,0.105000004,0.0,0.0,0.0,0.0,0.0,0.0,-1.0,0.0,0.15,0.0,-0.06635592,-0.004206121,-0.0012253523,-0.06708752,0.025591075,-0.12522173,0.20655039,0.21145475,0.11030185,-0.024099993,-0.030458868,-0.010585904,-0.8884403,-0.23787701,0.68385214,0.54785395,0.11988836,-0.46773723,0.8637551,0.32893136,0.36394143,-0.34986424,0.4085608,-0.22682413,-0.34357896,-0.47964567,-0.09573314,0.7257116,0.2927074,0.29294875,-0.33684462,-0.26370215,0.47654524,-0.53411734,1.4679332,0.44756812,-0.23118673,-0.08323531,0.028323345,-0.009220231,0.09526363,-0.2430585,0.4249799,0.41050497,0.3029181,-0.13683116,0.148109,0.020597706,-0.31818312,-0.24899484,-0.085096814,-0.085096814,-0.0878386,-0.0852331,0.7750451,-0.009954929,0.039254524,0.03087113,-1.5576991,0.012300968,0.06534383,0.007839162,-0.054406073,-0.054406073,0.099626616,0.09458248,0.8135634,0.02856338,-0.26528096,-0.24621618,-1.7040411,-0.13404107,0.449874,0.43080232,0.22324497,0.22324497,0.41974184,0.41241553,1.0025365,0.21753651,0.39243004,0.32027736,-1.4511886,0.11881149,-0.12548745,-0.14085756,-0.032229934,-0.032229934,0.25293308,0.17126472,0.76601875,-0.018981278,0.04115552,0.028797137,-1.5840961,-0.014096022
51,1.02,0.0,0.105000004,0.0,0.0,0.0,0.0,0.0,0.0,-1.0,0.0,0.15,0.0,-0.085096814,-0.009954929,0.012300968,-0.054406073,0.02856338,-0.13404107,0.22324497,0.21753651,0.11881149,-0.032229934,-0.018981278,-0.014096022,-0.9370447,-0.28743985,0.67631704,0.6340726,0.14861417,-0.44096845,0.8347286,0.3040896,0.42548335,-0.4064971,0.57387877,-0.17550775,-0.16188736,-0.37886596,-0.2880048,0.61617416,0.22533834,0.3954129,-0.5428652,-0.3333049,0.44849414,-0.407933,1.3868792,0.54366744,-0.24899484,-0.0852331,0.03087113,0.007839162,0.09458248,-0.24621618,0.43080232,0.41241553,0.32027736,-0.14085756,0.17126472,0.028797137,-0.3375839,-0.27500814,-0.10457769,-0.10457769,-0.08210854,-0.090037346,0.7684617,-0.016538322,0.03663241,0.038599737,-1.544625,0.025375009,0.08278845,0.0326312,-0.0400956,-0.0400956,0.10166857,0.097216204,0.8170285,0.032028496,-0.26999015,-0.25662854,-1.7122363,-0.14223623,0.44907787,0.44657448,0.23910616,0.23910616,0.42106065,0.41878256,1.0080535,0.22305351,0.41271526,0.349361,-1.4413166,0.12868345,-0.12826514,-0.1283378,-0.040975425,-0.040975425,0.27477986,0.20148902,0.7807537,-0.004246354,0.056859154,0.021801071,-1.5866308,-0.016630769
52,1.04,0.0,0.105000004,0.0,0.0,0.0,0.0,0.0,0.0,-1.0,0.0,0.15,0.0,-0.10457769,-0.016538322,0.025375009,-0.0400956,0.032028496,-0.14223623,0.23910616,0.22305351,0.12868345,-0.040975425,-0.004246354,-0.016630769,-0.9740441,-0.32916984,0.6536994,0.71552366,0.17325506,-0.40975714,0.7930598,0.2758528,0.49359953,-0.43727458,0.7367461,-0.12673794,-0.03980007,-0.29110068,-0.424052,0.5448173,0.17864652,0.4276302,-0.6496327,-0.3565219,0.4891526,-0.15245834,1.3114804,0.50386924,-0.27500814,-0.090037346,0.038599737,0.0326312,0.097216204,-0.25662854,0.44657448,0.41878256,0.349361,-0.1283378,0.20148902,0.021801071,-0.35372877,-0.29687017,-0.12448797,-0.12448797,-0.075495385,-0.090440005,0.76128966,-0.02371037,0.03177259,0.040135987,-1.5323746,0.037625432,0.10492355,0.049186144,-0.024430614,-0.024430614,0.10386127,0.09835851,0.8208692,0.03586918,-0.278763,-0.26089084,-1.7196443,-0.14964426,0.44721332,0.44963214,0.253717,0.253717,0.42053008,0.41935477,1.0128667,0.22786671,0.4388132,0.37104064,-1.4301194,0.13988066,-0.12417973,-0.12597665,-0.049988054,-0.049988054,0.3008011,0.22804125,0.7985364,0.013536394,0.0680599,0.029343734,-1.5880371,-0.01803708
53,1.06,0.0,0.105000004,0.0,0.0,0.0,0.0,0.0,0.0,-1.0,0.0,0.15,0.0,-0.12448797,-0.02371037,0.037625432,-0.024430614,0.03586918,-0.14964426,0.253717,0.22786671,0.13988066,-0.049988054,0.013536394,-0.01803708,-0.99551374,-0.35860205,0.6125233,0.7832494,0.19203351,-0.3704039,0.73054266,0.24065837,0.5598585,-0.4506315,0.88913596,-0.07031673,0.114602946,-0.16485333,-0.5871798,0.39275432,0.11694443,0.49238425,-0.8276863,-0.41135818,0.4503049,0.017311405,1.1631801,0.5585024,-0.29687017,-0.090440005,0.040135987,0.049186144,0.09835851,-0.26089084,0.44963214,0.41935477,0.37104064,-0.12597665,0.22804125,0.029343734,-0.3678301,-0.31818312,-0.14451005,-0.14451005,-0.067004986,-0.0878386,0.75382954,-0.031170487,0.027488373,0.039254524,-1.5213126,0.048687458,0.12749822,0.06534383,-0.0077215955,-0.0077215955,0.108311504,0.099626616,0.82496405,0.03996402,-0.28540868,-0.26528096,-1.7261379,-0.15613782,0.44513085,0.449874,0.26667637,0.26667637,0.4239446,0.41974184,1.0168633,0.23186332,0.45976156,0.39243004,-1.4176794,0.15232062,-0.12773974,-0.12548745,-0.058958232,-0.058958232,0.32007062,0.25293308,0.81904376,0.03404373,0.085906185,0.04115552,-1.5881375,-0.018137455
54,1.08,0.0,0.105000004,0.0,0.0,0.0,0.0,0.0,0.0,-1.0,0.0,0.15,0.0,-0.14451005,-0.031170487,0.048687458,-0.0077215955,0.03996402,-0.15613782,0.26667637,0.23186332,0.15232062,-0.058958232,0.03404373,-0.018137455,-1.0011038,-0.37300628,0.5531,0.83545095,0.20474248,-0.32467765,0.6479675,0.19983222,0.6220006,-0.448509,1.0253675,-0.005017109,0.26724762,-0.017478252,-0.7415139,0.22857065,0.05521772,0.53829634,-0.9918135,-0.4517943,0.39131027,0.16368666,0.96608174,0.6219524,-0.31818312,-0.0878386,0.039254524,0.06534383,0.099626616,-0.26528096,0.449874,0.41974184,0.39243004,-0.12548745,0.25293308,0.04115552,-0.3798334,-0.3375839,-0.16430804,-0.16430804,-0.057314336,-0.08210854,0.74642617,-0.03857386,0.024165131,0.03663241,-1.5117756,0.05822444,0.15136418,0.08278845,0.009723678,0.009723678,0.114337444,0.10166857,0.829202,0.04420197,-0.29223195,-0.26999015,-1.7316302,-0.16163015,0.44300786,0.44907787,0.27763936,0.27763936,0.42949268,0.42106065,1.0199775,0.23497742,0.47794077,0.41271526,-1.4041322,0.1658678,-0.13301116,-0.12826514,-0.06764548,-0.06764548,0.33567905,0.27477986,0.8418328,0.05683279,0.10568417,0.056859154,-1.5867426,-0.016742587
55,1.1,0.0,0.105000004,0.0,0.0,0.0,0.0,0.0,0.0,-1.0,0.0,0.15,0.0,-0.16430804,-0.03857386,0.05822444,0.009723678,0.04420197,-0.16163015,0.27763936,0.23497742,0.1658678,-0.06764548,0.05683279,-0.016742587,-0.98989964,-0.37017,0.4768509,0.8722637,0.21189779,-0.2746154,0.5481492,0.15570784,0.6773597,-0.4343625,1.139453,0.06974108,0.42320728,0.1453988,-0.8769581,0.07059689,0.00016834735,0.5634685,-1.1236813,-0.46900725,0.30915684,0.27338785,0.71918815,0.6878849,-0.3375839,-0.08210854,0.03663241,0.08278845,0.10166857,-0.26999015,0.44907787,0.42106065,0.41271526,-0.12826514,0.27477986,0.056859154,-0.3895856,-0.35372877,-0.18351793,-0.18351793,-0.046661854,-0.075495385,0.7394194,-0.045580626,0.02238927,0.03177259,-1.5040703,0.06592977,0.17526248,0.10492355,0.027664308,0.027664308,0.12152916,0.10386127,0.83347535,0.048475325,-0.2992664,-0.278763,-1.736136,-0.1661359,0.44118926,0.44721332,0.28632516,0.28632516,0.43709567,0.42053008,1.0221452,0.23714513,0.49158302,0.4388132,-1.3895491,0.18045092,-0.13993055,-0.12417973,-0.07572059,-0.07572059,0.3472579,0.3008011,0.8664766,0.08147657,0.12724862,0.0680599,-1.5837928,-0.013792753
56,1.12,0.0,0.105000004,0.0,0.0,0.0,0.0,0.0,0.0,-1.0,0.0,0.15,0.0,-0.18351793,-0.045580626,0.06592977,0.027664308,0.048475325,-0.1661359,0.28632516,0.23714513,0.18045092,-0.07572059,0.08147657,-0.013792753,-0.9604948,-0.35033962,0.38526735,0.8970315,0.21366872,-0.22528684,0.43428946,0.10838263,0.7291538,-0.4037554,1.2321888,0.1474901,0.58670413,0.3004969,-0.99332905,-0.051756285,-0.051549863,0.5407135,-1.2206408,-0.48427266,0.2587141,0.41996938,0.48668975,0.69141835,-0.35372877,-0.075495385,0.03177259,0.10492355,0.10386127,-0.278763,0.44721332,0.42053008,0.4388132,-0.12417973,0.3008011,0.0680599,-0.3940373,-0.3678301,-0.20178004,-0.20178004,-0.033232205,-0.067004986,0.73314947,-0.051850557,0.01922848,0.027488373,-1.4984201,0.07157993,0.19827561,0.12749822,0.04586262,0.04586262,0.12800269,0.108311504,0.8377168,0.05271679,-0.30849648,-0.28540868,-1.7396666,-0.16966653,0.43645456,0.44513085,0.29253635,0.29253635,0.44364992,0.4239446,1.0233989,0.23839885,0.5031058,0.45976156,-1.3741134,0.19588661,-0.14539374,-0.12773974,-0.08301272,-0.08301272,0.35625356,0.32007062,0.89240205,0.10740203,0.14930367,0.085906185,-1.5791746,-0.009174585
57,1.1400000000000001,0.0,0.105000004,0.0,0.0,0.0,0.0,0.0,0.0,-1.0,0.0,0.15,0.0,-0.20178004,-0.051850557,0.07157993,0.04586262,0.05271679,-0.16966653,0.29253635,0.23839885,0.19588661,-0.08301272,0.10740203,-0.009174585,-0.9131055,-0.31349766,0.28250712,0.9099156,0.212074,-0.17653203,0.3105594,0.06268697,0.77178395,-0.36460647,1.2962734,0.23090902,0.74239254,0.45031744,-1.0666248,-0.16877393,-0.08301339,0.5196606,-1.2748144,-0.45416838,0.1580152,0.48858887,0.19399591,0.718589,-0.3678301,-0.067004986,0.027488373,0.12749822,0.108311504,-0.28540868,0.44513085,0.4239446,0.45976156,-0.12773974,0.32007062,0.085906185,-0.39790416,-0.3798334,-0.21874942,-0.21874942,-0.019844458,-0.057314336,0.7279352,-0.05706483,0.01864136,0.024165131,-1.4949564,0.07504368,0.2214011,0.15136418,0.06410524,0.06410524,0.13538058,0.114337444,0.84188867,0.05688864,-0.31634608,-0.29223195,-1.7422671,-0.17226708,0.43421665,0.44300786,0.29616395,0.29616395,0.4531561,0.42949268,1.023833,0.23883301,0.5085509,0.47794077,-1.3580709,0.2119292,-0.1534383,-0.13301116,-0.08941202,-0.08941202,0.36126614,0.33567905,0.9189652,0.1339652,0.17162186,0.10568417,-1.5728028,-0.0028027296
58,1.16,0.0,0.105000004,0.0,0.0,0.0,0.0,0.0,0.0,-1.0,0.0,0.15,0.0,-0.21874942,-0.05706483,0.07504368,0.06410524,0.05688864,-0.17226708,0.29616395,0.23883301,0.2119292,-0.08941202,0.1339652,-0.0028027296,-0.8484689,-0.2607133,0.173186,0.912131,0.20859338,-0.13002461,0.18137956,0.021708634,0.8021288,-0.3199647,1.3281597,0.31859034,0.88555795,0.58487976,-1.0939705,-0.27083597,-0.09981538,0.48342928,-1.28525,-0.39624077,0.031594753,0.5264853,-0.12209053,0.7310227,-0.3798334,-0.057314336,0.024165131,0.15136418,0.114337444,-0.29223195,0.44300786,0.42949268,0.47794077,-0.13301116,0.33567905,0.10568417,-0.40028244,-0.3895856,-0.23410371,-0.23410371,-0.006403623,-0.046661854,0.72406113,-0.060938895,0.01832164,0.02238927,-1.493709,0.076291084,0.24451292,0.17526248,0.08218856,0.08218856,0.14338034,0.12152916,0.845976,0.06097597,-0.3232842,-0.2992664,-1.7440133,-0.17401326,0.43344083,0.44118926,0.29719195,0.29719195,0.46409038,0.43709567,1.0235964,0.23859638,0.509991,0.49158302,-1.3417468,0.22825325,-0.16289355,-0.13993055,-0.094869055,-0.094869055,0.36262393,0.3472579,0.9454695,0.16046947,0.19247368,0.12724862,-1.564624,0.0053761005
59,1.18,0.0,0.105000004,0.0,0.0,0.0,0.0,0.0,0.0,-1.0,0.0,0.15,0.0,-0.23410371,-0.060938895,0.076291084,0.08218856,0.06097597,-0.17401326,0.29719195,0.23859638,0.22825325,-0.094869055,0.16046947,0.0053761005,-0.76771486,-0.1937034,0.062368162,0.90416604,0.20436527,-0.08730912,0.051399678,-0.011833005,0.8162021,-0.27285168,1.3252138,0.408944,1.0128319,0.6985792,-1.072728,-0.36500016,-0.10556437,0.43373594,-1.251257,-0.31485948,-0.12748809,0.53488636,-0.45205468,0.7274986,-0.3895856,-0.046661854,0.02238927,0.17526248,0.12152916,-0.2992664,0.44118926,0.43709567,0.49158302,-0.13993055,0.3472579,0.12724862,-0.40105152,-0.3940373,-0.24750356,-0.24750356,0.006083522,-0.033232205,0.7217991,-0.06320095,0.01698313,0.01922848,-1.4946576,0.07534242,0.26753002,0.19827561,0.099910095,0.099910095,0.15111926,0.12800269,0.84995574,0.06495571,-0.3284929,-0.30849648,-1.7450397,-0.17503965,0.43428674,0.43645456,0.29564166,0.29564166,0.47630677,0.44364992,1.0228349,0.23783487,0.50771075,0.5031058,-1.3254933,0.24450672,-0.17414911,-0.14539374,-0.099343725,-0.099343725,0.36020172,0.35625356,0.9712136,0.18621355,0.21114646,0.14930367,-1.5546372,0.015362859
60,1.2,0.0,0.105000004,0.0,0.0,0.0,0.0,0.0,0.0,-1.0,0.0,0.15,0.0,-0.24750356,-0.06320095,0.07534242,0.099910095,0.06495571,-0.17503965,0.29564166,0.23783487,0.24450672,-0.099343725,0.18621355,0.015362859,-0.66999304,-0.113101766,-0.047433212,0.8860765,0.19898757,-0.051319636,-0.077513754,-0.038075652,0.8126715,-0.2237336,1.2872047,0.499338,1.142755,0.8019084,-1.0279343,-0.45539492,-0.11476402,0.3583224,-1.1998732,-0.23712102,-0.29359618,0.5382165,-0.7729912,0.6989547,-0.3940373,-0.033232205,0.01922848,0.19827561,0.12800269,-0.30849648,0.43645456,0.44364992,0.5031058,-0.14539374,0.35625356,0.14930367,-0.39764124,-0.39790416,-0.25867978,-0.25867978,0.018574772,-0.019844458,0.7213551,-0.063644946,0.013095833,0.01864136,-1.4976716,0.07232845,0.2889909,0.2214011,0.11709084,0.11709084,0.15864497,0.13538058,0.853824,0.06882399,-0.33263332,-0.31634608,-1.745475,-0.175475,0.434261,0.43421665,0.29165584,0.29165584,0.48850068,0.4531561,1.0217513,0.23675126,0.50130665,0.5085509,-1.30974,0.2602601,-0.18667091,-0.1534383,-0.10287067,-0.10287067,0.35353857,0.36126614,0.99549186,0.21049184,0.22894569,0.17162186,-1.5428954,0.027104616
61,1.22,0.0,0.105000004,0.0,0.0,0.0,0.0,0.0,0.0,-1.0,0.0,0.15,0.0,-0.25867978,-0.063644946,0.07232845,0.11709084,0.06882399,-0.175475,0.29165584,0.23675126,0.2602601,-0.10287067,0.21049184,0.027104616,-0.558811,-0.022200689,-0.15069623,0.8590374,0.19341356,-0.02176715,-0.19929141,-0.05418277,0.7876679,-0.17634761,1.2139157,0.587088,1.2350487,0.87066424,-0.9327753,-0.53176343,-0.114845656,0.28771424,-1.0931146,-0.13567984,-0.48958856,0.5065982,-1.0846981,0.64575654,-0.39790416,-0.019844458,0.01864136,0.2214011,0.13538058,-0.31634608,0.43421665,0.4531561,0.5085509,-0.1534383,0.36126614,0.17162186,-0.3918805,-0.40028244,-0.26742396,-0.26742396,0.028623614,-0.006403623,0.7228674,-0.062132597,0.0075229406,0.01832164,-1.5025562,0.06744385,0.30858326,0.24451292,0.13357785,0.13357785,0.16278744,0.14338034,0.8575906,0.07259059,-0.3345871,-0.3232842,-1.745446,-0.17544591,0.43569764,0.43344083,0.28547138,0.28547138,0.50037974,0.46409038,1.0205712,0.2355712,0.49205357,0.509991,-1.2949427,0.27505732,-0.200634,-0.16289355,-0.105535716,-0.105535716,0.3449428,0.36262393,1.0176225,0.23262244,0.24328686,0.19247368,-1.5295285,0.040471554
62,1.24,0.0,0.105000004,0.0,0.0,0.0,0.0,0.0,0.0,-1.0,0.0,0.15,0.0,-0.26742396,-0.062132597,0.06744385,0.13357785,0.07259059,-0.17544591,0.28547138,0.2355712,0.27505732,-0.105535716,0.23262244,0.040471554,-0.43720877,0.07561841,-0.24422954,0.82435054,0.18832871,0.0014538895,-0.3092235,-0.05900327,0.7398611,-0.133252,1.1065321,0.6683451,1.2951281,0.90508384,-0.81041276,-0.5933176,-0.108571514,0.2201345,-0.9454037,-0.026913922,-0.6909202,0.45204908,-1.3742337,0.5580718,-0.40028244,-0.006403623,0.01832164,0.24451292,0.14338034,-0.3232842,0.43344083,0.46409038,0.509991,-0.16289355,0.36262393,0.19247368,-0.38270193,-0.40105152,-0.27359018,-0.27359018,0.03655555,0.006083522,0.72638977,-0.05861026,0.0003587827,0.01698313,-1.509083,0.06091702,0.32566193,0.26753002,0.1492465,0.1492465,0.16413784,0.15111926,0.8612639,0.076263845,-0.33545616,-0.3284929,-1.74506,-0.17505991,0.43750903,0.43428674,0.27740964,0.27740964,0.51121026,0.47630677,1.0195328,0.23453277,0.48055342,0.50771075,-1.2815639,0.28843617,-0.21540977,-0.17414911,-0.10747675,-0.10747675,0.3353021,0.36020172,1.0369658,0.25196582,0.25539458,0.21114646,-1.5147467,0.055253386
63,1.26,0.0,0.105000004,0.0,0.0,0.0,0.0,0.0,0.0,-1.0,0.0,0.15,0.0,-0.27359018,-0.05861026,0.06091702,0.1492465,0.076263845,-0.17505991,0.27740964,0.23453277,0.28843617,-0.10747675,0.25196582,0.055253386,-0.30831122,0.17611644,-0.3263418,0.7834325,0.18366271,0.019300353,-0.40308714,-0.0519216,0.66894484,-0.09705154,0.96717095,0.73909044,1.3231863,0.8983739,-0.6756371,-0.63942003,-0.10309901,0.16336541,-0.7627167,0.083890796,-0.8877657,0.37496084,-1.6334248,0.43557143,-0.40105152,0.006083522,0.01698313,0.26753002,0.15111926,-0.3284929,0.43428674,0.47630677,0.50771075,-0.17414911,0.36020172,0.21114646,-0.36972314,-0.39764124,-0.27705547,-0.27705547,0.04252775,0.018574772,0.7319087,-0.053091347,-0.007131256,0.013095833,-1.5170233,0.052976727,0.33927512,0.2889909,0.16397968,0.16397968,0.16278909,0.15864497,0.86485136,0.07985133,-0.33692318,-0.33263332,-1.7444135,-0.17441344,0.44011572,0.434261,0.26782206,0.26782206,0.52098143,0.48850068,1.0188572,0.23385721,0.46744487,0.50130665,-1.2700629,0.29993713,-0.22999202,-0.18667091,-0.108868204,-0.108868204,0.3255185,0.35353857,1.0529358,0.2679358,0.26646438,0.22894569,-1.498809,0.07119107
64,1.28,0.0,0.105000004,0.0,0.0,0.0,0.0,0.0,0.0,-1.0,0.0,0.15,0.0,-0.27705547,-0.053091347,0.052976727,0.16397968,0.07985133,-0.17441344,0.26782206,0.23385721,0.29993713,-0.108868204,0.2679358,0.07119107,-0.17326437,0.2759468,-0.39701527,0.73665917,0.17937346,0.03232459,-0.47937942,-0.033777386,0.5750451,-0.069572896,0.79849803,0.7968871,1.3383898,0.86008584,-0.5443531,-0.68007714,-0.09814773,0.11338673,-0.5713752,0.18317898,-1.0760624,0.28331038,-1.857913,0.29406515,-0.39764124,0.018574772,0.013095833,0.2889909,0.15864497,-0.33263332,0.434261,0.48850068,0.50130665,-0.18667091,0.35353857,0.22894569,-0.35343236,-0.3918805,-0.2777518,-0.2777518,0.046934895,0.028623614,0.7393086,-0.04569143,-0.0142643675,0.0075229406,-1.5261415,0.043858528,0.34902892,0.30858326,0.17766619,0.17766619,0.15967697,0.16278744,0.8683088,0.08330876,-0.33938524,-0.3345871,-1.7435715,-0.17357147,0.44339594,0.43569764,0.2571147,0.2571147,0.5298061,0.50037974,1.0187382,0.23373812,0.45153087,0.49205357,-1.2608622,0.30913782,-0.2442916,-0.200634,-0.10991645,-0.10991645,0.3149957,0.3449428,1.0650524,0.28005236,0.2779158,0.24328686,-1.4820536,0.087946415
65,1.3,0.0,0.105000004,0.0,0.0,0.0,0.0,0.0,0.0,-1.0,0.0,0.15,0.0,-0.2777518,-0.04569143,0.043858528,0.17766619,0.08330876,-0.17357147,0.2571147,0.23373812,0.30913782,-0.10991645,0.28005236,0.087946415,-0.034816816,0.36999446,-0.455909,0.68432534,0.1728726,0.04210019,-0.5353676,-0.0059563145,0.46003628,-0.052412327,0.6058301,0.8377665,1.3263931,0.77505434,-0.4135994,-0.7161556,-0.117076896,0.079396605,-0.36057037,0.2662056,-1.2397952,0.17979732,-2.0242105,0.12026887,-0.3918805,0.028623614,0.0075229406,0.30858326,0.16278744,-0.3345871,0.43569764,0.50037974,0.49205357,-0.200634,0.3449428,0.24328686,-0.3354265,-0.38270193,-0.2756485,-0.2756485,0.051114954,0.03655555,0.7483855,-0.036614537,-0.022166409,0.0003587827,-1.5362015,0.033798575,0.3555202,0.32566193,0.19019364,0.19019364,0.15516812,0.16413784,0.87155366,0.08655363,-0.34323794,-0.33545616,-1.7425846,-0.17258453,0.44564208,0.43750903,0.2457152,0.2457152,0.53650624,0.51121026,1.0193248,0.23432475,0.4366225,0.48055342,-1.2543252,0.3156749,-0.25713396,-0.21540977,-0.11084151,-0.11084151,0.30683553,0.3353021,1.0729663,0.2879663,0.2881572,0.25539458,-1.464864,0.10513604
66,1.32,0.0,0.105000004,0.0,0.0,0.0,0.0,0.0,0.0,-1.0,0.0,0.15,0.0,-0.2756485,-0.036614537,0.033798575,0.19019364,0.08655363,-0.17258453,0.2457152,0.23432475,0.3156749,-0.11084151,0.2879663,0.10513604,0.10516536,0.45384544,-0.50300014,0.6263727,0.16224523,0.04934462,-0.56997555,0.02932876,0.32685667,-0.04625321,0.3956965,0.85947967,1.296178,0.65135413,-0.28640658,-0.75098914,-0.15287802,0.053031165,-0.1463832,0.32582214,-1.3697996,0.07331264,-2.1228924,-0.06875887,-0.38270193,0.03655555,0.0003587827,0.32566193,0.16413784,-0.33545616,0.43750903,0.51121026,0.48055342,-0.21540977,0.3353021,0.25539458,-0.31738633,-0.36972314,-0.2707452,-0.2707452,0.055651575,0.04252775,0.75886065,-0.026139379,-0.03069438,-0.007131256,-1.5469542,0.023045897,0.35921144,0.33927512,0.20143692,0.20143692,0.14974149,0.16278909,0.87447125,0.08947122,-0.34799293,-0.33692318,-1.7415152,-0.1715151,0.44660965,0.44011572,0.23406462,0.23406462,0.54055023,0.52098143,1.0207193,0.23571926,0.42284897,0.46744487,-1.2507373,0.31926274,-0.26888186,-0.22999202,-0.111853264,-0.111853264,0.3010949,0.3255185,1.0764779,0.29147786,0.29649785,0.26646438,-1.4476348,0.12236524
67,1.34,0.0,0.105000004,0.0,0.0,0.0,0.0,0.0,0.0,-1.0,0.0,0.15,0.0,-0.2707452,-0.026139379,0.023045897,0.20143692,0.08947122,-0.1715151,0.23406462,0.23571926,0.31926274,-0.111853264,0.29147786,0.12236524,0.24516618,0.52375865,-0.53763294,0.5621643,0.14587843,0.053474147,-0.58252853,0.06972786,0.17938992,-0.050587744,0.17558035,0.8614596,1.2515547,0.49657306,-0.1569686,-0.78987193,-0.20216589,0.022119662,0.067156054,0.3614793,-1.4583397,-0.024990037,-2.1472878,-0.2568578,-0.36972314,0.04252775,-0.007131256,0.33927512,0.16278909,-0.33692318,0.44011572,0.52098143,0.46744487,-0.22999202,0.3255185,0.26646438,-0.30031252,-0.35343236,-0.2630781,-0.2630781,0.060119394,0.046934895,0.77039945,-0.014600575,-0.03992006,-0.0142643675,-1.5581349,0.011865139,0.3606512,0.34902892,0.21125652,0.21125652,0.14323995,0.15967697,0.8769347,0.09193468,-0.35326517,-0.33938524,-1.7404408,-0.1704408,0.44717517,0.44339594,0.22260085,0.22260085,0.5421092,0.5298061,1.022978,0.23797792,0.4109723,0.45153087,-1.2503208,0.31967926,-0.27934983,-0.2442916,-0.113143794,-0.113143794,0.2977242,0.3149957,1.0755266,0.29052657,0.30187753,0.2779158,-1.4307361,0.13926399
68,1.36,0.0,0.105000004,0.0,0.0,0.0,0.0,0.0,0.0,-1.0,0.0,0.15,0.0,-0.2630781,-0.014600575,0.011865139,0.21125652,0.09193468,-0.1704408,0.22260085,0.23797792,0.31967926,-0.113143794,0.29052657,0.13926399,0.3833543,0.5769416,-0.5590362,0.49098015,0.12317209,0.053716395,-0.5731887,0.11293545,0.02082479,-0.06452642,-0.047566712,0.8449348,1.1901134,0.32061714,-0.024438882,-0.83336306,-0.25512567,-0.014887678,0.27214834,0.37433368,-1.5130332,-0.111768916,-2.1046767,-0.42736548,-0.35343236,0.046934895,-0.0142643675,0.34902892,0.15967697,-0.33938524,0.44339594,0.5298061,0.45153087,-0.2442916,0.3149957,0.2779158,-0.2846824,-0.3354265,-0.25274268,-0.25274268,0.06349152,0.051114954,0.7826464,-0.0023536086,-0.04857555,-0.022166409,-1.5694909,0.0005091429,0.36001474,0.3555202,0.21951325,0.21951325,0.13549855,0.15516812,0.87881577,0.093815744,-0.35820565,-0.34323794,-1.739458,-0.16945791,0.44837204,0.44564208,0.21171731,0.21171731,0.5421228,0.53650624,1.0260925,0.2410925,0.3999331,0.4366225,-1.253169,0.3168311,-0.28876725,-0.25713396,-0.114863336,-0.114863336,0.2958765,0.30683553,1.0702354,0.28523535,0.30428395,0.2881572,-1.4145283,0.1554718
69,1.3800000000000001,0.0,0.105000004,0.0,0.0,0.0,0.0,0.0,0.0,-1.0,0.0,0.15,0.0,-0.25274268,-0.0023536086,0.0005091429,0.21951325,0.093815744,-0.16945791,0.21171731,0.2410925,0.3168311,-0.114863336,0.28523535,0.1554718,0.51677036,0.61234736,-0.5678018,0.41283685,0.09405254,0.049145542,-0.544177,0.15572904,-0.14240536,-0.0859772,-0.26456246,0.8103915,1.1020856,0.14040339,0.09842267,-0.874469,-0.30673277,-0.059149187,0.44974822,0.35670578,-1.5051161,-0.17626971,-1.9768,-0.5874868,-0.3354265,0.051114954,-0.022166409,0.3555202,0.15516812,-0.34323794,0.44564208,0.53650624,0.4366225,-0.25713396,0.30683553,0.2881572,-0.27086735,-0.31738633,-0.23991446,-0.23991446,0.066422515,0.055651575,0.7952468,0.010246754,-0.05588944,-0.03069438,-1.5807866,-0.010786533,0.35679752,0.35921144,0.2260801,0.2260801,0.12678346,0.14974149,0.87999654,0.09499651,-0.36279052,-0.34799293,-1.7386694,-0.16866934,0.4496859,0.44660965,0.20174874,0.20174874,0.54047936,0.54055023,1.0299852,0.24498516,0.39202267,0.42284897,-1.2592477,0.3107524,-0.29586676,-0.26888186,-0.11712339,-0.11712339,0.29558676,0.3010949,1.0608987,0.27589864,0.30207157,0.29649785,-1.399362,0.17063808
70,1.4000000000000001,0.0,0.105000004,0.0,0.0,0.0,0.0,0.0,0.0,-1.0,0.0,0.15,0.0,-0.23991446,0.010246754,-0.010786533,0.2260801,0.09499651,-0.16866934,0.20174874,0.24498516,0.3107524,-0.11712339,0.27589864,0.17063808,0.64141107,0.630017,-0.5647819,0.32834297,0.059037946,0.039426606,-0.49842814,0.19463485,-0.3039357,-0.11300249,-0.46683496,0.75831527,0.9788352,-0.033744194,0.20941961,-0.9077616,-0.35153094,-0.10494699,0.5941113,0.30732277,-1.437279,-0.22057942,-1.7722015,-0.73738444,-0.31738633,0.055651575,-0.03069438,0.35921144,0.14974149,-0.34799293,0.44660965,0.54055023,0.42284897,-0.26888186,0.3010949,0.29649785,-0.25866187,-0.30031252,-0.2248554,-0.2248554,0.06872365,0.060119394,0.80785114,0.02285111,-0.061440356,-0.03992006,-1.591811,-0.02181089,0.35083967,0.3606512,0.23085448,0.23085448,0.117213815,0.14323995,0.8803702,0.09537017,-0.36679226,-0.35326517,-1.7381752,-0.1681751,0.4513614,0.44717517,0.19297746,0.19297746,0.53798544,0.5421092,1.0345175,0.2495175,0.3872177,0.4109723,-1.268391,0.30160904,-0.3004821,-0.27934983,-0.119992085,-0.119992085,0.29636705,0.2977242,1.0479636,0.2629636,0.2952219,0.30187753,-1.3855844,0.1844157
71,1.42,0.0,0.105000004,0.0,0.0,0.0,0.0,0.0,0.0,-1.0,0.0,0.15,0.0,-0.2248554,0.02285111,-0.02181089,0.23085448,0.09537017,-0.1681751,0.19297746,0.2495175,0.30160904,-0.119992085,0.2629636,0.1844157,0.75295365,0.63021684,-0.5512204,0.23871863,0.018683609,0.024714187,-0.43856457,0.22661415,-0.45716488,-0.14343481,-0.6467517,0.68888056,0.8187094,-0.19977105,0.3052237,-0.92782146,-0.38934478,-0.14767584,0.70904434,0.23128597,-1.3093834,-0.2432079,-1.5022485,-0.88007146,-0.30031252,0.060119394,-0.03992006,0.3606512,0.14323995,-0.35326517,0.44717517,0.5421092,0.4109723,-0.27934983,0.2977242,0.30187753,-0.24795403,-0.2846824,-0.20790882,-0.20790882,0.07000565,0.06349152,0.8201099,0.035109878,-0.06489939,-0.04857555,-1.6023633,-0.032363296,0.34209222,0.36001474,0.23376302,0.23376302,0.1070835,0.13549855,0.8798413,0.0948413,-0.36998773,-0.35820565,-1.7380552,-0.16805518,0.45337144,0.44837204,0.1856434,0.1856434,0.5350924,0.5421228,1.0395126,0.2545126,0.3856018,0.3999331,-1.2803297,0.28967035,-0.3022578,-0.28876725,-0.12349787,-0.12349787,0.29823768,0.2958765,1.0319946,0.24699455,0.28367698,0.30428395,-1.3735284,0.19647169
72,1.44,0.0,0.105000004,0.0,0.0,0.0,0.0,0.0,0.0,-1.0,0.0,0.15,0.0,-0.20790882,0.035109878,-0.032363296,0.23376302,0.0948413,-0.16805518,0.1856434,0.2545126,0.28967035,-0.12349787,0.24699455,0.19647169,0.84732866,0.6129374,-0.52762246,0.14542732,-0.026444029,0.005994195,-0.36670265,0.24975362,-0.5969346,-0.17528953,-0.79845464,0.6027985,0.62541765,-0.36029503,0.39301884,-0.9328041,-0.4202506,-0.17975873,0.8000332,0.13990323,-1.1367935,-0.24652724,-1.1856735,-1.0106754,-0.2846824,0.06349152,-0.04857555,0.36001474,0.13549855,-0.35820565,0.44837204,0.5421228,0.3999331,-0.28876725,0.2958765,0.30428395,-0.23829736,-0.27086735,-0.18949038,-0.18949038,0.06950574,0.066422515,0.83169496,0.046694934,-0.06602444,-0.05588944,-1.6122468,-0.0422467,0.3308829,0.35679752,0.23475449,0.23475449,0.09620769,0.12678346,0.8783325,0.09333247,-0.3725378,-0.36279052,-1.7383683,-0.16836822,0.45606467,0.4496859,0.17993043,0.17993043,0.5316183,0.54047936,1.0447612,0.25976115,0.3862999,0.39202267,-1.2946686,0.2753315,-0.30085763,-0.29586676,-0.12761031,-0.12761031,0.301314,0.29558676,1.0136495,0.22864944,0.2675654,0.30207157,-1.3635291,0.20647097
73,1.46,0.0,0.105000004,0.0,0.0,0.0,0.0,0.0,0.0,-1.0,0.0,0.15,0.0,-0.18949038,0.046694934,-0.0422467,0.23475449,0.09333247,-0.16836822,0.17993043,0.25976115,0.2753315,-0.12761031,0.22864944,0.20647097,0.92092246,0.57925266,-0.49417156,0.04957313,-0.075441115,-0.015649699,-0.28564826,0.2624292,-0.71694237,-0.20562185,-0.91725385,0.49996114,0.40444604,-0.50536555,0.475918,-0.9264782,-0.44133106,-0.2006083,0.86142445,0.036441337,-0.91065186,-0.22235815,-0.83507043,-1.1369435,-0.27086735,0.066422515,-0.05588944,0.35679752,0.12678346,-0.36279052,0.4496859,0.54047936,0.39202267,-0.29586676,0.29558676,0.30207157,-0.22858478,-0.25866187,-0.17006776,-0.17006776,0.06730776,0.06872365,0.8423061,0.05730605,-0.065562084,-0.061440356,-1.6212672,-0.051267147,0.31774586,0.35083967,0.23379767,0.23379767,0.08533801,0.117213815,0.8757879,0.09078789,-0.37580025,-0.36679226,-1.7391465,-0.16914642,0.4596453,0.4513614,0.17596713,0.17596713,0.5264535,0.53798544,1.0500427,0.26504272,0.39051777,0.3872177,-1.3109056,0.25909448,-0.29526868,-0.3004821,-0.13224131,-0.13224131,0.30582166,0.29636705,0.99364674,0.20864671,0.24581714,0.2952219,-1.3559134,0.21408665
74,1.48,0.0,0.105000004,0.0,0.0,0.0,0.0,0.0,0.0,-1.0,0.0,0.15,0.0,-0.17006776,0.05730605,-0.051267147,0.23379767,0.09078789,-0.16914642,0.17596713,0.26504272,0.25909448,-0.13224131,0.20864671,0.21408665,0.97113144,0.5305571,-0.45102063,-0.04784096,-0.12722993,-0.03891182,-0.19816542,0.26407826,-0.81185144,-0.23154993,-1.0001366,0.380787,0.16622348,-0.6323859,0.5542609,-0.9101249,-0.4512805,-0.20853901,0.8944998,-0.06883913,-0.64184386,-0.17222086,-0.46734276,-1.2540054,-0.25866187,0.06872365,-0.061440356,0.35083967,0.117213815,-0.36679226,0.4513614,0.53798544,0.3872177,-0.3004821,0.29636705,0.2952219,-0.21969397,-0.24795403,-0.15014136,-0.15014136,0.0628659,0.07000565,0.85167295,0.06667292,-0.06283267,-0.06489939,-1.6292344,-0.05923438,0.3040368,0.34209222,0.23088065,0.23088065,0.076710135,0.1070835,0.8721787,0.08717865,-0.3797338,-0.36998773,-1.7403929,-0.17039287,0.46422222,0.45337144,0.17382498,0.17382498,0.5189645,0.5350924,1.0551404,0.27014035,0.39705914,0.3856018,-1.3284521,0.24154794,-0.2864278,-0.3022578,-0.13724516,-0.13724516,0.3113848,0.29823768,0.9727393,0.18773925,0.22016019,0.28367698,-1.3509904,0.21900964
75,1.5,0.0,0.105000004,0.0,0.0,0.0,0.0,0.0,0.0,-1.0,0.0,0.15,0.0,-0.15014136,0.06667292,-0.05923438,0.23088065,0.08717865,-0.17039287,0.17382498,0.27014035,0.24154794,-0.13724516,0.18773925,0.21900964,0.99632007,0.4683441,-0.3983617,-0.1458514,-0.1804623,-0.06232214,-0.10710739,0.25487998,-0.87732863,-0.25019258,-1.0453744,0.2461505,-0.07953048,-0.74089354,0.6277354,-0.88442695,-0.44795972,-0.2024548,0.8993255,-0.1689458,-0.34128866,-0.09704354,-0.0952394,-1.3578146,-0.24795403,0.07000565,-0.06489939,0.34209222,0.1070835,-0.36998773,0.45337144,0.5350924,0.3856018,-0.3022578,0.29823768,0.28367698,-0.21103226,-0.23829736,-0.13021952,-0.13021952,0.055310577,0.06950574,0.85955006,0.07455003,-0.058479004,-0.06602444,-1.6359642,-0.0659641,0.2917177,0.3308829,0.22601542,0.22601542,0.07308076,0.09620769,0.8674995,0.082499444,-0.38353363,-0.3725378,-1.7420851,-0.17208505,0.4692621,0.45606467,0.17352457,0.17352457,0.5094248,0.5316183,1.0598445,0.27484447,0.40486988,0.3862999,-1.3466702,0.2233299,-0.27492657,-0.30085763,-0.1424207,-0.1424207,0.31766337,0.301314,0.95169055,0.16669053,0.19337349,0.2675654,-1.3490409,0.22095919
76,1.52,0.0,0.105000004,0.0,0.0,0.0,0.0,0.0,0.0,-1.0,0.0,0.15,0.0,-0.13021952,0.07455003,-0.0659641,0.22601542,0.082499444,-0.17208505,0.17352457,0.27484447,0.2233299,-0.1424207,0.16669053,0.22095919,0.9960924,0.39385477,-0.33648825,-0.24326155,-0.23395884,-0.08460772,-0.015020259,0.23520601,-0.91089904,-0.25877678,-1.0524373,0.09747994,-0.32091278,-0.83368236,0.69547343,-0.84755266,-0.4333498,-0.1846382,0.87963426,-0.2621686,-0.027430106,0.0012584329,0.26968217,-1.4435631,-0.23829736,0.06950574,-0.06602444,0.3308829,0.09620769,-0.3725378,0.45606467,0.5316183,0.3862999,-0.30085763,0.301314,0.2675654,-0.2028474,-0.22858478,-0.1107841,-0.1107841,0.04397223,0.06730776,0.8657246,0.0807246,-0.052626424,-0.065562084,-1.6412956,-0.0712955,0.2810891,0.31774586,0.2192449,0.2192449,0.07452193,0.08533801,0.8617797,0.07677966,-0.386087,-0.37580025,-1.7441987,-0.17419863,0.4741933,0.4596453,0.17504072,0.17504072,0.4983991,0.5264535,1.0639416,0.27894157,0.41309997,0.39051777,-1.3648756,0.2051245,-0.26150453,-0.29526868,-0.14750428,-0.14750428,0.32406205,0.30582166,0.9312533,0.14625329,0.1673062,0.24581714,-1.3503264,0.21967363
77,1.54,0.0,0.105000004,0.0,0.0,0.0,0.0,0.0,0.0,-1.0,0.0,0.15,0.0,-0.1107841,0.0807246,-0.0712955,0.2192449,0.07677966,-0.17419863,0.17504072,0.27894157,0.2051245,-0.14750428,0.14625329,0.21967363,0.9717712,0.30872816,-0.26657087,-0.33852643,-0.2859896,-0.10568155,0.07580767,0.20485745,-0.9102678,-0.25417978,-1.021863,-0.06427501,-0.54201823,-0.907496,0.7495173,-0.7966882,-0.40277585,-0.16638415,0.838607,-0.35386497,0.2972836,0.12500897,0.61745214,-1.5161031,-0.22858478,0.06730776,-0.065562084,0.31774586,0.08533801,-0.37580025,0.4596453,0.5264535,0.39051777,-0.29526868,0.30582166,0.24581714,-0.19455956,-0.21969397,-0.09229046,-0.09229046,0.028758451,0.0628659,0.8700131,0.08501309,-0.046979837,-0.06283267,-1.6450843,-0.07508421,0.27133974,0.3040368,0.21066165,0.21066165,0.08043015,0.076710135,0.8551163,0.07011628,-0.38733512,-0.3797338,-1.746708,-0.17670798,0.4781979,0.46422222,0.17830732,0.17830732,0.48671523,0.5189645,1.0672112,0.28221112,0.42162028,0.39705914,-1.3823817,0.18761837,-0.24569274,-0.2864278,-0.1521964,-0.1521964,0.33000702,0.3113848,0.91213995,0.12713993,0.14322308,0.22016019,-1.3550546,0.21494544
78,1.56,0.0,0.105000004,0.0,0.0,0.0,0.0,0.0,0.0,-1.0,0.0,0.15,0.0,-0.09229046,0.08501309,-0.07508421,0.21066165,0.07011628,-0.17670798,0.17830732,0.28221112,0.18761837,-0.1521964,0.12713993,0.21494544,0.924682,0.21442509,-0.1894356,-0.4291625,-0.33316952,-0.1254667,0.1633299,0.1634796,-0.87530625,-0.23460618,-0.95566726,-0.23641087,-0.7432454,-0.9644952,0.7934044,-0.7237108,-0.3415949,-0.14780933,0.77919567,-0.44540253,0.61223274,0.26102322,0.9346732,-1.5596396,-0.21969397,0.0628659,-0.06283267,0.3040368,0.076710135,-0.3797338,0.46422222,0.5189645,0.39705914,-0.2864278,0.3113848,0.22016019,-0.1869985,-0.21103226,-0.07514472,-0.07514472,0.009065874,0.055310577,0.87225175,0.08725172,-0.042452194,-0.058479004,-1.6472166,-0.077216506,0.26064628,0.2917177,0.20043388,0.20043388,0.08998476,0.07308076,0.8477117,0.062711656,-0.38740185,-0.38353363,-1.7495738,-0.17957377,0.4820811,0.4692621,0.18321295,0.18321295,0.47625685,0.5094248,1.0694373,0.28443724,0.43048272,0.40486988,-1.3985384,0.1714617,-0.22830123,-0.27492657,-0.15618247,-0.15618247,0.33547443,0.31766337,0.8949964,0.10999638,0.12253838,0.19337349,-1.3633307,0.20666933
79,1.58,0.0,0.105000004,0.0,0.0,0.0,0.0,0.0,0.0,-1.0,0.0,0.15,0.0,-0.07514472,0.08725172,-0.077216506,0.20043388,0.062711656,-0.17957377,0.18321295,0.28443724,0.1714617,-0.15618247,0.10999638,0.20666933,0.8572869,0.111931376,-0.10661235,-0.51138884,-0.37023246,-0.14328757,0.24528135,0.111307666,-0.8078345,-0.19930288,-0.85717714,-0.41380426,-0.9145859,-1.0095084,0.82093775,-0.617506,-0.23362403,-0.123445556,0.7000488,-0.53125125,0.89948845,0.39915833,1.2099531,-1.5528196,-0.21103226,0.055310577,-0.058479004,0.2917177,0.07308076,-0.38353363,0.4692621,0.5094248,0.40486988,-0.27492657,0.31766337,0.19337349,-0.1832077,-0.2028474,-0.0596972,-0.0596972,-0.013473734,0.04397223,0.87228996,0.08728993,-0.038547494,-0.052626424,-1.6476133,-0.077613235,0.24857321,0.2810891,0.18880104,0.18880104,0.10136978,0.07452193,0.8398628,0.054862797,-0.38581386,-0.386087,-1.7527273,-0.18272722,0.48483488,0.4741933,0.18959758,0.18959758,0.46790653,0.4983991,1.0704246,0.28542453,0.43869257,0.41309997,-1.4127644,0.15723562,-0.21037845,-0.26150453,-0.15915546,-0.15915546,0.34058654,0.32406205,0.88037515,0.09537512,0.10688273,0.1673062,-1.3751296,0.19487047
80,1.6,0.0,0.105000004,0.0,0.0,0.0,0.0,0.0,0.0,-1.0,0.0,0.15,0.0,-0.0596972,0.08728993,-0.077613235,0.18880104,0.054862797,-0.18272722,0.18959758,0.28542453,0.15723562,-0.15915546,0.09537512,0.19487047,0.7723762,0.001909852,-0.019836418,-0.5816423,-0.39244196,-0.1576747,0.3192312,0.049362008,-0.7113015,-0.14864942,-0.7310629,-0.58994,-1.0538121,-1.0458157,0.830719,-0.48128262,-0.08540858,-0.08622269,0.6003696,-0.60428035,1.1446807,0.5287758,1.4320254,-1.484508,-0.2028474,0.04397223,-0.052626424,0.2810891,0.07452193,-0.386087,0.4741933,0.4983991,0.41309997,-0.26150453,0.32406205,0.1673062,-0.18443023,-0.19455956,-0.046224695,-0.046224695,-0.036140084,0.028758451,0.8699931,0.084993064,-0.035475947,-0.046979837,-1.6462582,-0.07625818,0.23648694,0.27133974,0.17604963,0.17604963,0.113455236,0.08043015,0.8319377,0.046937644,-0.38189882,-0.38733512,-1.7560732,-0.18607318,0.48551676,0.4781979,0.19724701,0.19724701,0.46087497,0.48671523,1.0700163,0.28501624,0.44576454,0.42162028,-1.4245647,0.14543533,-0.19369996,-0.24569274,-0.1608179,-0.1608179,0.34550148,0.33000702,0.8687131,0.083713055,0.09565028,0.14322308,-1.3902828,0.1797173
81,1.62,0.0,0.105000004,0.0,0.0,0.0,0.0,0.0,0.0,-1.0,0.0,0.15,0.0,-0.046224695,0.084993064,-0.07625818,0.17604963,0.046937644,-0.18607318,0.19724701,0.28501624,0.14543533,-0.1608179,0.083713055,0.1797173,0.67362523,-0.114842795,0.06775265,-0.6375701,-0.3962562,-0.16729547,0.38247186,-0.020413179,-0.59001714,-0.08312242,-0.5831044,-0.75765735,-1.1536939,-1.0724003,0.8104154,-0.32729116,0.09056699,-0.037861817,0.47839507,-0.65633166,1.3410062,0.6491057,1.592199,-1.3508638,-0.19455956,0.028758451,-0.046979837,0.27133974,0.08043015,-0.38733512,0.4781979,0.48671523,0.42162028,-0.24569274,0.33000702,0.14322308,-0.19074006,-0.1869985,-0.0349386,-0.0349386,-0.057262048,0.009065874,0.86523634,0.080236316,-0.033063263,-0.042452194,-1.6432099,-0.07320988,0.22514467,0.26064628,0.16247256,0.16247256,0.12544832,0.08998476,0.82434654,0.039346516,-0.3755975,-0.38740185,-1.759496,-0.18949592,0.48404953,0.4820811,0.20591538,0.20591538,0.4550679,0.47625685,1.068128,0.28312796,0.451139,0.43048272,-1.4335413,0.13645875,-0.1790668,-0.22830123,-0.16090389,-0.16090389,0.35018188,0.33547443,0.8603229,0.07532287,0.0882254,0.12253838,-1.4084686,0.16153145
82,1.6400000000000001,0.0,0.105000004,0.0,0.0,0.0,0.0,0.0,0.0,-1.0,0.0,0.15,0.0,-0.0349386,0.080236316,-0.07320988,0.16247256,0.039346516,-0.18949592,0.20591538,0.28312796,0.13645875,-0.16090389,0.07532287,0.16153145,0.5643047,-0.23783687,0.15241644,-0.678854,-0.37955582,-0.17113505,0.43341792,-0.09441292,-0.44882673,-0.0042986274,-0.41951054,-0.9092915,-1.2191228,-1.0923357,0.7555331,-0.17496371,0.28011185,0.018287713,0.3452937,-0.6727852,1.4849343,0.75020164,1.6883844,-1.1495508,-0.1869985,0.009065874,-0.042452194,0.26064628,0.08998476,-0.38740185,0.4820811,0.47625685,0.43048272,-0.22830123,0.33547443,0.12253838,-0.20130621,-0.1832077,-0.026030099,-0.026030099,-0.07621813,-0.013473734,0.8579343,0.07293427,-0.031169437,-0.038547494,-1.6385881,-0.06858802,0.21533802,0.24857321,0.14835238,0.14835238,0.13611405,0.10136978,0.8174978,0.032497764,-0.3673283,-0.38581386,-1.7628567,-0.19285667,0.48177055,0.48483488,0.21531838,0.21531838,0.45141265,0.46790653,1.0647606,0.27976054,0.4555039,0.43869257,-1.4394166,0.1305834,-0.16662319,-0.21037845,-0.1592027,-0.1592027,0.35464025,0.34058654,0.85539126,0.07039124,0.084227465,0.10688273,-1.429204,0.14079607
83,1.6600000000000001,0.0,0.105000004,0.0,0.0,0.0,0.0,0.0,0.0,-1.0,0.0,0.15,0.0,-0.026030099,0.07293427,-0.06858802,0.14835238,0.032497764,-0.19285667,0.21531838,0.27976054,0.1305834,-0.1592027,0.07039124,0.14079607,0.44542506,-0.3651021,0.2310934,-0.7060088,-0.34243667,-0.16803598,0.47015032,-0.16837174,-0.29376537,0.085059755,-0.24658236,-1.036771,-1.2718925,-1.0921873,0.67348146,-0.032048035,0.46221203,0.08321309,0.19850977,-0.64873,1.5670887,0.8216856,1.7217238,-0.87928903,-0.1832077,-0.013473734,-0.038547494,0.24857321,0.10136978,-0.38581386,0.48483488,0.46790653,0.43869257,-0.21037845,0.34058654,0.10688273,-0.21431778,-0.18443023,-0.019684942,-0.019684942,-0.09280474,-0.036140084,0.8480852,0.0630852,-0.029865697,-0.035475947,-1.6325701,-0.062570095,0.20663205,0.23648694,0.13397473,0.13397473,0.14566542,0.113455236,0.81176686,0.026766837,-0.35811603,-0.38189882,-1.7659883,-0.1959883,0.4806789,0.48551676,0.22512932,0.22512932,0.45114526,0.46087497,1.0599831,0.2749831,0.45971516,0.44576454,-1.4420446,0.12795544,-0.15630929,-0.19369996,-0.15559128,-0.15559128,0.3580736,0.34550148,0.85398173,0.06898171,0.08276061,0.09565028,-1.4518777,0.11812234
84,1.68,0.0,0.105000004,0.0,0.0,0.0,0.0,0.0,0.0,-1.0,0.0,0.15,0.0,-0.019684942,0.0630852,-0.062570095,0.13397473,0.026766837,-0.1959883,0.22512932,0.2749831,0.12795544,-0.15559128,0.06898171,0.11812234,0.31725782,-0.4924539,0.3008988,-0.7188826,-0.28654712,-0.15658262,0.4905468,-0.23887008,-0.13139892,0.18057111,-0.07047799,-1.1336861,-1.3191117,-1.0522568,0.5668644,0.10774114,0.62264556,0.15891303,0.036791515,-0.5932954,1.5845288,0.8495752,1.695544,-0.5579128,-0.18443023,-0.036140084,-0.035475947,0.23648694,0.113455236,-0.38189882,0.48551676,0.46087497,0.44576454,-0.19369996,0.34550148,0.09565028,-0.22874717,-0.19074006,-0.016078968,-0.016078968,-0.10636405,-0.057262048,0.8357937,0.050793648,-0.029378906,-0.033063263,-1.6253798,-0.05537975,0.19821475,0.22514467,0.11963108,0.11963108,0.15445349,0.12544832,0.8074731,0.022473097,-0.34891617,-0.3755975,-1.7687013,-0.19870126,0.48023918,0.48404953,0.23499036,0.23499036,0.45345232,0.4550679,1.0539262,0.2689262,0.46389985,0.451139,-1.4414176,0.12858248,-0.14730427,-0.1790668,-0.15004657,-0.15004657,0.36001897,0.35018188,0.85603815,0.07103813,0.083139025,0.0882254,-1.4757861,0.09421396
85,1.7,0.0,0.105000004,0.0,0.0,0.0,0.0,0.0,0.0,-1.0,0.0,0.15,0.0,-0.016078968,0.050793648,-0.05537975,0.11963108,0.022473097,-0.19870126,0.23499036,0.2689262,0.12858248,-0.15004657,0.07103813,0.09421396,0.18029879,-0.6145772,0.35951546,-0.71718234,-0.21468803,-0.1356502,0.49305215,-0.30284515,0.031353503,0.27723515,0.102820724,-1.1954172,-1.3588064,-0.96350634,0.44181284,0.24565122,0.75136125,0.2422655,-0.13397558,-0.5108527,1.5361154,0.82959306,1.6134351,-0.20391187,-0.19074006,-0.057262048,-0.033063263,0.22514467,0.12544832,-0.3755975,0.48404953,0.4550679,0.451139,-0.1790668,0.35018188,0.0882254,-0.24374746,-0.20130621,-0.0153596625,-0.0153596625,-0.116455235,-0.07621813,0.82127184,0.03627181,-0.029982783,-0.031169437,-1.6172756,-0.047275543,0.18991081,0.21533802,0.10562183,0.10562183,0.16233337,0.13611405,0.8048527,0.019852698,-0.33981496,-0.3673283,-1.7707975,-0.20079744,0.47953394,0.48177055,0.24454698,0.24454698,0.45729226,0.45141265,1.0467892,0.26178914,0.46817866,0.4555039,-1.4376484,0.13235164,-0.13927364,-0.16662319,-0.14264359,-0.14264359,0.35992002,0.35464025,0.8613928,0.07639277,0.08459135,0.084227465,-1.5001662,0.069833875
