verayannn/SpotDMouse/P2-Terrain_Challenge/mp2/misc/openloop_scheduled_yaw_right_0.2.csv
step,time,obs_0,obs_1,obs_2,obs_3,obs_4,obs_5,obs_6,obs_7,obs_8,obs_9,obs_10,obs_11,obs_12,obs_13,obs_14,obs_15,obs_16,obs_17,obs_18,obs_19,obs_20,obs_21,obs_22,obs_23,obs_24,obs_25,obs_26,obs_27,obs_28,obs_29,obs_30,obs_31,obs_32,obs_33,obs_34,obs_35,obs_36,obs_37,obs_38,obs_39,obs_40,obs_41,obs_42,obs_43,obs_44,obs_45,obs_46,obs_47,obs_48,obs_49,obs_50,obs_51,obs_52,obs_53,obs_54,obs_55,obs_56,obs_57,obs_58,obs_59,action_0,delayed_action_0,joint_pos_0,joint_pos_rel_0,action_1,delayed_action_1,joint_pos_1,joint_pos_rel_1,action_2,delayed_action_2,joint_pos_2,joint_pos_rel_2,action_3,delayed_action_3,joint_pos_3,joint_pos_rel_3,action_4,delayed_action_4,joint_pos_4,joint_pos_rel_4,action_5,delayed_action_5,joint_pos_5,joint_pos_rel_5,action_6,delayed_action_6,joint_pos_6,joint_pos_rel_6,action_7,delayed_action_7,joint_pos_7,joint_pos_rel_7,action_8,delayed_action_8,joint_pos_8,joint_pos_rel_8,action_9,delayed_action_9,joint_pos_9,joint_pos_rel_9,action_10,delayed_action_10,joint_pos_10,joint_pos_rel_10,action_11,delayed_action_11,joint_pos_11,joint_pos_rel_11
0,0.0,0.0,0.0,-0.14,0.0,0.0,0.0,0.0,0.0,-1.0,0.0,0.0,-0.2,0.0,0.0,0.0,0.0,0.0,0.0,0.0,0.0,0.0,0.0,0.0,0.0,0.0,0.0,0.0,0.0,0.0,0.0,0.0,0.0,0.0,0.0,0.0,0.0,0.0,0.0,0.0,0.0,0.0,0.0,0.0,0.0,0.0,0.0,0.0,0.0,0.0,0.0,0.0,0.0,0.0,0.0,0.0,0.0,0.0,0.0,0.0,0.0,0.061922647,0.0,0.0,0.0,-0.059183866,0.0,0.785,0.0,0.0042925403,0.0,-1.57,0.0,-0.034178026,0.0,0.0,0.0,0.0031752177,0.0,0.785,0.0,-0.07405909,0.0,-1.57,0.0,-0.04911261,0.0,0.0,0.0,0.08871029,0.0,0.785,0.0,-0.0042522475,0.0,-1.57,0.0,0.015934434,0.0,0.0,0.0,-0.015059091,0.0,0.785,0.0,-0.03838155,0.0,-1.57,0.0
1,0.02,0.0,0.0,-0.14,0.0,0.0,0.0,0.0,0.0,-1.0,0.0,0.0,-0.2,0.0,0.0,0.0,0.0,0.0,0.0,0.0,0.0,0.0,0.0,0.0,0.0,0.0,0.0,0.0,0.0,0.0,0.0,0.0,0.0,0.0,0.0,0.0,0.0,0.0,0.0,0.0,0.0,0.0,0.0,0.0,0.0,0.0,0.0,0.0,0.0,0.0,0.0,0.0,0.0,0.0,0.0,0.0,0.0,0.0,0.0,0.0,0.0,0.061922647,0.0,0.0,0.0,-0.059183866,0.0,0.785,0.0,0.0042925403,0.0,-1.57,0.0,-0.034178026,0.0,0.0,0.0,0.0031752177,0.0,0.785,0.0,-0.07405909,0.0,-1.57,0.0,-0.04911261,0.0,0.0,0.0,0.08871029,0.0,0.785,0.0,-0.0042522475,0.0,-1.57,0.0,0.015934434,0.0,0.0,0.0,-0.015059091,0.0,0.785,0.0,-0.03838155,0.0,-1.57,0.0
2,0.04,0.0,0.0,-0.14,0.0,0.0,0.0,0.0,0.0,-1.0,0.0,0.0,-0.2,0.0,0.0,0.0,0.0,0.0,0.0,0.0,0.0,0.0,0.0,0.0,0.0,0.0,0.0,0.0,0.0,0.0,0.0,0.0,0.0,0.0,0.0,0.0,0.0,0.0,0.0,0.0,0.0,0.0,0.0,0.0,0.0,0.0,0.0,0.0,0.0,0.0,0.0,0.0,0.0,0.0,0.0,0.0,0.0,0.0,0.0,0.0,0.0,0.061922647,0.0,0.0,0.0,-0.059183866,0.0,0.785,0.0,0.0042925403,0.0,-1.57,0.0,-0.034178026,0.0,0.0,0.0,0.0031752177,0.0,0.785,0.0,-0.07405909,0.0,-1.57,0.0,-0.04911261,0.0,0.0,0.0,0.08871029,0.0,0.785,0.0,-0.0042522475,0.0,-1.57,0.0,0.015934434,0.0,0.0,0.0,-0.015059091,0.0,0.785,0.0,-0.03838155,0.0,-1.57,0.0
3,0.06,0.0,0.0,-0.14,0.0,0.0,0.0,0.0,0.0,-1.0,0.0,0.0,-0.2,0.0,0.0,0.0,0.0,0.0,0.0,0.0,0.0,0.0,0.0,0.0,0.0,0.0,0.0,0.0,0.0,0.0,0.0,0.0,0.0,0.0,0.0,0.0,0.0,0.0,0.0,0.0,0.0,0.0,0.0,0.0,0.0,0.0,0.0,0.0,0.0,0.0,0.0,0.0,0.0,0.0,0.0,0.0,0.0,0.0,0.0,0.0,0.0,0.061922647,0.061922647,0.0009907623,0.0009907623,-0.059183866,-0.059183866,0.7840531,-0.000946939,0.0042925403,0.0042925403,-1.5699314,6.866455e-05,-0.034178026,-0.034178026,-0.00054684834,-0.00054684834,0.0031752177,0.0031752177,0.7850508,5.0783157e-05,-0.07405909,-0.07405909,-1.571185,-0.0011849403,-0.04911261,-0.04911261,-0.0007858018,-0.0007858018,0.08871029,0.08871029,0.7864194,0.0014193654,-0.0042522475,-0.0042522475,-1.5700681,-6.8068504e-05,0.015934434,0.015934434,0.00025495095,0.00025495095,-0.015059091,-0.015059091,0.7847591,-0.00024092197,-0.03838155,-0.03838155,-1.5706141,-0.00061404705
4,0.08,0.0,0.0,-0.14,0.0,0.0,0.0,0.0,0.0,-1.0,0.0,0.0,-0.2,0.0009907623,-0.000946939,6.866455e-05,-0.00054684834,5.0783157e-05,-0.0011849403,-0.0007858018,0.0014193654,-6.8068504e-05,0.00025495095,-0.00024092197,-0.00061404705,0.049538117,-0.04734707,0.0034339903,-0.027342418,0.0025402068,-0.059247207,-0.03929009,0.07096825,-0.0034017563,0.012747548,-0.012047291,-0.03070526,0.45475993,-0.43464613,0.03152428,-0.25100344,0.023319434,-0.5438894,-0.36068302,0.6514885,-0.031227589,0.11702248,-0.11059451,-0.28187522,0.061922647,-0.059183866,0.0042925403,-0.034178026,0.0031752177,-0.07405909,-0.04911261,0.08871029,-0.0042522475,0.015934434,-0.015059091,-0.03838155,0.04157167,0.061922647,0.0028910444,0.0028910444,-0.060671724,-0.059183866,0.7822369,-0.0027631521,0.013341583,0.0042925403,-1.5697997,0.00020039082,-0.06268774,-0.034178026,-0.0015957034,-0.0015957034,-0.002824586,0.0031752177,0.78514826,0.00014823675,-0.079756975,-0.07405909,-1.5734577,-0.0034576654,-0.027174082,-0.04911261,-0.0022929697,-0.0022929697,0.0680206,0.08871029,0.7891417,0.0041416883,-0.029875493,-0.0042522475,-1.5701987,-0.00019860268,0.027428769,0.015934434,0.0007439469,0.0007439469,-0.022420928,-0.015059091,0.784297,-0.0007030368,-0.01251783,-0.03838155,-1.571792,-0.001791954
5,0.1,0.0,0.0,-0.14,0.0,0.0,0.0,0.0,0.0,-1.0,0.0,0.0,-0.2,0.0028910444,-0.0027631521,0.00020039082,-0.0015957034,0.00014823675,-0.0034576654,-0.0022929697,0.0041416883,-0.00019860268,0.0007439469,-0.0007030368,-0.001791954,0.09501411,-0.090811685,0.0065864176,-0.05244276,0.0048721503,-0.11363615,-0.07535839,0.1361171,-0.0065245153,0.024449795,-0.023106743,-0.058892783,0.40161738,-0.38385442,0.027840441,-0.22167158,0.020594206,-0.48033136,-0.31853417,0.5753569,-0.027577663,0.10334742,-0.09767095,-0.24893495,0.061922647,-0.059183866,0.0042925403,-0.034178026,0.0031752177,-0.07405909,-0.04911261,0.08871029,-0.0042522475,0.015934434,-0.015059091,-0.03838155,0.046685517,0.061922647,0.0055945613,0.0055945613,-0.06369754,-0.059183866,0.77965295,-0.005347073,0.012559302,0.0042925403,-1.5696123,0.00038778782,-0.062410686,-0.034178026,-0.0030879017,-0.0030879017,-0.0016053468,0.0031752177,0.7852869,0.00028687716,-0.07644504,-0.07405909,-1.5766912,-0.006691098,-0.02759599,-0.04911261,-0.004437206,-0.004437206,0.06562098,0.08871029,0.79301476,0.008014739,-0.03259215,-0.0042522475,-1.5703843,-0.00038421154,0.024479393,0.015934434,0.0014396376,0.0014396376,-0.01850437,-0.015059091,0.7836395,-0.0013605356,-0.013985528,-0.03838155,-1.5734677,-0.003467679
6,0.12,0.0,0.0,-0.14,0.0,0.0,0.0,0.0,0.0,-1.0,0.0,0.0,-0.2,0.0055945613,-0.005347073,0.00038778782,-0.0030879017,0.00028687716,-0.006691098,-0.004437206,0.008014739,-0.00038421154,0.0014396376,-0.0013605356,-0.003467679,0.13517585,-0.12919712,0.009370461,-0.07460992,0.006931571,-0.16166928,-0.107211806,0.1936528,-0.009282282,0.034784537,-0.03287384,-0.08378628,0.33828026,-0.32331896,0.02345007,-0.18671283,0.01734625,-0.40457988,-0.26829967,0.48462024,-0.023229036,0.08704901,-0.08226742,-0.2096766,0.061922647,-0.059183866,0.0042925403,-0.034178026,0.0031752177,-0.07405909,-0.04911261,0.08871029,-0.0042522475,0.015934434,-0.015059091,-0.03838155,0.05227408,0.061922647,0.008974639,0.008974639,-0.06777887,-0.059183866,0.7764224,-0.008577645,0.011303611,0.0042925403,-1.5693779,0.0006221533,-0.062003266,-0.034178026,-0.004953526,-0.004953526,0.0005560145,0.0031752177,0.78546023,0.00046020746,-0.07236125,-0.07405909,-1.5807337,-0.010733604,-0.02757185,-0.04911261,-0.007118041,-0.007118041,0.06322132,0.08871029,0.79785705,0.01285702,-0.03505985,-0.0042522475,-1.5706164,-0.000616312,0.021231305,0.015934434,0.0023094264,0.0023094264,-0.014356863,-0.015059091,0.7828175,-0.0021825433,-0.016496954,-0.03838155,-1.5755628,-0.0055627823
7,0.14,0.0,0.0,-0.14,0.0,0.0,0.0,0.0,0.0,-1.0,0.0,0.0,-0.2,0.008974639,-0.008577645,0.0006221533,-0.004953526,0.00046020746,-0.010733604,-0.007118041,0.01285702,-0.000616312,0.0023094264,-0.0021825433,-0.0055627823,0.16900387,-0.16152902,0.011715468,-0.0932812,0.008666196,-0.20212728,-0.13404177,0.24211481,-0.011605185,0.043489438,-0.04110058,-0.10475394,0.26728505,-0.25546387,0.018527718,-0.14752719,0.013705651,-0.31967077,-0.21199134,0.38291273,-0.018353978,0.06877992,-0.06500193,-0.16567113,0.061922647,-0.059183866,0.0042925403,-0.034178026,0.0031752177,-0.07405909,-0.04911261,0.08871029,-0.0042522475,0.015934434,-0.015059091,-0.03838155,0.05812527,0.04157167,0.012563671,0.012563671,-0.07262995,-0.060671724,0.7726571,-0.01234293,0.009546898,0.013341583,-1.5689617,0.0010383129,-0.061521526,-0.06268774,-0.00757036,-0.00757036,0.0035012327,-0.002824586,0.78556496,0.0005649328,-0.0677626,-0.079756975,-1.5855067,-0.015506625,-0.027134158,-0.027174082,-0.009871842,-0.009871842,0.060933035,0.0680206,0.80313414,0.018134117,-0.03716776,-0.029875493,-1.5712951,-0.0012950897,0.017768998,0.027428769,0.0035006844,0.0035006844,-0.010036765,-0.022420928,0.7817477,-0.0032523274,-0.019920653,-0.01251783,-1.5775754,-0.0075753927
8,0.16,0.0,0.0,-0.14,0.0,0.0,0.0,0.0,0.0,-1.0,0.0,0.0,-0.2,0.012563671,-0.01234293,0.0010383129,-0.00757036,0.0005649328,-0.015506625,-0.009871842,0.018134117,-0.0012950897,0.0035006844,-0.0032523274,-0.0075753927,0.1794516,-0.18826568,0.020807581,-0.13084169,0.005236918,-0.23865274,-0.13769008,0.2638543,-0.033939242,0.0595629,-0.053490188,-0.100630134,0.04182882,-0.19375378,0.079716526,-0.3149553,-0.034253743,-0.27062345,0.009401863,0.122091636,-0.20131306,0.13363776,-0.10058473,0.07137792,0.04157167,-0.060671724,0.013341583,-0.06268774,-0.002824586,-0.079756975,-0.027174082,0.0680206,-0.029875493,0.027428769,-0.022420928,-0.01251783,0.0632337,0.046685517,0.016318182,0.016318182,-0.08091847,-0.06369754,0.76845586,-0.016544163,0.0019002333,0.012559302,-1.5683987,0.0016013384,-0.05441728,-0.062410686,-0.010812671,-0.010812671,0.0067545734,-0.0016053468,0.7856207,0.00062066317,-0.048821844,-0.07644504,-1.590768,-0.020767927,-0.027337931,-0.02759599,-0.012613591,-0.012613591,0.07298382,0.06562098,0.808617,0.02361697,-0.048769403,-0.03259215,-1.57242,-0.0024199486,0.0040917923,0.024479393,0.004912028,0.004912028,-0.016058765,-0.01850437,0.7805394,-0.004460633,-0.029846659,-0.013985528,-1.5794687,-0.009468675
9,0.18,0.0,0.0,-0.14,0.0,0.0,0.0,0.0,0.0,-1.0,0.0,0.0,-0.2,0.016318182,-0.016544163,0.0016013384,-0.010812671,0.00062066317,-0.020767927,-0.012613591,0.02361697,-0.0024199486,0.004912028,-0.004460633,-0.009468675,0.18772556,-0.21006177,0.028153433,-0.16211557,0.0027868666,-0.26306558,-0.13708742,0.27414382,-0.05624378,0.070567176,-0.06041546,-0.0946665,0.018530458,-0.13984312,0.06077718,-0.24522495,-0.024167176,-0.1477412,0.049593247,0.010024726,-0.1938954,0.081959106,-0.046457194,0.08694698,0.046685517,-0.06369754,0.012559302,-0.062410686,-0.0016053468,-0.07644504,-0.02759599,0.06562098,-0.03259215,0.024479393,-0.01850437,-0.013985528,0.069987446,0.05227408,0.02019917,0.02019917,-0.087605566,-0.06777887,0.76390964,-0.021090388,-0.0028865263,0.011303611,-1.5677342,0.002265811,-0.05396683,-0.062003266,-0.014538914,-0.014538914,0.008942921,0.0005560145,0.78566265,0.00066262484,-0.04084012,-0.07236125,-1.5962595,-0.026259422,-0.027727097,-0.02757185,-0.015255766,-0.015255766,0.069650605,0.06322132,0.81408155,0.029081523,-0.04683127,-0.03505985,-1.5739721,-0.0039720535,0.0019668718,0.021231305,0.0064353202,0.0064353202,-0.009039491,-0.014356863,0.7793045,-0.005695522,-0.035655748,-0.016496954,-1.5812284,-0.011228323
10,0.2,0.0,0.0,-0.14,0.0,0.0,0.0,0.0,0.0,-1.0,0.0,0.0,-0.2,0.02019917,-0.021090388,0.002265811,-0.014538914,0.00066262484,-0.026259422,-0.015255766,0.029081523,-0.0039720535,0.0064353202,-0.005695522,-0.011228323,0.19404946,-0.22731109,0.03322655,-0.18631214,0.002099256,-0.2745726,-0.13210878,0.27322653,-0.07760762,0.07616462,-0.06174316,-0.087980814,-0.0020188033,-0.09112885,0.037563056,-0.17024744,-0.0072036884,-0.021452785,0.08957185,-0.096146956,-0.17812276,0.02880301,0.0071451156,0.091668405,0.05227408,-0.06777887,0.011303611,-0.062003266,0.0005560145,-0.07236125,-0.02757185,0.06322132,-0.03505985,0.021231305,-0.014356863,-0.016496954,0.07681992,0.05812527,0.024169741,0.024169741,-0.094471045,-0.07262995,0.75910354,-0.02589649,-0.008009404,0.009546898,-1.5670227,0.0029773712,-0.053795528,-0.061521526,-0.018597944,-0.018597944,0.011087161,0.0035012327,0.78573734,0.00073730946,-0.033272065,-0.0677626,-1.6017202,-0.03172016,-0.027970236,-0.027134158,-0.017711794,-0.017711794,0.06644482,0.060933035,0.81931716,0.034317136,-0.043440286,-0.03716776,-1.5759143,-0.0059142113,0.0006682244,0.017768998,0.0079608215,0.0079608215,-0.0016048625,-0.010036765,0.77815306,-0.0068469644,-0.041567627,-0.019920653,-1.5828594,-0.0128593445
11,0.22,0.0,0.0,-0.14,0.0,0.0,0.0,0.0,0.0,-1.0,0.0,0.0,-0.2,0.024169741,-0.02589649,0.0029773712,-0.018597944,0.00073730946,-0.03172016,-0.017711794,0.034317136,-0.0059142113,0.0079608215,-0.0068469644,-0.0128593445,0.19852853,-0.24030486,0.03557752,-0.20295149,0.003735035,-0.27303898,-0.12280144,0.26178116,-0.09710618,0.07627507,-0.057572532,-0.08155293,-0.020977974,-0.04654317,0.0109492615,-0.093129374,0.014344946,0.10194117,0.12771615,-0.1925008,-0.15416184,-0.023358699,0.05804404,0.08716128,0.05812527,-0.07262995,0.009546898,-0.061521526,0.0035012327,-0.0677626,-0.027134158,0.060933035,-0.03716776,0.017768998,-0.010036765,-0.019920653,0.083564,0.0632337,0.02818009,0.02818009,-0.10127189,-0.08091847,0.7540717,-0.030928314,-0.013385959,0.0019002333,-1.5664116,0.003588438,-0.05392359,-0.05441728,-0.022729564,-0.022729564,0.013338182,0.0067545734,0.7858928,0.00089275837,-0.026532583,-0.048821844,-1.6066741,-0.036674023,-0.027903795,-0.027337931,-0.019915652,-0.019915652,0.06349951,0.07298382,0.8243606,0.039360583,-0.038676437,-0.048769403,-1.5783503,-0.008350253,9.584846e-05,0.0040917923,0.009220771,0.009220771,0.0060081966,-0.016058765,0.77702135,-0.007978678,-0.04741523,-0.029846659,-1.5844749,-0.014474869
12,0.24,0.0,0.0,-0.14,0.0,0.0,0.0,0.0,0.0,-1.0,0.0,0.0,-0.2,0.02818009,-0.030928314,0.003588438,-0.022729564,0.00089275837,-0.036674023,-0.019915652,0.039360583,-0.008350253,0.009220771,-0.007978678,-0.014474869,0.20051748,-0.25158998,0.030555008,-0.20658103,0.0077722017,-0.24769232,-0.11019284,0.25217175,-0.121803716,0.06299744,-0.056585804,-0.08077767,-0.045270555,-0.026699435,-0.057490945,0.03162531,0.035865907,0.3200551,0.1550434,-0.17198431,-0.19564989,-0.14629671,0.027481323,0.03321339,0.0632337,-0.08091847,0.0019002333,-0.05441728,0.0067545734,-0.048821844,-0.027337931,0.07298382,-0.048769403,0.0040917923,-0.016058765,-0.029846659,0.09058596,0.069987446,0.03220796,0.03220796,-0.11159343,-0.087605566,0.7488795,-0.036120534,-0.01635275,-0.0028865263,-1.5659921,0.0040079355,-0.055293087,-0.05396683,-0.026790727,-0.026790727,0.019354757,0.008942921,0.786155,0.0011549592,-0.023443483,-0.04084012,-1.6108601,-0.040860057,-0.027337775,-0.027727097,-0.021815648,-0.021815648,0.06251818,0.069650605,0.82900673,0.044006705,-0.02988184,-0.04683127,-1.5811467,-0.011146665,0.0025884067,0.0019668718,0.010154127,0.010154127,0.00818532,-0.009039491,0.7760569,-0.0089431405,-0.05614874,-0.035655748,-1.586117,-0.016116977
13,0.26,0.0,0.0,-0.14,0.0,0.0,0.0,0.0,0.0,-1.0,0.0,0.0,-0.2,0.03220796,-0.036120534,0.0040079355,-0.026790727,0.0011549592,-0.040860057,-0.021815648,0.044006705,-0.011146665,0.010154127,-0.0089431405,-0.016116977,0.20139341,-0.25960967,0.020976529,-0.20305814,0.013109547,-0.20930138,-0.094999835,0.23230675,-0.13981822,0.04666783,-0.048222248,-0.08210358,-0.05612447,0.006888616,-0.0977075,0.098446056,0.04650957,0.4316904,0.17473352,-0.26305547,-0.12639521,-0.17006499,0.0948852,0.013677523,0.069987446,-0.087605566,-0.0028865263,-0.05396683,0.008942921,-0.04084012,-0.027727097,0.069650605,-0.04683127,0.0019668718,-0.009039491,-0.035655748,0.0975648,0.07681992,0.036232896,0.036232896,-0.11723282,-0.094471045,0.74359125,-0.041408777,-0.021734685,-0.008009404,-1.56585,0.004150033,-0.055661064,-0.053795528,-0.030652257,-0.030652257,0.021538343,0.011087161,0.7865445,0.0015444756,-0.019554324,-0.033272065,-1.6140617,-0.04406166,-0.026031796,-0.027970236,-0.023370069,-0.023370069,0.059832904,0.06644482,0.83307546,0.048075438,-0.022105787,-0.043440286,-1.5841416,-0.01414156,0.0027478975,0.0006682244,0.010726576,0.010726576,0.015898589,-0.0016048625,0.7754012,-0.009598851,-0.061519165,-0.041567627,-1.5878264,-0.017826319
14,0.28,0.0,0.0,-0.14,0.0,0.0,0.0,0.0,0.0,-1.0,0.0,0.0,-0.2,0.036232896,-0.041408777,0.004150033,-0.030652257,0.0015444756,-0.04406166,-0.023370069,0.048075438,-0.01414156,0.010726576,-0.009598851,-0.017826319,0.20124695,-0.2644132,0.007107459,-0.19307649,0.01947588,-0.16007784,-0.07772099,0.20343658,-0.14974493,0.028622413,-0.03278604,-0.08546529,-0.06579046,0.038978267,-0.13402972,0.15661013,0.054247886,0.51884925,0.18901971,-0.3393663,-0.046385318,-0.18059063,0.15713532,-0.0045867683,0.07681992,-0.094471045,-0.008009404,-0.053795528,0.011087161,-0.033272065,-0.027970236,0.06644482,-0.043440286,0.0006682244,-0.0016048625,-0.041567627,0.1034105,0.083564,0.04023416,0.04023416,-0.12199067,-0.10127189,0.73827213,-0.046727896,-0.026518323,-0.013385959,-1.566062,0.003938079,-0.056054126,-0.05392359,-0.034202617,-0.034202617,0.023910847,0.013338182,0.78707856,0.0020785332,-0.017259892,-0.026532583,-1.6161177,-0.046117663,-0.023945138,-0.027903795,-0.024545386,-0.024545386,0.05734222,0.06349951,0.83641833,0.051418304,-0.01389947,-0.038676437,-1.5871531,-0.017153025,0.0033379165,9.584846e-05,0.010928685,0.010928685,0.022815362,0.0060081966,0.77518153,-0.009818494,-0.06606255,-0.04741523,-1.5896385,-0.01963842
15,0.3,0.0,0.0,-0.14,0.0,0.0,0.0,0.0,0.0,-1.0,0.0,0.0,-0.2,0.04023416,-0.046727896,0.003938079,-0.034202617,0.0020785332,-0.046117663,-0.024545386,0.051418304,-0.017153025,0.010928685,-0.009818494,-0.01963842,0.20006317,-0.26595598,-0.0105967745,-0.17751792,0.026701491,-0.10280141,-0.05876587,0.1671437,-0.15057239,0.01010545,-0.010982059,-0.09060212,-0.07526616,0.070449375,-0.16479896,0.2046121,0.060098387,0.57702214,0.19887875,-0.39826816,0.04032259,-0.17914489,0.21065211,-0.019806284,0.083564,-0.10127189,-0.013385959,-0.05392359,0.013338182,-0.026532583,-0.027903795,0.06349951,-0.038676437,9.584846e-05,0.0060081966,-0.04741523,0.10792017,0.09058596,0.044197243,0.044197243,-0.12560824,-0.11159343,0.73292875,-0.052071273,-0.030481465,-0.01635275,-1.566651,0.0033490658,-0.056282382,-0.055293087,-0.037365664,-0.037365664,0.026482884,0.019354757,0.78782904,0.0028290153,-0.016571004,-0.023443483,-1.6169703,-0.04697025,-0.02112665,-0.027337775,-0.02531389,-0.02531389,0.0549626,0.06251818,0.83894897,0.05394894,-0.005402034,-0.02988184,-1.5899432,-0.019943118,0.004523002,0.0025884067,0.010812385,0.010812385,0.028771155,0.00818532,0.77541804,-0.009581983,-0.06972682,-0.05614874,-1.5916299,-0.02162981
16,0.32,0.0,0.0,-0.14,0.0,0.0,0.0,0.0,0.0,-1.0,0.0,0.0,-0.2,0.044197243,-0.052071273,0.0033490658,-0.037365664,0.0028290153,-0.04697025,-0.02531389,0.05394894,-0.019943118,0.010812385,-0.009581983,-0.02162981,0.19815412,-0.26716834,-0.029449984,-0.15815231,0.037524525,-0.04262785,-0.038425177,0.12653182,-0.13950449,-0.005814992,0.011824848,-0.09956956,-0.08154525,0.07397666,-0.16968128,0.2345821,0.0908111,0.5852902,0.20553263,-0.426303,0.1497865,-0.14938343,0.21288145,-0.053328395,0.09058596,-0.11159343,-0.01635275,-0.055293087,0.019354757,-0.023443483,-0.027337775,0.06251818,-0.02988184,0.0025884067,0.00818532,-0.05614874,0.10997805,0.0975648,0.048108898,0.048108898,-0.12750572,-0.11723282,0.72764313,-0.057356894,-0.032220192,-0.021734685,-1.5676655,0.0023345947,-0.056500856,-0.055661064,-0.040065434,-0.040065434,0.027306449,0.021538343,0.78879607,0.003796041,-0.018494226,-0.019554324,-1.61659,-0.04658997,-0.016778484,-0.026031796,-0.025650432,-0.025650432,0.05250399,0.059832904,0.84058404,0.055584013,0.0005182716,-0.022105787,-1.5923092,-0.022309184,0.007425886,0.0027478975,0.010399871,0.010399871,0.033206448,0.015898589,0.7762037,-0.008796334,-0.06984659,-0.061519165,-1.5938139,-0.023813844
17,0.34,0.0,0.0,-0.14,0.0,0.0,0.0,0.0,0.0,-1.0,0.0,0.0,-0.2,0.048108898,-0.057356894,0.0023345947,-0.040065434,0.003796041,-0.04658997,-0.025650432,0.055584013,-0.022309184,0.010399871,-0.008796334,-0.023813844,0.19558267,-0.26428214,-0.05072376,-0.13498849,0.048352577,0.019012436,-0.016827133,0.081753284,-0.118304834,-0.02062574,0.039283648,-0.109198704,-0.08701529,0.11198898,-0.18586935,0.26325268,0.08739407,0.5794983,0.21056612,-0.4515574,0.2392538,-0.1341019,0.2482882,-0.056532316,0.0975648,-0.11723282,-0.021734685,-0.055661064,0.021538343,-0.019554324,-0.026031796,0.059832904,-0.022105787,0.0027478975,0.015898589,-0.061519165,0.11208459,0.1034105,0.051940054,0.051940054,-0.12846732,-0.12199067,0.72250533,-0.062494695,-0.034570478,-0.026518323,-1.5691282,0.00087189674,-0.056089055,-0.056054126,-0.042244986,-0.042244986,0.029961612,0.023910847,0.7899759,0.0049758554,-0.020631142,-0.017259892,-1.6150141,-0.045014024,-0.012713194,-0.023945138,-0.025532456,-0.025532456,0.050125938,0.05734222,0.8412761,0.056276083,0.00973673,-0.01389947,-1.5940655,-0.024065495,0.009794336,0.0033379165,0.009728592,0.009728592,0.037976116,0.022815362,0.7775966,-0.0074034333,-0.07197417,-0.06606255,-1.5961837,-0.026183605
18,0.36,0.0,0.0,-0.14,0.0,0.0,0.0,0.0,0.0,-1.0,0.0,0.0,-0.2,0.051940054,-0.062494695,0.00087189674,-0.042244986,0.0049758554,-0.045014024,-0.025532456,0.056276083,-0.024065495,0.009728592,-0.0074034333,-0.026183605,0.1915577,-0.25688955,-0.0731376,-0.10897767,0.058989987,0.07879789,0.005898807,0.034604937,-0.087814555,-0.033563912,0.069645874,-0.11848658,-0.09953573,0.15243445,-0.1895283,0.28197557,0.08217836,0.5427467,0.21400878,-0.4589824,0.31775868,-0.1121722,0.26615477,-0.05031863,0.1034105,-0.12199067,-0.026518323,-0.056054126,0.023910847,-0.017259892,-0.023945138,0.05734222,-0.01389947,0.0033379165,0.022815362,-0.06606255,0.11256935,0.10792017,0.055644292,0.055644292,-0.12814102,-0.12560824,0.71761453,-0.067385495,-0.035850994,-0.030481465,-1.5710334,-0.0010333061,-0.055223163,-0.056282382,-0.04386424,-0.04386424,0.03254706,0.026482884,0.7913612,0.0063611865,-0.023993373,-0.016571004,-1.6123416,-0.04234159,-0.008171968,-0.02112665,-0.024941366,-0.024941366,0.048336793,0.0549626,0.8410122,0.056012154,0.018738586,-0.005402034,-1.5950503,-0.025050282,0.012915101,0.004523002,0.0088519305,0.0088519305,0.04127788,0.028771155,0.77961713,-0.0053828955,-0.07359893,-0.06972682,-1.5987127,-0.02871263
19,0.38,0.0,0.0,-0.14,0.0,0.0,0.0,0.0,0.0,-1.0,0.0,0.0,-0.2,0.055644292,-0.067385495,-0.0010333061,-0.04386424,0.0063611865,-0.04234159,-0.024941366,0.056012154,-0.025050282,0.0088519305,-0.0053828955,-0.02871263,0.18521187,-0.24454013,-0.09526102,-0.08096272,0.06926547,0.1336236,0.029554477,-0.013196934,-0.049240705,-0.043833062,0.101026,-0.12644985,-0.11955325,0.19557233,-0.1796892,0.29205012,0.0754518,0.47808528,0.21527143,-0.4498949,0.38220817,-0.083530344,0.26578262,-0.035186637,0.10792017,-0.12560824,-0.030481465,-0.056282382,0.026482884,-0.016571004,-0.02112665,0.0549626,-0.005402034,0.004523002,0.028771155,-0.06972682,0.11156101,0.10997805,0.059142347,0.059142347,-0.1266579,-0.12750572,0.7130845,-0.07191551,-0.03616038,-0.032220192,-1.5733258,-0.0033257008,-0.053929288,-0.056500856,-0.044902887,-0.044902887,0.03497013,0.027306449,0.7929106,0.00791055,-0.02836585,-0.018494226,-1.6087438,-0.038743734,-0.003411755,-0.016778484,-0.023850163,-0.023850163,0.047226995,0.05250399,0.8398091,0.054809093,0.027379805,0.0005182716,-1.595176,-0.02517593,0.016779762,0.007425886,0.007854654,0.007854654,0.04304128,0.033206448,0.78224015,-0.0027598739,-0.07479939,-0.06984659,-1.601314,-0.031313896
20,0.4,0.0,0.0,-0.14,0.0,0.0,0.0,0.0,0.0,-1.0,0.0,0.0,-0.2,0.059142347,-0.07191551,-0.0033257008,-0.044902887,0.00791055,-0.038743734,-0.023850163,0.054809093,-0.02517593,0.007854654,-0.0027598739,-0.031313896,0.17490284,-0.22650085,-0.11462078,-0.051932484,0.077469446,0.17989366,0.05456015,-0.060153376,-0.0062835626,-0.04986379,0.1311525,-0.13006446,-0.15390459,0.24385326,-0.1472394,0.29240558,0.053147983,0.38199988,0.22009468,-0.42683727,0.41010323,-0.041335486,0.24423344,0.0072815297,0.10997805,-0.12750572,-0.032220192,-0.056500856,0.027306449,-0.018494226,-0.016778484,0.05250399,0.0005182716,0.007425886,0.033206448,-0.06984659,0.10896292,0.11208459,0.0623663,0.0623663,-0.12515411,-0.12846732,0.7090268,-0.07597321,-0.035868324,-0.034570478,-1.5759503,-0.0059502125,-0.052411523,-0.056089055,-0.045350138,-0.045350138,0.03742366,0.029961612,0.7946088,0.009608746,-0.03247062,-0.020631142,-1.6044161,-0.03441608,0.0010601804,-0.012713194,-0.022253726,-0.022253726,0.0477034,0.050125938,0.8377143,0.05271429,0.034209304,0.00973673,-1.594334,-0.024333954,0.02062286,0.009794336,0.006812603,0.006812603,0.04206572,0.037976116,0.785428,0.00042796135,-0.07646746,-0.07197417,-1.6039348,-0.033934712
21,0.42,0.0,0.0,-0.14,0.0,0.0,0.0,0.0,0.0,-1.0,0.0,0.0,-0.2,0.0623663,-0.07597321,-0.0059502125,-0.045350138,0.009608746,-0.03441608,-0.022253726,0.05271429,-0.024333954,0.006812603,0.00042796135,-0.033934712,0.16119762,-0.20288485,-0.13122499,-0.022362484,0.084908366,0.21638408,0.079821855,-0.10473949,0.04210152,-0.052102577,0.15939158,-0.13103843,-0.18178287,0.28927526,-0.11574775,0.288071,0.043498576,0.27741665,0.21444312,-0.39005122,0.44618672,-0.004595676,0.217266,0.032680392,0.11208459,-0.12846732,-0.034570478,-0.056089055,0.029961612,-0.020631142,-0.012713194,0.050125938,0.00973673,0.009794336,0.037976116,-0.07197417,0.10575426,0.11256935,0.065234445,0.065234445,-0.12178711,-0.12814102,0.7055529,-0.07944715,-0.03510093,-0.035850994,-1.5788268,-0.008826733,-0.050335523,-0.055223163,-0.045207392,-0.045207392,0.03916623,0.03254706,0.7964353,0.01143527,-0.03812743,-0.023993373,-1.5995874,-0.029587388,0.005440548,-0.008171968,-0.020155743,-0.020155743,0.047967855,0.048336793,0.8348108,0.049810767,0.042326033,0.018738586,-1.5924556,-0.022455573,0.025683466,0.012915101,0.0058112927,0.0058112927,0.041547038,0.04127788,0.78910315,0.004103124,-0.07668635,-0.07359893,-1.6065161,-0.03651607
22,0.44,0.0,0.0,-0.14,0.0,0.0,0.0,0.0,0.0,-1.0,0.0,0.0,-0.2,0.065234445,-0.07944715,-0.008826733,-0.045207392,0.01143527,-0.029587388,-0.020155743,0.049810767,-0.022455573,0.0058112927,0.004103124,-0.03651607,0.14340714,-0.17369631,-0.1438242,0.0071373302,0.09132665,0.241436,0.104899146,-0.14517598,0.09392158,-0.050065532,0.18375957,-0.12907006,-0.21489993,0.3328742,-0.07366819,0.2779643,0.031749282,0.16073418,0.20466657,-0.33769032,0.46223646,0.03537289,0.17269331,0.06000126,0.11256935,-0.12814102,-0.035850994,-0.055223163,0.03254706,-0.023993373,-0.008171968,0.048336793,0.018738586,0.012915101,0.04127788,-0.07359893,0.10137898,0.11156101,0.06765665,0.06765665,-0.11793857,-0.1266579,0.70276845,-0.08223158,-0.033904247,-0.03616038,-1.5818555,-0.011855483,-0.04796357,-0.053929288,-0.044488017,-0.044488017,0.04049867,0.03497013,0.7983641,0.013364077,-0.04422482,-0.02836585,-1.5945072,-0.024507165,0.009288132,-0.003411755,-0.017572263,-0.017572263,0.04939225,0.047226995,0.83121413,0.046214104,0.049545866,0.027379805,-1.5895145,-0.019514441,0.031063821,0.016779762,0.0049425624,0.0049425624,0.039437328,0.04304128,0.7931519,0.008151889,-0.07634566,-0.07479939,-1.6089967,-0.038996696
23,0.46,0.0,0.0,-0.14,0.0,0.0,0.0,0.0,0.0,-1.0,0.0,0.0,-0.2,0.06765665,-0.08223158,-0.011855483,-0.044488017,0.013364077,-0.024507165,-0.017572263,0.046214104,-0.019514441,0.0049425624,0.008151889,-0.038996696,0.12111048,-0.13922232,-0.1514386,0.03596886,0.09644001,0.25401133,0.12917396,-0.17983279,0.14705822,-0.043436516,0.20243958,-0.124030285,-0.25057358,0.3720537,-0.023876727,0.2623895,0.017716084,0.03818216,0.18927518,-0.27169305,0.45773998,0.07687535,0.112679824,0.08756789,0.11156101,-0.1266579,-0.03616038,-0.053929288,0.03497013,-0.02836585,-0.003411755,0.047226995,0.027379805,0.016779762,0.04304128,-0.07479939,0.09587473,0.10896292,0.06953614,0.06953614,-0.11373512,-0.12515411,0.70075214,-0.08424789,-0.032453723,-0.035868324,-1.5849274,-0.014927387,-0.045456495,-0.052411523,-0.043219578,-0.043219578,0.041347545,0.03742366,0.8003676,0.015367568,-0.050657183,-0.03247062,-1.5894163,-0.019416213,0.012438968,0.0010601804,-0.014538683,-0.014538683,0.052125003,0.0477034,0.8270817,0.042081654,0.05570514,0.034209304,-1.5855485,-0.015548468,0.03664745,0.02062286,0.0042890725,0.0042890725,0.03578241,0.04206572,0.7974105,0.012410462,-0.07543462,-0.07646746,-1.611329,-0.041328907
24,0.48,0.0,0.0,-0.14,0.0,0.0,0.0,0.0,0.0,-1.0,0.0,0.0,-0.2,0.06953614,-0.08424789,-0.014927387,-0.043219578,0.015367568,-0.019416213,-0.014538683,0.042081654,-0.015548468,0.0042890725,0.012410462,-0.041328907,0.09397465,-0.100813985,-0.15359262,0.063422024,0.100174375,0.25454566,0.15167904,-0.206621,0.19829582,-0.032674503,0.21292716,-0.11660807,-0.2878622,0.3971401,0.02868725,0.24051006,0.003420615,-0.076379046,0.16526084,-0.18836889,0.4233016,0.11269498,0.031494953,0.107826434,0.10896292,-0.12515411,-0.035868324,-0.052411523,0.03742366,-0.03247062,0.0010601804,0.0477034,0.034209304,0.02062286,0.04206572,-0.07646746,0.08906547,0.10575426,0.07078857,0.07078857,-0.10974199,-0.12178711,0.699584,-0.08541602,-0.030678153,-0.03510093,-1.5879296,-0.017929554,-0.043160286,-0.050335523,-0.0414369,-0.0414369,0.041606624,0.03916623,0.8024058,0.017405748,-0.057288416,-0.03812743,-1.5845686,-0.014568567,0.014657676,0.005440548,-0.011104494,-0.011104494,0.056582395,0.047967855,0.82257676,0.037576735,0.060491,0.042326033,-1.5806061,-0.0106060505,0.04277607,0.025683466,0.003941942,0.003941942,0.02980069,0.041547038,0.8017237,0.016723692,-0.07413065,-0.07668635,-1.613449,-0.043448925
25,0.5,0.0,0.0,-0.14,0.0,0.0,0.0,0.0,0.0,-1.0,0.0,0.0,-0.2,0.07078857,-0.08541602,-0.017929554,-0.0414369,0.017405748,-0.014568567,-0.011104494,0.037576735,-0.0106060505,0.003941942,0.016723692,-0.043448925,0.062621504,-0.058406327,-0.15010992,0.08913383,0.10191052,0.24238238,0.17170942,-0.22524628,0.24711935,-0.017356519,0.21566172,-0.10600052,-0.31789374,0.4215629,0.08112033,0.2157393,-0.016117537,-0.19311349,0.13534158,-0.104861334,0.38474494,0.15107492,-0.04303346,0.134692,0.10575426,-0.12178711,-0.03510093,-0.050335523,0.03916623,-0.03812743,0.005440548,0.047967855,0.042326033,0.025683466,0.041547038,-0.07668635,0.081578106,0.10137898,0.07133521,0.07133521,-0.1049585,-0.11793857,0.69932055,-0.08567947,-0.028950773,-0.033904247,-1.5907505,-0.020750403,-0.041054886,-0.04796357,-0.039184794,-0.039184794,0.041580196,0.04049867,0.80443305,0.019433022,-0.06438909,-0.04422482,-1.5802047,-0.010204673,0.016095541,0.009288132,-0.0073380615,-0.0073380615,0.061886605,0.04939225,0.8178849,0.032884896,0.06434104,0.049545866,-1.5747787,-0.0047786236,0.048745975,0.031063821,0.0039830473,0.0039830473,0.023583356,0.039437328,0.80591714,0.020917118,-0.07224799,-0.07634566,-1.6152941,-0.045294046
26,0.52,0.0,0.0,-0.14,0.0,0.0,0.0,0.0,0.0,-1.0,0.0,0.0,-0.2,0.07133521,-0.08567947,-0.020750403,-0.039184794,0.019433022,-0.010204673,-0.0073380615,0.032884896,-0.0047786236,0.0039830473,0.020917118,-0.045294046,0.0273319,-0.013171196,-0.1410406,0.11260532,0.10136469,0.21819317,0.18832165,-0.23459296,0.29136968,0.0020552557,0.20967056,-0.09225876,-0.34399754,0.433949,0.13129224,0.18694547,-0.037621774,-0.29961973,0.09755322,-0.013724064,0.32713926,0.18375418,-0.124010816,0.16006866,0.10137898,-0.11793857,-0.033904247,-0.04796357,0.04049867,-0.04422482,0.009288132,0.04939225,0.049545866,0.031063821,0.039437328,-0.07634566,0.07332908,0.09587473,0.071105786,0.071105786,-0.10013984,-0.11373512,0.6999923,-0.08500773,-0.027190551,-0.032453723,-1.5932854,-0.023285389,-0.039485782,-0.045456495,-0.03651868,-0.03651868,0.041316453,0.041347545,0.8063987,0.021398664,-0.07166731,-0.050657183,-1.576543,-0.006542921,0.016588986,0.012438968,-0.0033261087,-0.0033261087,0.06841591,0.052125003,0.81320935,0.028209329,0.066799894,0.05570514,-1.5681984,0.00180161,0.054846086,0.03664745,0.004480999,0.004480999,0.016140671,0.03578241,0.8098041,0.024804056,-0.07012493,-0.07543462,-1.6168046,-0.046804547
27,0.54,0.0,0.0,-0.14,0.0,0.0,0.0,0.0,0.0,-1.0,0.0,0.0,-0.2,0.071105786,-0.08500773,-0.023285389,-0.03651868,0.021398664,-0.006542921,-0.0033261087,0.028209329,0.00180161,0.004480999,0.024804056,-0.046804547,-0.011471253,0.033586454,-0.12675095,0.13330552,0.09828162,0.18308517,0.20059764,-0.23377916,0.32901105,0.024897577,0.19434561,-0.07552309,-0.36495912,0.43344975,0.1763115,0.15399419,-0.060739398,-0.392114,0.052430667,0.08254014,0.25230926,0.20903483,-0.20777805,0.18315682,0.09587473,-0.11373512,-0.032453723,-0.045456495,0.041347545,-0.050657183,0.012438968,0.052125003,0.05570514,0.03664745,0.03578241,-0.07543462,0.06448678,0.08906547,0.07003749,0.07003749,-0.095252715,-0.10974199,0.7015948,-0.0834052,-0.025430553,-0.030678153,-1.5954394,-0.025439382,-0.038518958,-0.043160286,-0.033507843,-0.033507843,0.040941823,0.041606624,0.80824697,0.023246944,-0.07900459,-0.057288416,-1.5737716,-0.0037715435,0.0162289,0.014657676,0.00082620466,0.00082620466,0.07589698,0.056582395,0.8087702,0.023770154,0.06789611,0.060491,-1.5610371,0.008962989,0.060810264,0.04277607,0.005495078,0.005495078,0.007828868,0.02980069,0.81317973,0.028179705,-0.06783412,-0.07413065,-1.6179279,-0.047927856
28,0.56,0.0,0.0,-0.14,0.0,0.0,0.0,0.0,0.0,-1.0,0.0,0.0,-0.2,0.07003749,-0.0834052,-0.025439382,-0.033507843,0.023246944,-0.0037715435,0.00082620466,0.023770154,0.008962989,0.005495078,0.028179705,-0.047927856,-0.05341457,0.08012585,-0.1076992,0.1505419,0.09241501,0.13856886,0.20761567,-0.22195917,0.3580708,0.050703958,0.16878235,-0.056164093,-0.38136882,0.41648388,0.21545544,0.11557225,-0.08530529,-0.467247,0.00023430586,0.18331674,0.16148546,0.22893532,-0.29686123,0.20188347,0.08906547,-0.10974199,-0.030678153,-0.043160286,0.041606624,-0.057288416,0.014657676,0.056582395,0.060491,0.04277607,0.02980069,-0.07413065,0.055016443,0.081578106,0.06808666,0.06808666,-0.090367235,-0.1049585,0.70410687,-0.08089316,-0.023484185,-0.028950773,-1.5971348,-0.027134776,-0.03826464,-0.041054886,-0.030232174,-0.030232174,0.04047462,0.041580196,0.80992424,0.024924219,-0.08634757,-0.06438909,-1.5720483,-0.002048254,0.01531136,0.016095541,0.0050019925,0.0050019925,0.0842161,0.061886605,0.8047825,0.019782484,0.06722206,0.06434104,-1.5534911,0.016508937,0.06627434,0.048745975,0.007062546,0.007062546,-0.0013861945,0.023583356,0.8158622,0.030862153,-0.065314725,-0.07224799,-1.6186173,-0.048617244
29,0.58,0.0,0.0,-0.14,0.0,0.0,0.0,0.0,0.0,-1.0,0.0,0.0,-0.2,0.06808666,-0.08089316,-0.027134776,-0.030232174,0.024924219,-0.002048254,0.0050019925,0.019782484,0.016508937,0.007062546,0.030862153,-0.048617244,-0.09754135,0.12560105,-0.08477178,0.16378345,0.08386331,0.0861637,0.2087894,-0.19938423,0.3772993,0.07837342,0.13412243,-0.034469705,-0.3879911,0.39182174,0.24493678,0.07338398,-0.10807755,-0.52542174,-0.055662245,0.27826476,0.0619359,0.23778033,-0.37218836,0.21712689,0.081578106,-0.1049585,-0.028950773,-0.041054886,0.041580196,-0.06438909,0.016095541,0.061886605,0.06434104,0.048745975,0.023583356,-0.07224799,0.045440935,0.07332908,0.065227866,0.065227866,-0.08525139,-0.10013984,0.70747966,-0.07752037,-0.021604009,-0.027190551,-1.5983123,-0.028312206,-0.03850663,-0.039485782,-0.026784632,-0.026784632,0.040110167,0.041316453,0.81138116,0.026381135,-0.09333124,-0.07166731,-1.5714923,-0.0014922619,0.0137674585,0.016588986,0.009074351,0.009074351,0.09251764,0.06841591,0.8014558,0.01645577,0.06567484,0.066799894,-1.545782,0.024218082,0.07106213,0.054846086,0.009203177,0.009203177,-0.010213537,0.016140671,0.8176812,0.032681167,-0.062742166,-0.07012493,-1.6188384,-0.048838377
30,0.6,0.0,0.0,-0.14,0.0,0.0,0.0,0.0,0.0,-1.0,0.0,0.0,-0.2,0.065227866,-0.07752037,-0.028312206,-0.026784632,0.026381135,-0.0014922619,0.009074351,0.01645577,0.024218082,0.009203177,0.032681167,-0.048838377,-0.14293967,0.16863817,-0.05886991,0.17237712,0.0728446,0.027798776,0.20361793,-0.16633429,0.38545996,0.10703154,0.09094942,-0.011058522,-0.38554335,0.354888,0.2649067,0.026479298,-0.12798838,-0.56336266,-0.11428668,0.36720186,-0.04582026,0.23800209,-0.4392478,0.22594437,0.07332908,-0.10013984,-0.027190551,-0.039485782,0.041316453,-0.07166731,0.016588986,0.06841591,0.066799894,0.054846086,0.016140671,-0.07012493,0.035804603,0.06448678,0.06145651,0.06145651,-0.080106415,-0.095252715,0.7116404,-0.07335961,-0.019469894,-0.025430553,-1.5989317,-0.028931618,-0.039377924,-0.038518958,-0.023268662,-0.023268662,0.039738078,0.040941823,0.81257606,0.02757603,-0.09980964,-0.07900459,-1.5721805,-0.002180457,0.011854425,0.0162289,0.012912375,0.012912375,0.10071293,0.07589698,0.7989832,0.01398319,0.062809534,0.06789611,-1.5381469,0.0318532,0.07489856,0.060810264,0.011915239,0.011915239,-0.01889487,0.007828868,0.8184887,0.03348869,-0.060123894,-0.06783412,-1.618571,-0.04857099
31,0.62,0.0,0.0,-0.14,0.0,0.0,0.0,0.0,0.0,-1.0,0.0,0.0,-0.2,0.06145651,-0.07335961,-0.028931618,-0.023268662,0.02757603,-0.002180457,0.012912375,0.01398319,0.0318532,0.011915239,0.03348869,-0.04857099,-0.18856785,0.20803665,-0.030971237,0.17579852,0.059746023,-0.03440716,0.19190119,-0.12362923,0.38175493,0.13560309,0.04037515,0.013368495,-0.37312597,0.30771342,0.27494797,-0.023752326,-0.1435548,-0.5799453,-0.1727174,0.4452594,-0.15735963,0.22803676,-0.49337596,0.22777848,0.06448678,-0.095252715,-0.025430553,-0.038518958,0.040941823,-0.07900459,0.0162289,0.07589698,0.06789611,0.060810264,0.007828868,-0.06783412,0.026581489,0.055016443,0.056787375,0.056787375,-0.07497315,-0.090367235,0.71649474,-0.06850529,-0.017009169,-0.023484185,-1.59897,-0.028970003,-0.040932886,-0.03826464,-0.019796127,-0.019796127,0.039276887,0.04047462,0.8134764,0.028476357,-0.10553979,-0.08634757,-1.574146,-0.00414598,0.009662151,0.01531136,0.016390283,0.016390283,0.10830487,0.0842161,0.7975342,0.012534201,0.058667343,0.06722206,-1.5308373,0.039162755,0.077403076,0.06627434,0.015170799,0.015170799,-0.026927263,-0.0013861945,0.818162,0.033161998,-0.057476763,-0.065314725,-1.6178079,-0.047807813
32,0.64,0.0,0.0,-0.14,0.0,0.0,0.0,0.0,0.0,-1.0,0.0,0.0,-0.2,0.056787375,-0.06850529,-0.028970003,-0.019796127,0.028476357,-0.00414598,0.016390283,0.012534201,0.039162755,0.015170799,0.033161998,-0.047807813,-0.23345672,0.24271643,-0.0019194707,0.17362674,0.0450168,-0.09827614,0.17389542,-0.07244798,0.36547977,0.16277802,-0.016334444,0.038161837,-0.35173813,0.2517888,0.27660593,-0.076192446,-0.15433289,-0.5753069,-0.22670135,0.50940573,-0.27156702,0.20607296,-0.5335141,0.22332592,0.055016443,-0.090367235,-0.023484185,-0.03826464,0.04047462,-0.08634757,0.01531136,0.0842161,0.06722206,0.06627434,-0.0013861945,-0.065314725,0.018043127,0.045440935,0.051261555,0.051261555,-0.070023485,-0.08525139,0.7219345,-0.06306553,-0.014111303,-0.021604009,-1.5984251,-0.028425097,-0.043137494,-0.03850663,-0.01647985,-0.01647985,0.03869688,0.040110167,0.81406224,0.029062212,-0.11022762,-0.09333124,-1.5773739,-0.00737381,0.007297769,0.0137674585,0.019390086,0.019390086,0.1150742,0.09251764,0.7972369,0.012236893,0.053076517,0.06567484,-1.5240955,0.045904517,0.07820623,0.07106213,0.01891511,0.01891511,-0.034157243,-0.010213537,0.8166271,0.03162706,-0.054847892,-0.062742166,-1.6165568,-0.04655671
33,0.66,0.0,0.0,-0.14,0.0,0.0,0.0,0.0,0.0,-1.0,0.0,0.0,-0.2,0.051261555,-0.06306553,-0.028425097,-0.01647985,0.029062212,-0.00737381,0.019390086,0.012236893,0.045904517,0.01891511,0.03162706,-0.04655671,-0.27629092,0.27198792,0.027245257,0.1658139,0.029291878,-0.16139382,0.14999017,-0.0148662105,0.3370852,0.18721555,-0.076747715,0.06255246,-0.31851196,0.1910429,0.26834646,-0.12728241,-0.15876043,-0.5479728,-0.2750968,0.55178374,-0.3776166,0.17224753,-0.5493671,0.21169329,0.045440935,-0.08525139,-0.021604009,-0.03850663,0.040110167,-0.09333124,0.0137674585,0.09251764,0.06567484,0.07106213,-0.010213537,-0.062742166,0.010815367,0.035804603,0.044944532,0.044944532,-0.06529034,-0.080106415,0.72783864,-0.05716139,-0.010727726,-0.019469894,-1.5973094,-0.027309299,-0.045812424,-0.039377924,-0.013432078,-0.013432078,0.03772201,0.039738078,0.8143246,0.029324591,-0.11354356,-0.09980964,-1.5818013,-0.011801243,0.0048199743,0.011854425,0.021809086,0.021809086,0.12041971,0.10071293,0.79817426,0.013174236,0.046435103,0.062809534,-1.5181549,0.051845193,0.07711137,0.07489856,0.023065299,0.023065299,-0.03995476,-0.01889487,0.8138545,0.02885449,-0.052309576,-0.060123894,-1.6148404,-0.044840336
34,0.68,0.0,0.0,-0.14,0.0,0.0,0.0,0.0,0.0,-1.0,0.0,0.0,-0.2,0.044944532,-0.05716139,-0.027309299,-0.013432078,0.029324591,-0.011801243,0.021809086,0.013174236,0.051845193,0.023065299,0.02885449,-0.044840336,-0.31585118,0.29520828,0.05578717,0.15238862,0.013118193,-0.22137375,0.120950066,0.046868388,0.29703128,0.20750944,-0.13862956,0.085816436,-0.27475008,0.1261271,0.25329536,-0.17630446,-0.15784809,-0.49897042,-0.31458503,0.57148117,-0.475563,0.12638901,-0.54351634,0.19354579,0.035804603,-0.080106415,-0.019469894,-0.039377924,0.039738078,-0.09980964,0.011854425,0.10071293,0.062809534,0.07489856,-0.01889487,-0.060123894,0.0050902516,0.026581489,0.03793044,0.03793044,-0.06105668,-0.07497315,0.7340772,-0.05092281,-0.006799102,-0.017009169,-1.5956477,-0.02564764,-0.04886539,-0.040932886,-0.010761794,-0.010761794,0.036236588,0.039276887,0.8142639,0.029263854,-0.11526459,-0.10553979,-1.5873184,-0.017318368,0.0023560524,0.009662151,0.023563841,0.023563841,0.12432948,0.10830487,0.80037606,0.015376031,0.038539674,0.058667343,-1.5132316,0.056768417,0.07396113,0.077403076,0.027508337,0.027508337,-0.044416767,-0.026927263,0.80986637,0.024866343,-0.049851764,-0.057476763,-1.6126946,-0.04269457
35,0.7000000000000001,0.0,0.0,-0.14,0.0,0.0,0.0,0.0,0.0,-1.0,0.0,0.0,-0.2,0.03793044,-0.05092281,-0.02564764,-0.010761794,0.029263854,-0.017318368,0.023563841,0.015376031,0.056768417,0.027508337,0.024866343,-0.04269457,-0.35070467,0.31192762,0.08308528,0.1335142,-0.003035592,-0.27585492,0.08773775,0.11009008,0.24616134,0.22215195,-0.19940704,0.10728875,-0.2188828,0.059016325,0.23274553,-0.2220315,-0.15248916,-0.42929706,-0.34359312,0.56537735,-0.562036,0.06801524,-0.51357585,0.16965465,0.026581489,-0.07497315,-0.017009169,-0.040932886,0.039276887,-0.10553979,0.009662151,0.10830487,0.058667343,0.077403076,-0.026927263,-0.057476763,0.0012586266,0.018043127,0.030341968,0.030341968,-0.057545952,-0.070023485,0.74051297,-0.04448706,-0.0024382249,-0.014111303,-1.5934741,-0.023474097,-0.052133042,-0.043137494,-0.008570846,-0.008570846,0.034078564,0.03869688,0.8138889,0.028888881,-0.11505782,-0.11022762,-1.5937691,-0.023769021,-9.641051e-05,0.007297769,0.02459358,0.02459358,0.12664713,0.1150742,0.8038169,0.018816888,0.029561365,0.053076517,-1.509522,0.06047809,0.06870842,0.07820623,0.032100257,0.032100257,-0.04733692,-0.034157243,0.8047354,0.019735396,-0.04746378,-0.054847892,-1.6101675,-0.04016745
36,0.72,0.0,0.0,-0.14,0.0,0.0,0.0,0.0,0.0,-1.0,0.0,0.0,-0.2,0.030341968,-0.04448706,-0.023474097,-0.008570846,0.028888881,-0.023769021,0.02459358,0.018816888,0.06047809,0.032100257,0.019735396,-0.04016745,-0.37942365,0.3217889,0.10867822,0.10954736,-0.01874847,-0.32253486,0.051486928,0.17204325,0.185485,0.229596,-0.25654864,0.12635726,-0.15141465,-0.009289801,0.20835619,-0.2627401,-0.14327279,-0.3402489,-0.36085862,0.53350145,-0.6357799,-0.0027522326,-0.4607502,0.14071694,0.018043127,-0.070023485,-0.014111303,-0.043137494,0.03869688,-0.11022762,0.007297769,0.1150742,0.053076517,0.07820623,-0.034157243,-0.054847892,-0.00036310405,0.010815367,0.022335023,0.022335023,-0.055153713,-0.06529034,0.7470059,-0.037994146,0.0020987615,-0.010727726,-1.5908297,-0.020829678,-0.055435445,-0.045812424,-0.006948178,-0.006948178,0.031168338,0.03772201,0.8132118,0.028211772,-0.112454824,-0.11354356,-1.6009533,-0.030953288,-0.0027282387,0.0048199743,0.024861958,0.024861958,0.12711626,0.12041971,0.8084103,0.02341026,0.019669496,0.046435103,-1.5071901,0.062809944,0.06138772,0.07711137,0.036669154,0.036669154,-0.048511896,-0.03995476,0.7985902,0.013590157,-0.045226324,-0.052309576,-1.6073183,-0.03731823
37,0.74,0.0,0.0,-0.14,0.0,0.0,0.0,0.0,0.0,-1.0,0.0,0.0,-0.2,0.022335023,-0.037994146,-0.020829678,-0.006948178,0.028211772,-0.030953288,0.024861958,0.02341026,0.062809944,0.036669154,0.013590157,-0.03731823,-0.40034732,0.3246465,0.13222075,0.08113341,-0.03385566,-0.3592125,0.013418831,0.22966985,0.116593905,0.22844489,-0.30726168,0.1424597,-0.070663765,-0.076739565,0.18134332,-0.29589525,-0.1326846,-0.23348923,-0.36594093,0.47395882,-0.69177514,-0.08403794,-0.38344994,0.10738572,0.010815367,-0.06529034,-0.010727726,-0.045812424,0.03772201,-0.11354356,0.0048199743,0.12041971,0.046435103,0.07711137,-0.03995476,-0.052309576,0.0007330403,0.0050902516,0.014095147,0.014095147,-0.054192014,-0.06105668,0.7534131,-0.031586945,0.006460227,-0.006799102,-1.5877597,-0.01775968,-0.05857278,-0.04886539,-0.005966148,-0.005966148,0.027365353,0.036236588,0.81224555,0.027245522,-0.10707841,-0.11526459,-1.6086321,-0.038632035,-0.005867414,0.0023560524,0.02435903,0.02435903,0.12541907,0.12432948,0.81401414,0.02901411,0.0091462415,0.038539674,-1.5063682,0.06363189,0.052092027,0.07396113,0.041019574,0.041019574,-0.047543615,-0.044416767,0.79160666,0.0066066384,-0.04318214,-0.049851764,-1.604215,-0.034214973
38,0.76,0.0,0.0,-0.14,0.0,0.0,0.0,0.0,0.0,-1.0,0.0,0.0,-0.2,0.014095147,-0.031586945,-0.01775968,-0.005966148,0.027245522,-0.038632035,0.02435903,0.02901411,0.06363189,0.041019574,0.0066066384,-0.034214973,-0.4119938,0.32035944,0.15349801,0.049101517,-0.0483124,-0.3839383,-0.025146402,0.2801935,0.041100018,0.21752091,-0.3491763,0.15516457,0.021196555,-0.14324246,0.15301403,-0.3200155,-0.121879,-0.11203551,-0.3583229,0.39031306,-0.7303431,-0.17338458,-0.28645235,0.07104404,0.0050902516,-0.06105668,-0.006799102,-0.04886539,0.036236588,-0.11526459,0.0023560524,0.12432948,0.038539674,0.07396113,-0.044416767,-0.049851764,0.0046901703,0.0012586266,0.0058363583,0.0058363583,-0.05476357,-0.057545952,0.75958997,-0.025410056,0.010310657,-0.0024382249,-1.584314,-0.014313936,-0.061261754,-0.052133042,-0.005676431,-0.005676431,0.022675958,0.034078564,0.811001,0.026000977,-0.098944984,-0.11505782,-1.6165316,-0.046531558,-0.009710133,-9.641051e-05,0.023100218,0.023100218,0.121726885,0.12664713,0.8204357,0.035435677,-0.0017505308,0.029561365,-1.5071505,0.06284952,0.041017737,0.06870842,0.04493918,0.04493918,-0.044299573,-0.04733692,0.7840035,-0.00099653,-0.04129784,-0.04746378,-1.6009314,-0.030931354
39,0.78,0.0,0.0,-0.14,0.0,0.0,0.0,0.0,0.0,-1.0,0.0,0.0,-0.2,0.0058363583,-0.025410056,-0.014313936,-0.005676431,0.026000977,-0.046531558,0.023100218,0.035435677,0.06284952,0.04493918,-0.00099653,-0.030931354,-0.41293946,0.30884385,0.17228796,0.014485847,-0.062226735,-0.39497632,-0.06294066,0.32107896,-0.03911698,0.19598028,-0.38015765,0.16417918,0.123157,-0.20822823,0.123372555,-0.33348435,-0.11227348,0.021531438,-0.33890444,0.2856666,-0.7495436,-0.26734966,-0.17267218,0.033100914,0.0012586266,-0.057545952,-0.0024382249,-0.052133042,0.034078564,-0.11505782,-9.641051e-05,0.12664713,0.029561365,0.06870842,-0.04733692,-0.04746378,0.0114834085,-0.00036310405,-0.0022020647,-0.0022020647,-0.056995027,-0.055153713,0.76538867,-0.019611359,0.013335638,0.0020987615,-1.5805489,-0.01054883,-0.06310569,-0.055435445,-0.0061065215,-0.0061065215,0.017165694,0.031168338,0.8094854,0.02448535,-0.08820257,-0.112454824,-1.6243464,-0.054346323,-0.014607012,-0.0027282387,0.021121487,0.021121487,0.11643656,0.12711626,0.82743615,0.042436123,-0.012433963,0.019669496,-1.5095903,0.060409784,0.028984677,0.06138772,0.048206955,0.048206955,-0.038923323,-0.048511896,0.7760362,-0.008963823,-0.03970014,-0.045226324,-1.5975459,-0.02754581
40,0.8,0.0,0.0,-0.14,0.0,0.0,0.0,0.0,0.0,-1.0,0.0,0.0,-0.2,-0.0022020647,-0.019611359,-0.01054883,-0.0061065215,0.02448535,-0.054346323,0.021121487,0.042436123,0.060409784,0.048206955,-0.008963823,-0.02754581,-0.40192115,0.28993475,0.1882549,-0.02150451,-0.075782284,-0.39074093,-0.098936565,0.35002097,-0.121984735,0.16338876,-0.3983648,0.1692793,0.2332888,-0.27241546,0.091444224,-0.33502695,-0.10452771,0.1652725,-0.31030142,0.16294213,-0.7482079,-0.3619039,-0.045491327,-0.0057173846,-0.00036310405,-0.055153713,0.0020987615,-0.055435445,0.031168338,-0.112454824,-0.0027282387,0.12711626,0.019669496,0.06138772,-0.048511896,-0.045226324,0.021076757,0.0007330403,-0.009756371,-0.009756371,-0.06129264,-0.054192014,0.7706579,-0.014342129,0.015237197,0.006460227,-1.5765312,-0.0065311193,-0.06397475,-0.05857278,-0.0072568627,-0.0072568627,0.010721516,0.027365353,0.8076998,0.022699773,-0.07489547,-0.10707841,-1.6317446,-0.06174457,-0.020936474,-0.005867414,0.018471926,0.018471926,0.11009929,0.12541907,0.8347353,0.049735248,-0.021715762,0.0091462415,-1.5136948,0.05630529,0.017387766,0.052092027,0.05060219,0.05060219,-0.032056667,-0.047543615,0.7679934,-0.017006636,-0.038789842,-0.04318214,-1.594139,-0.024138927
41,0.8200000000000001,0.0,0.0,-0.14,0.0,0.0,0.0,0.0,0.0,-1.0,0.0,0.0,-0.2,-0.009756371,-0.014342129,-0.0065311193,-0.0072568627,0.022699773,-0.06174457,0.018471926,0.049735248,0.05630529,0.05060219,-0.017006636,-0.024138927,-0.37771535,0.26346254,0.20088843,-0.057517074,-0.08927747,-0.36991242,-0.13247804,0.36495733,-0.20522419,0.11976182,-0.40213937,0.17034292,0.35082394,-0.33579373,0.05573522,-0.32371387,-0.09963502,0.31624284,-0.27625114,0.02510953,-0.7251028,-0.4527797,0.0928267,-0.0444057,0.0007330403,-0.054192014,0.006460227,-0.05857278,0.027365353,-0.10707841,-0.005867414,0.12541907,0.0091462415,0.052092027,-0.047543615,-0.04318214,0.03339619,0.0046901703,-0.016545717,-0.016545717,-0.06770517,-0.05476357,0.77524644,-0.009753585,0.015428804,0.010310657,-1.5723404,-0.0023403168,-0.063902214,-0.061261754,-0.009097655,-0.009097655,0.0034374036,0.022675958,0.8056399,0.020639896,-0.05932782,-0.098944984,-1.6383803,-0.06838024,-0.028635763,-0.009710133,0.01520838,0.01520838,0.10317448,0.121726885,0.8420256,0.05702555,-0.028973954,-0.0017505308,-1.5194238,0.05057621,0.00694928,0.041017737,0.051914677,0.051914677,-0.023832686,-0.044299573,0.76018816,-0.024811864,-0.038680363,-0.04129784,-1.5907907,-0.020790696
42,0.84,0.0,0.0,-0.14,0.0,0.0,0.0,0.0,0.0,-1.0,0.0,0.0,-0.2,-0.016545717,-0.009753585,-0.0023403168,-0.009097655,0.020639896,-0.06838024,0.01520838,0.05702555,0.05057621,0.051914677,-0.024811864,-0.020790696,-0.33946726,0.22942598,0.20954232,-0.092039645,-0.10299244,-0.3317814,-0.16317733,0.36451456,-0.28645182,0.065624416,-0.39026147,0.16740973,0.47198644,-0.3967641,0.015159106,-0.2985117,-0.09733419,0.46841526,-0.23942646,-0.120851144,-0.6799972,-0.53530514,0.23772374,-0.08143703,0.0046901703,-0.05476357,0.010310657,-0.061261754,0.022675958,-0.098944984,-0.009710133,0.121726885,-0.0017505308,0.041017737,-0.044299573,-0.04129784,0.04768809,0.0114834085,-0.022282397,-0.022282397,-0.076165445,-0.056995027,0.7790057,-0.00599432,0.013396241,0.013335638,-1.5680708,0.0019292831,-0.062891126,-0.06310569,-0.011564975,-0.011564975,-0.0040078275,0.017165694,0.8032972,0.018297195,-0.042628817,-0.08820257,-1.6439072,-0.07390714,-0.03724111,-0.014607012,0.011387631,0.011387631,0.09609059,0.11643656,0.84898955,0.06398952,-0.03332106,-0.012433963,-1.5266838,0.043316245,-0.0017687636,0.028984677,0.051964026,0.051964026,-0.014273778,-0.038923323,0.7529444,-0.032055616,-0.039485846,-0.03970014,-1.5875798,-0.017579794
43,0.86,0.0,0.0,-0.14,0.0,0.0,0.0,0.0,0.0,-1.0,0.0,0.0,-0.2,-0.022282397,-0.00599432,0.0019292831,-0.011564975,0.018297195,-0.07390714,0.011387631,0.06398952,0.043316245,0.051964026,-0.032055616,-0.017579794,-0.28683403,0.1879644,0.21347827,-0.12336597,-0.117134124,-0.2763459,-0.19103748,0.34819722,-0.36299837,0.002467461,-0.36218813,0.16054434,0.59180266,-0.45403337,-0.030922031,-0.25812292,-0.09686278,0.61506736,-0.20353946,-0.26643813,-0.6110328,-0.6007807,0.38259688,-0.11659572,0.0114834085,-0.056995027,0.013335638,-0.06310569,0.017165694,-0.08820257,-0.014607012,0.11643656,-0.012433963,0.028984677,-0.038923323,-0.03970014,0.0636228,0.021076757,-0.026681978,-0.026681978,-0.08638433,-0.06129264,0.7817882,-0.003211856,0.008892469,0.015237197,-1.5638326,0.006167412,-0.061411362,-0.06397475,-0.014562445,-0.014562445,-0.010545105,0.010721516,0.8006577,0.015657663,-0.026019461,-0.07489547,-1.6479911,-0.07799101,-0.046374634,-0.020936474,0.0070585315,0.0070585315,0.08881764,0.11009929,0.8553192,0.070319176,-0.034571912,-0.021715762,-1.5353143,0.03468573,-0.00840706,0.017387766,0.050626263,0.050626263,-0.0037650466,-0.032056667,0.7465757,-0.038424313,-0.041309077,-0.038789842,-1.5845876,-0.014587522
44,0.88,0.0,0.0,-0.14,0.0,0.0,0.0,0.0,0.0,-1.0,0.0,0.0,-0.2,-0.026681978,-0.003211856,0.006167412,-0.014562445,0.015657663,-0.07799101,0.0070585315,0.070319176,0.03468573,0.050626263,-0.038424313,-0.014587522,-0.21997908,0.13912296,0.21190718,-0.14987351,-0.13197568,-0.2041935,-0.216455,0.3164836,-0.43152714,-0.06688814,-0.31843507,0.149613,0.70551527,-0.508513,-0.082735434,-0.20386216,-0.09876226,0.7507898,-0.17220078,-0.4025541,-0.51293516,-0.637474,0.51755303,-0.15172414,0.021076757,-0.06129264,0.015237197,-0.06397475,0.010721516,-0.07489547,-0.020936474,0.11009929,-0.021715762,0.017387766,-0.032056667,-0.038789842,0.08073304,0.03339619,-0.029473418,-0.029473418,-0.097903214,-0.06770517,0.783451,-0.0015490055,0.0024468824,0.015428804,-1.5597569,0.010243177,-0.060206365,-0.063902214,-0.017966479,-0.017966479,-0.015509818,0.0034374036,0.7977041,0.012704074,-0.01083013,-0.05932782,-1.6503242,-0.08032417,-0.055150107,-0.028635763,0.0022618412,0.0022618412,0.08150741,0.10317448,0.860733,0.07573295,-0.033596076,-0.028973954,-1.5450869,0.024913192,-0.012982305,0.00694928,0.047846537,0.047846537,0.0071655363,-0.023832686,0.7413737,-0.04362631,-0.044031132,-0.038680363,-1.581897,-0.011896968
45,0.9,0.0,0.0,-0.14,0.0,0.0,0.0,0.0,0.0,-1.0,0.0,0.0,-0.2,-0.029473418,-0.0015490055,0.010243177,-0.017966479,0.012704074,-0.08032417,0.0022618412,0.07573295,0.024913192,0.047846537,-0.04362631,-0.011896968,-0.139572,0.08314166,0.20378698,-0.17020169,-0.14767924,-0.11666049,-0.23983452,0.2706883,-0.4886272,-0.13898632,-0.26010057,0.13452813,0.8085302,-0.558428,-0.14235409,-0.1386532,-0.10192637,0.8688943,-0.14535831,-0.5216757,-0.38608992,-0.6404572,0.6374098,-0.1863551,0.03339619,-0.06770517,0.015428804,-0.063902214,0.0034374036,-0.05932782,-0.028635763,0.10317448,-0.028973954,0.00694928,-0.023832686,-0.038680363,0.09846788,0.04768809,-0.030419128,-0.030419128,-0.11036178,-0.076165445,0.78386164,-0.0011383891,-0.0055491924,0.013396241,-1.5559983,0.014001727,-0.059767697,-0.062891126,-0.021631641,-0.021631641,-0.018426612,-0.0040078275,0.7944275,0.009427488,0.0020597465,-0.042628817,-1.6506524,-0.080652356,-0.06264229,-0.03724111,-0.002963251,-0.002963251,0.07456173,0.09609059,0.86499006,0.07999003,-0.030924404,-0.03332106,-1.5557011,0.014298916,-0.015779875,-0.0017687636,0.043646406,0.043646406,0.017964251,-0.014273778,0.7375995,-0.047400534,-0.047448386,-0.039485846,-1.5795921,-0.009592056
46,0.92,0.0,0.0,-0.14,0.0,0.0,0.0,0.0,0.0,-1.0,0.0,0.0,-0.2,-0.030419128,-0.0011383891,0.014001727,-0.021631641,0.009427488,-0.080652356,-0.002963251,0.07999003,0.014298916,0.043646406,-0.047400534,-0.009592056,-0.04728546,0.020530634,0.18792556,-0.18325815,-0.16382805,-0.016411804,-0.2612546,0.21285361,-0.53071386,-0.21000648,-0.18871246,0.11524813,0.8918535,-0.60137457,-0.21082032,-0.065393664,-0.10098831,0.95761347,-0.11988957,-0.61754286,-0.22999486,-0.6074893,0.7385747,-0.22003861,0.04768809,-0.076165445,0.013396241,-0.062891126,-0.0040078275,-0.042628817,-0.03724111,0.09609059,-0.03332106,-0.0017687636,-0.014273778,-0.039485846,0.11589027,0.0636228,-0.029326174,-0.029326174,-0.12260508,-0.08638433,0.782906,-0.0020940304,-0.014347881,0.008892469,-1.5527335,0.017266512,-0.06018618,-0.061411362,-0.025403915,-0.025403915,-0.01908588,-0.010545105,0.7908444,0.0058443546,0.011720456,-0.026019461,-1.6487997,-0.078799605,-0.068146676,-0.046374634,-0.008574259,-0.008574259,0.06776074,0.08881764,0.86789566,0.08289564,-0.026953496,-0.034571912,-1.5667955,0.0032045841,-0.016907856,-0.00840706,0.038125087,0.038125087,0.02845487,-0.0037650466,0.73547053,-0.049529493,-0.0510134,-0.041309077,-1.5777564,-0.0077563524
47,0.9400000000000001,0.0,0.0,-0.14,0.0,0.0,0.0,0.0,0.0,-1.0,0.0,0.0,-0.2,-0.029326174,-0.0020940304,0.017266512,-0.025403915,0.0058443546,-0.078799605,-0.008574259,0.08289564,0.0032045841,0.038125087,-0.049529493,-0.0077563524,0.054647654,-0.047781907,0.16324055,-0.1886137,-0.17915674,0.09263689,-0.2805504,0.14528096,-0.55471396,-0.27606606,-0.10644797,0.09178572,0.95087737,-0.6336789,-0.28674418,0.009478593,-0.08829238,1.0063187,-0.093533754,-0.6884299,-0.050491452,-0.5392249,0.81557596,-0.25226417,0.0636228,-0.08638433,0.008892469,-0.061411362,-0.010545105,-0.026019461,-0.046374634,0.08881764,-0.034571912,-0.00840706,-0.0037650466,-0.041309077,0.13186191,0.08073304,-0.026057703,-0.026057703,-0.13318494,-0.097903214,0.7804987,-0.004501343,-0.023150235,0.0024468824,-1.5501454,0.019854665,-0.061275747,-0.060206365,-0.029137952,-0.029137952,-0.0176146,-0.015509818,0.78700525,0.0020052195,0.017663844,-0.01083013,-1.6446912,-0.07469118,-0.07095857,-0.055150107,-0.014512742,-0.014512742,0.060825534,0.08150741,0.86930746,0.08430743,-0.02211995,-0.033596076,-1.5779752,-0.0079751015,-0.016662486,-0.012982305,0.031452112,0.031452112,0.038449995,0.0071655363,0.7351476,-0.04985243,-0.053961355,-0.044031132,-1.5764688,-0.006468773
48,0.96,0.0,0.0,-0.14,0.0,0.0,0.0,0.0,0.0,-1.0,0.0,0.0,-0.2,-0.026057703,-0.004501343,0.019854665,-0.029137952,0.0020052195,-0.07469118,-0.014512742,0.08430743,-0.0079751015,0.031452112,-0.04985243,-0.006468773,0.16342358,-0.120364964,0.12940961,-0.18670183,-0.19195774,0.20542029,-0.29692414,0.07058985,-0.55898243,-0.33364874,-0.016145945,0.06438169,0.98107576,-0.6510221,-0.36280432,0.077907234,-0.060183395,1.0057074,-0.060534917,-0.73215425,0.13832453,-0.44026795,0.8630363,-0.28093964,0.08073304,-0.097903214,0.0024468824,-0.060206365,-0.015509818,-0.01083013,-0.055150107,0.08150741,-0.033596076,-0.012982305,0.0071655363,-0.044031132,0.14487621,0.09846788,-0.020543324,-0.020543324,-0.14078438,-0.11036178,0.77659,-0.008410037,-0.031169422,-0.0055491924,-1.5484108,0.02158928,-0.06237402,-0.059767697,-0.032709155,-0.032709155,-0.014313694,-0.018426612,0.78299904,-0.0020009875,0.020104427,0.0020597465,-1.6383651,-0.0683651,-0.07030607,-0.06264229,-0.02069217,-0.02069217,0.053756773,0.07456173,0.86914384,0.08414382,-0.01698897,-0.030924404,-1.5888354,-0.018835306,-0.015477769,-0.015779875,0.02385384,0.02385384,0.047356762,0.017964251,0.73672354,-0.048276484,-0.055577535,-0.047448386,-1.5757978,-0.005797744
49,0.98,0.0,0.0,-0.14,0.0,0.0,0.0,0.0,0.0,-1.0,0.0,0.0,-0.2,-0.020543324,-0.008410037,0.02158928,-0.032709155,-0.0020009875,-0.0683651,-0.02069217,0.08414382,-0.018835306,0.02385384,-0.048276484,-0.005797744,0.27571902,-0.19543402,0.08673231,-0.17856018,-0.20030953,0.3163029,-0.30897138,-0.008182161,-0.5430126,-0.37991357,0.07879663,0.033553924,0.97857666,-0.65061694,-0.43318814,0.134485,-0.015242684,0.9521677,-0.015577924,-0.7457163,0.32547665,-0.3179437,0.8767394,-0.30360025,0.09846788,-0.11036178,-0.0055491924,-0.059767697,-0.018426612,0.0020597465,-0.06264229,0.07456173,-0.030924404,-0.015779875,0.017964251,-0.047448386,0.15367055,0.11589027,-0.012793032,-0.012793032,-0.14424339,-0.12260508,0.7711842,-0.01381582,-0.03757585,-0.014347881,-1.5476832,0.022316813,-0.06273693,-0.06018618,-0.036018085,-0.036018085,-0.009562548,-0.01908588,0.7789518,-0.0060482025,0.019272774,0.011720456,-1.6299802,-0.059980154,-0.06550872,-0.068146676,-0.026990823,-0.026990823,0.046610232,0.06776074,0.86737996,0.08237994,-0.01189236,-0.026953496,-1.5989811,-0.02898109,-0.0135629475,-0.016907856,0.015601634,0.015601634,0.054587673,0.02845487,0.7402208,-0.04477924,-0.05546766,-0.0510134,-1.575791,-0.005790949
50,1.0,0.0,0.0,-0.14,0.0,0.0,0.0,0.0,0.0,-1.0,0.0,0.0,-0.2,-0.012793032,-0.01381582,0.022316813,-0.036018085,-0.0060482025,-0.059980154,-0.026990823,0.08237994,-0.02898109,0.015601634,-0.04477924,-0.005790949,0.3875146,-0.27029032,0.03637462,-0.16544648,-0.20236118,0.41924822,-0.31493267,-0.088194594,-0.5072883,-0.41261032,0.1748631,0.0003418438,0.9380533,-0.6246424,-0.4900387,0.17752314,0.04526476,0.8438217,0.04414611,-0.73189604,0.5017139,-0.17858383,0.8566755,-0.3156235,0.11589027,-0.12260508,-0.014347881,-0.06018618,-0.01908588,0.011720456,-0.068146676,0.06776074,-0.026953496,-0.016907856,0.02845487,-0.0510134,0.15750892,0.13186191,-0.002911088,-0.002911088,-0.14297768,-0.13318494,0.76435983,-0.020640194,-0.04189627,-0.023150235,-1.5480766,0.021923423,-0.061905477,-0.061275747,-0.038989402,-0.038989402,-0.0039677992,-0.0176146,0.7750187,-0.009981334,0.015505262,0.017663844,-1.6198125,-0.049812436,-0.056557506,-0.07095857,-0.033246174,-0.033246174,0.039351232,0.060825534,0.8640413,0.0790413,-0.0069567803,-0.02211995,-1.6080462,-0.03804612,-0.011031944,-0.016662486,0.0069961865,0.0069961865,0.0601155,0.038449995,0.74559134,-0.039408684,-0.053651575,-0.053961355,-1.5764626,-0.006462574
51,1.02,0.0,0.0,-0.14,0.0,0.0,0.0,0.0,0.0,-1.0,0.0,0.0,-0.2,-0.002911088,-0.020640194,0.021923423,-0.038989402,-0.009981334,-0.049812436,-0.033246174,0.0790413,-0.03804612,0.0069961865,-0.039408684,-0.006462574,0.49409723,-0.3412184,-0.019671176,-0.14856581,-0.19665769,0.50838524,-0.31276757,-0.16693228,-0.4532501,-0.4302724,0.26852673,-0.03357875,0.8544241,-0.564627,-0.5261408,0.20790736,0.11711337,0.684118,0.12065401,-0.69459,0.65840304,-0.030102681,0.80387557,-0.31149966,0.13186191,-0.13318494,-0.023150235,-0.061275747,-0.0176146,0.017663844,-0.07095857,0.060825534,-0.02211995,-0.016662486,0.038449995,-0.053961355,0.15621527,0.14487621,0.008887934,0.008887934,-0.13737297,-0.14078438,0.7562846,-0.028715432,-0.043960825,-0.031169422,-1.5496507,0.020349383,-0.059652377,-0.06237402,-0.041562475,-0.041562475,0.0020130165,-0.014313694,0.77137256,-0.01362747,0.009091228,0.020104427,-1.6082375,-0.038237453,-0.04393263,-0.07030607,-0.039249778,-0.039249778,0.032215286,0.053756773,0.8592004,0.07420039,-0.0017907565,-0.01698897,-1.6157123,-0.045712233,-0.0076727155,-0.015477769,-0.0016505113,-0.0016505113,0.063938394,0.047356762,0.75271213,-0.032287896,-0.050759193,-0.055577535,-1.5777831,-0.0077830553
52,1.04,0.0,0.0,-0.14,0.0,0.0,0.0,0.0,0.0,-1.0,0.0,0.0,-0.2,0.008887934,-0.028715432,0.020349383,-0.041562475,-0.01362747,-0.038237453,-0.039249778,0.07420039,-0.045712233,-0.0016505113,-0.032287896,-0.0077830553,0.5899511,-0.40376067,-0.078700624,-0.1286537,-0.18230563,0.5787494,-0.30018017,-0.24204628,-0.383305,-0.4323349,0.35603967,-0.06602171,0.7218272,-0.4649478,-0.5355951,0.23033428,0.19468275,0.48325977,0.21563797,-0.6361285,0.78713626,0.11875348,0.7174403,-0.28708038,0.14487621,-0.14078438,-0.031169422,-0.06237402,-0.014313694,0.020104427,-0.07030607,0.053756773,-0.01698897,-0.015477769,0.047356762,-0.055577535,0.15096954,0.15367055,0.02227132,0.02227132,-0.12888664,-0.14424339,0.74722415,-0.037775874,-0.044094957,-0.03757585,-1.5523983,0.017601728,-0.055907603,-0.06273693,-0.043680687,-0.043680687,0.008358981,-0.009562548,0.7681918,-0.016808212,0.00060199946,0.019272774,-1.5957093,-0.025709271,-0.029136945,-0.06550872,-0.04474535,-0.04474535,0.025213772,0.046610232,0.85297287,0.06797284,0.0045561325,-0.01189236,-1.6217226,-0.051722527,-0.0030772346,-0.0135629475,-0.010029065,-0.010029065,0.06631221,0.054587673,0.7613835,-0.023616552,-0.048118677,-0.05546766,-1.5796759,-0.00967586
53,1.06,0.0,0.0,-0.14,0.0,0.0,0.0,0.0,0.0,-1.0,0.0,0.0,-0.2,0.02227132,-0.037775874,0.017601728,-0.043680687,-0.016808212,-0.025709271,-0.04474535,0.06797284,-0.051722527,-0.010029065,-0.023616552,-0.00967586,0.6691693,-0.45302263,-0.13738537,-0.1059106,-0.1590364,0.6264101,-0.2747785,-0.3113764,-0.30051404,-0.4189277,0.4335685,-0.09464182,0.53843856,-0.3230216,-0.51354265,0.24995086,0.27194965,0.2523257,0.32924503,-0.55899537,0.88267887,0.26142532,0.5977823,-0.24160616,0.15367055,-0.14424339,-0.03757585,-0.06273693,-0.009562548,0.019272774,-0.06550872,0.046610232,-0.01189236,-0.0135629475,0.054587673,-0.05546766,0.14379996,0.15750892,0.036792997,0.036792997,-0.1195207,-0.14297768,0.7375379,-0.047462106,-0.043086395,-0.04189627,-1.5562422,0.013757825,-0.050345454,-0.061905477,-0.045285694,-0.045285694,0.014964301,-0.0039677992,0.7656445,-0.019355536,-0.00894374,0.015505262,-1.5827367,-0.012736678,-0.013712719,-0.056557506,-0.049439207,-0.049439207,0.018469417,0.039351232,0.8455112,0.06051117,0.012962466,-0.0069567803,-1.6258886,-0.055888534,0.0023401421,-0.011031944,-0.017844273,-0.017844273,0.06785562,0.0601155,0.7713389,-0.013661146,-0.04698639,-0.053651575,-1.5820229,-0.012022853
54,1.08,0.0,0.0,-0.14,0.0,0.0,0.0,0.0,0.0,-1.0,0.0,0.0,-0.2,0.036792997,-0.047462106,0.013757825,-0.045285694,-0.019355536,-0.012736678,-0.049439207,0.06051117,-0.055888534,-0.017844273,-0.013661146,-0.012022853,0.7260839,-0.48431227,-0.19219594,-0.08025035,-0.12736565,0.6486287,-0.234693,-0.37308314,-0.20829776,-0.39076036,0.49776894,-0.11734961,0.3083415,-0.1422719,-0.459198,0.26945248,0.3416293,0.003515005,0.45591372,-0.4668274,0.9427109,0.39263302,0.4506175,-0.17817211,0.15750892,-0.14297768,-0.04189627,-0.061905477,-0.0039677992,0.015505262,-0.056557506,0.039351232,-0.0069567803,-0.011031944,0.0601155,-0.053651575,0.13704944,0.15621527,0.05191066,0.05191066,-0.11064165,-0.13737297,0.7276568,-0.057343245,-0.04233224,-0.043960825,-1.5610375,0.008962512,-0.04264521,-0.059652377,-0.04631575,-0.04631575,0.02165426,0.0020130165,0.76387614,-0.021123886,-0.01849109,0.009091228,-1.5698597,0.00014030933,0.0017300248,-0.04393263,-0.05301924,-0.05301924,0.01210317,0.032215286,0.8370017,0.052001655,0.023827255,-0.0017907565,-1.6280864,-0.058086395,0.006986682,-0.0076727155,-0.024820466,-0.024820466,0.06998569,0.063938394,0.78225666,-0.0027433634,-0.047734607,-0.050759193,-1.58468,-0.014679909
55,1.1,0.0,0.0,-0.14,0.0,0.0,0.0,0.0,0.0,-1.0,0.0,0.0,-0.2,0.05191066,-0.057343245,0.008962512,-0.04631575,-0.021123886,0.00014030933,-0.05301924,0.052001655,-0.058086395,-0.024820466,-0.0027433634,-0.014679909,0.7558831,-0.49405566,-0.23976731,-0.051502623,-0.08841814,0.6438489,-0.17900173,-0.42547467,-0.10989383,-0.3488097,0.545889,-0.13285282,0.041209985,0.06553598,-0.375203,0.28958425,0.398295,-0.2514403,0.58634764,-0.36156723,0.9700031,0.51015055,0.28245634,-0.104767665,0.15621527,-0.13737297,-0.043960825,-0.059652377,0.0020130165,0.009091228,-0.04393263,0.032215286,-0.0017907565,-0.0076727155,0.063938394,-0.050759193,0.13262947,0.15096954,0.06702681,0.06702681,-0.102819465,-0.12888664,0.7180425,-0.06695753,-0.042868085,-0.044094957,-1.5665854,0.003414631,-0.03266037,-0.055907603,-0.046706717,-0.046706717,0.027904142,0.008358981,0.7630059,-0.021994114,-0.026610486,0.00060199946,-1.5576215,0.012378573,0.016356893,-0.029136945,-0.055189848,-0.055189848,0.006997736,0.025213772,0.82765704,0.042657018,0.03710587,0.0045561325,-1.6282427,-0.05824268,0.009986386,-0.0030772346,-0.030702831,-0.030702831,0.073264636,0.06631221,0.79377735,0.00877732,-0.049401958,-0.048118677,-1.5875043,-0.017504215
56,1.12,0.0,0.0,-0.14,0.0,0.0,0.0,0.0,0.0,-1.0,0.0,0.0,-0.2,0.06702681,-0.06695753,0.003414631,-0.046706717,-0.021994114,0.012378573,-0.055189848,0.042657018,-0.05824268,-0.030702831,0.00877732,-0.017504215,0.7558075,-0.48071295,-0.277395,-0.019548379,-0.043511856,0.61191356,-0.10853042,-0.4672326,-0.0078159645,-0.29411826,0.5760337,-0.1412172,-0.2425764,0.28058437,-0.2686969,0.30982083,0.4405334,-0.4991979,0.70420724,-0.24718623,0.97224027,0.61368656,0.102043584,-0.034272682,0.15096954,-0.12888664,-0.044094957,-0.055907603,0.008358981,0.00060199946,-0.029136945,0.025213772,0.0045561325,-0.0030772346,0.06631221,-0.048118677,0.12806495,0.14379996,0.081543095,0.081543095,-0.09692291,-0.1195207,0.7091392,-0.0758608,-0.04413656,-0.043086395,-1.5726546,-0.0026545525,-0.021990176,-0.050345454,-0.04638905,-0.04638905,0.032645244,0.014964301,0.76312244,-0.021877587,-0.034488708,-0.00894374,-1.5465343,0.023465753,0.029281124,-0.013712719,-0.055705253,-0.055705253,0.0055702524,0.018469417,0.8177101,0.032710075,0.050549958,0.012962466,-1.6263201,-0.05632007,0.012599083,0.0023401421,-0.035271145,-0.035271145,0.075649895,0.06785562,0.8055268,0.020526767,-0.050401438,-0.04698639,-1.590379,-0.020378947
57,1.1400000000000001,0.0,0.0,-0.14,0.0,0.0,0.0,0.0,0.0,-1.0,0.0,0.0,-0.2,0.081543095,-0.0758608,-0.0026545525,-0.04638905,-0.021877587,0.023465753,-0.055705253,0.032710075,-0.05632007,-0.035271145,0.020526767,-0.020378947,0.7258142,-0.4451618,-0.3034577,0.015883423,0.0058257915,0.5543571,-0.025770314,-0.49734664,0.09613318,-0.2284157,0.5874728,-0.14373867,-0.51719695,0.48018837,-0.15048863,0.33151945,0.46684322,-0.724181,0.79446745,-0.12693226,0.95675516,0.69726735,-0.07931991,0.022041762,0.14379996,-0.1195207,-0.043086395,-0.050345454,0.014964301,-0.00894374,-0.013712719,0.018469417,0.012962466,0.0023401421,0.06785562,-0.04698639,0.12201876,0.13704944,0.09491698,0.09491698,-0.093300134,-0.11064165,0.7013384,-0.083661616,-0.045456745,-0.04233224,-1.5790126,-0.00901258,-0.012199026,-0.04264521,-0.04528514,-0.04528514,0.036003467,0.02165426,0.76427966,-0.020720363,-0.04317385,-0.01849109,-1.5370482,0.03295183,0.039736524,0.0017300248,-0.05438464,-0.05438464,0.00867196,0.01210317,0.80740744,0.022407413,0.06278629,0.023827255,-1.6223102,-0.05231011,0.016401539,0.006986682,-0.03837058,-0.03837058,0.07518756,0.06998569,0.81715167,0.03215164,-0.05007555,-0.047734607,-1.5932217,-0.023221612
58,1.16,0.0,0.0,-0.14,0.0,0.0,0.0,0.0,0.0,-1.0,0.0,0.0,-0.2,0.09491698,-0.083661616,-0.00901258,-0.04528514,-0.020720363,0.03295183,-0.05438464,0.022407413,-0.05231011,-0.03837058,0.03215164,-0.023221612,0.66869414,-0.3900397,-0.31790328,0.055195566,0.057862036,0.47430122,0.06603063,-0.51513284,0.20050049,-0.15497173,0.58124495,-0.14213303,-0.75662315,0.6484729,-0.03550446,0.35580277,0.4758288,-0.9123081,0.85097915,-0.0041265725,0.92733,0.7473086,-0.24516273,0.06073631,0.13704944,-0.11064165,-0.04233224,-0.04264521,0.02165426,-0.01849109,0.0017300248,0.01210317,0.023827255,0.006986682,0.06998569,-0.047734607,0.11491376,0.13262947,0.106706895,0.106706895,-0.09086131,-0.102819465,0.6949597,-0.090040326,-0.04648389,-0.042868085,-1.5854503,-0.015450239,-0.003664611,-0.03266037,-0.043309864,-0.043309864,0.03827894,0.027904142,0.76648855,-0.018511474,-0.052575745,-0.026610486,-1.5295167,0.040483356,0.04803285,0.016356893,-0.05112804,-0.05112804,0.014825184,0.006997736,0.79701483,0.012014806,0.07429351,0.03710587,-1.616233,-0.04623294,0.021105804,0.009986386,-0.0399274,-0.0399274,0.07293489,0.073264636,0.8283387,0.043338656,-0.048734445,-0.049401958,-1.5959696,-0.025969505
59,1.18,0.0,0.0,-0.14,0.0,0.0,0.0,0.0,0.0,-1.0,0.0,0.0,-0.2,0.106706895,-0.090040326,-0.015450239,-0.043309864,-0.018511474,0.040483356,-0.05112804,0.012014806,-0.04623294,-0.0399274,0.043338656,-0.025969505,0.58949584,-0.31893468,-0.3218825,0.09876372,0.11044484,0.37657493,0.16283004,-0.5196299,0.30385628,-0.07784111,0.55935174,-0.1373934,-0.9410225,0.777557,0.06519997,0.38229302,0.4641944,-1.0489042,0.86748886,0.12355969,0.8846453,0.75765,-0.38697758,0.0889928,0.13262947,-0.102819465,-0.042868085,-0.03266037,0.027904142,-0.026610486,0.016356893,0.006997736,0.03710587,0.009986386,0.073264636,-0.049401958,0.10698545,0.12806495,0.116541736,0.116541736,-0.08822096,-0.09692291,0.6902305,-0.09476954,-0.04664644,-0.04413656,-1.5917778,-0.021777749,0.0028935205,-0.021990176,-0.04039928,-0.04039928,0.039519843,0.032645244,0.7697017,-0.015298307,-0.06246253,-0.034488708,-1.524209,0.04579103,0.05419214,0.029281124,-0.045929674,-0.045929674,0.022755899,0.0055702524,0.7868465,0.0018464923,0.08549316,0.050549958,-1.6081715,-0.03817141,0.026934098,0.012599083,-0.03992712,-0.03992712,0.069609374,0.075649895,0.83878994,0.053789914,-0.047143925,-0.050401438,-1.5985554,-0.028555393
60,1.2,0.0,0.0,-0.14,0.0,0.0,0.0,0.0,0.0,-1.0,0.0,0.0,-0.2,0.116541736,-0.09476954,-0.021777749,-0.04039928,-0.015298307,0.04579103,-0.045929674,0.0018464923,-0.03817141,-0.03992712,0.053789914,-0.028555393,0.49174196,-0.23646173,-0.3163772,0.14552918,0.16065714,0.26538187,0.2599183,-0.5084159,0.40307617,1.4051795e-05,0.5225622,-0.12929368,-1.0860192,0.8591604,0.15354039,0.39770246,0.42560616,-1.1412568,0.83916456,0.2692264,0.81360435,0.7396196,-0.5167209,0.11832154,0.12806495,-0.09692291,-0.04413656,-0.021990176,0.032645244,-0.034488708,0.029281124,0.0055702524,0.050549958,0.012599083,0.075649895,-0.050401438,0.097687505,0.12201876,0.1241078,0.1241078,-0.08577428,-0.093300134,0.68727756,-0.09772247,-0.045760795,-0.045456745,-1.5978193,-0.027819276,0.0070019625,-0.012199026,-0.036536634,-0.036536634,0.04080699,0.036003467,0.7738198,-0.011180222,-0.0724306,-0.04317385,-1.5213228,0.048677206,0.057935506,0.039736524,-0.038885694,-0.038885694,0.032873802,0.00867196,0.77726626,-0.0077337623,0.09480092,0.06278629,-1.598287,-0.028286934,0.034280982,0.016401539,-0.038386762,-0.038386762,0.06314632,0.07518756,0.8482003,0.063200295,-0.04584517,-0.05007555,-1.6008995,-0.030899405
61,1.22,0.0,0.0,-0.14,0.0,0.0,0.0,0.0,0.0,-1.0,0.0,0.0,-0.2,0.1241078,-0.09772247,-0.027819276,-0.036536634,-0.011180222,0.048677206,-0.038885694,-0.0077337623,-0.028286934,-0.038386762,0.063200295,-0.030899405,0.3783031,-0.14764747,-0.30207926,0.19313234,0.20590435,0.1443081,0.35219908,-0.47901186,0.49422568,0.07701797,0.4705203,-0.11720079,-1.1987263,0.89098245,0.23249486,0.39042777,0.36395913,-1.1963797,0.76396376,0.43262213,0.7077688,0.7068915,-0.64496434,0.15238664,0.12201876,-0.093300134,-0.045456745,-0.012199026,0.036003467,-0.04317385,0.039736524,0.00867196,0.06278629,0.016401539,0.07518756,-0.05007555,0.08672844,0.11491376,0.12916273,0.12916273,-0.08362132,-0.09086131,0.6861456,-0.09885442,-0.04414334,-0.04648389,-1.6034124,-0.033412337,0.008659979,-0.003664611,-0.03175658,-0.03175658,0.04241335,0.03827894,0.7787022,-0.0062978268,-0.08265632,-0.052575745,-1.5209799,0.04902017,0.059258685,0.04803285,-0.030181043,-0.030181043,0.045288432,0.014825184,0.7686497,-0.016350329,0.10110239,0.07429351,-1.5868028,-0.016802788,0.043082703,0.021105804,-0.035357352,-0.035357352,0.05293013,0.07293489,0.85628474,0.07128471,-0.044832487,-0.048734445,-1.6029172,-0.032917142
62,1.24,0.0,0.0,-0.14,0.0,0.0,0.0,0.0,0.0,-1.0,0.0,0.0,-0.2,0.12916273,-0.09885442,-0.033412337,-0.03175658,-0.0062978268,0.04902017,-0.030181043,-0.016350329,-0.016802788,-0.035357352,0.07128471,-0.032917142,0.25274646,-0.0565982,-0.27965164,0.23900265,0.24412063,0.01714851,0.43523252,-0.43082708,0.5742084,0.15147054,0.40422168,-0.10088924,-1.2736667,0.88307935,0.30255127,0.35928705,0.28493643,-1.2135036,0.64954317,0.59562063,0.5760893,0.6588288,-0.75918734,0.18724349,0.11491376,-0.09086131,-0.04648389,-0.003664611,0.03827894,-0.052575745,0.04803285,0.014825184,0.07429351,0.021105804,0.07293489,-0.048734445,0.074182555,0.10698545,0.13154347,0.13154347,-0.08129328,-0.08822096,0.68682206,-0.09817797,-0.041917436,-0.04664644,-1.608403,-0.038402915,0.008193217,0.0028935205,-0.026153022,-0.026153022,0.044045437,0.039519843,0.7841743,-0.00082570314,-0.09334507,-0.06246253,-1.5232221,0.046777964,0.058003306,0.05419214,-0.020078758,-0.020078758,0.059344076,0.022755899,0.7613513,-0.023648739,0.10478052,0.08549316,-1.5739872,-0.003987193,0.053146064,0.026934098,-0.030917032,-0.030917032,0.04020263,0.069609374,0.8627976,0.07779759,-0.044040915,-0.047143925,-1.6045351,-0.03453505
63,1.26,0.0,0.0,-0.14,0.0,0.0,0.0,0.0,0.0,-1.0,0.0,0.0,-0.2,0.13154347,-0.09817797,-0.038402915,-0.026153022,-0.00082570314,0.046777964,-0.020078758,-0.023648739,-0.003987193,-0.030917032,0.07779759,-0.03453505,0.11903714,0.033822022,-0.24952641,0.28017786,0.27360696,-0.11211124,0.50511426,-0.3649205,0.6407769,0.22201605,0.3256426,-0.0808925,-1.3083304,0.84816885,0.36603898,0.30150756,0.19256607,-1.1920923,0.50224006,0.74288696,0.4273514,0.59913725,-0.85070753,0.21585557,0.10698545,-0.08822096,-0.04664644,0.0028935205,0.039519843,-0.06246253,0.05419214,0.022755899,0.08549316,0.026934098,0.069609374,-0.047143925,0.060763903,0.097687505,0.13115878,0.13115878,-0.07857559,-0.08577428,0.68923396,-0.09576607,-0.039194666,-0.045760795,-1.6126473,-0.042647243,0.0059963427,0.0070019625,-0.019880716,-0.019880716,0.04570378,0.04080699,0.7900522,0.0050521493,-0.10401016,-0.0724306,-1.528008,0.04199207,0.05414076,0.057935506,-0.008912099,-0.008912099,0.074098274,0.032873802,0.7557005,-0.029299498,0.10621929,0.09480092,-1.560168,0.009832025,0.06387258,0.034280982,-0.025160886,-0.025160886,0.026029129,0.06314632,0.86750567,0.08250564,-0.043757696,-0.04584517,-1.6057005,-0.03570044
64,1.28,0.0,0.0,-0.14,0.0,0.0,0.0,0.0,0.0,-1.0,0.0,0.0,-0.2,0.13115878,-0.09576607,-0.042647243,-0.019880716,0.0050521493,0.04199207,-0.008912099,-0.029299498,0.009832025,-0.025160886,0.08250564,-0.03570044,-0.019234255,0.12059623,-0.21221413,0.31361538,0.29389334,-0.2392949,0.558333,-0.2825375,0.6909583,0.2878073,0.23540139,-0.058268014,-1.3074234,0.7857646,0.42237598,0.21729946,0.09867501,-1.1316706,0.32691115,0.8730507,0.25561604,0.53291845,-0.93262017,0.23357889,0.097687505,-0.08577428,-0.045760795,0.0070019625,0.04080699,-0.0724306,0.057935506,0.032873802,0.09480092,0.034280982,0.06314632,-0.04584517,0.046093203,0.08672844,0.12798391,0.12798391,-0.07555214,-0.08362132,0.69325185,-0.09174818,-0.03607408,-0.04414334,-1.6160209,-0.046020865,0.0021576472,0.008659979,-0.0131472815,-0.0131472815,0.04715516,0.04241335,0.79615307,0.011153042,-0.11449648,-0.08265632,-1.5352209,0.03477919,0.047933757,0.059258685,0.0029295534,0.0029295534,0.08971654,0.045288432,0.7519945,-0.033005536,0.10519637,0.10110239,-1.5457368,0.024263263,0.07543546,0.043082703,-0.018198077,-0.018198077,0.0100736655,0.05293013,0.870185,0.08518499,-0.044117596,-0.044832487,-1.6063825,-0.036382437
65,1.3,0.0,0.0,-0.14,0.0,0.0,0.0,0.0,0.0,-1.0,0.0,0.0,-0.2,0.12798391,-0.09174818,-0.046020865,-0.0131472815,0.011153042,0.03477919,0.0029295534,-0.033005536,0.024263263,-0.018198077,0.08518499,-0.036382437,-0.15874384,0.20089501,-0.16868259,0.33667174,0.3050459,-0.36064258,0.5920826,-0.18530068,0.7215611,0.3481405,0.13396639,-0.034099884,-1.2745432,0.69855225,0.46752763,0.11130047,0.0083352085,-1.0373968,0.1311553,0.9830464,0.059826087,0.4617606,-1.0065022,0.24050918,0.08672844,-0.08362132,-0.04414334,0.008659979,0.04241335,-0.08265632,0.059258685,0.045288432,0.10110239,0.043082703,0.05293013,-0.044832487,0.029889178,0.074182555,0.12205922,0.12205922,-0.071884826,-0.08129328,0.6987041,-0.0862959,-0.03241501,-0.041917436,-1.6184239,-0.048423886,-0.003447324,0.008193217,-0.006198714,-0.006198714,0.048330475,0.044045437,0.80229676,0.017296731,-0.12487615,-0.09334507,-1.5446795,0.02532053,0.040009156,0.058003306,0.01501343,0.01501343,0.10609019,0.059344076,0.75047946,-0.034520566,0.10166663,0.10478052,-1.5311271,0.038872957,0.08726395,0.053146064,-0.010150732,-0.010150732,-0.0072168726,0.04020263,0.8706477,0.0856477,-0.044911485,-0.044040915,-1.6065708,-0.036570787
66,1.32,0.0,0.0,-0.14,0.0,0.0,0.0,0.0,0.0,-1.0,0.0,0.0,-0.2,0.12205922,-0.0862959,-0.048423886,-0.006198714,0.017296731,0.02532053,0.01501343,-0.034520566,0.038872957,-0.010150732,0.0856477,-0.036570787,-0.29623485,0.27261275,-0.12014894,0.34742838,0.3071851,-0.4729333,0.60419387,-0.07575155,0.73048615,0.40236726,0.023134172,-0.009415727,-1.2113696,0.59408224,0.49951807,-0.008989024,-0.07797668,-0.9154232,-0.07828536,1.0649573,-0.14896691,0.3863966,-1.0603094,0.23751311,0.074182555,-0.08129328,-0.041917436,0.008193217,0.044045437,-0.09334507,0.058003306,0.059344076,0.10478052,0.053146064,0.04020263,-0.044040915,0.013138033,0.060763903,0.113497086,0.113497086,-0.06639357,-0.07857559,0.705388,-0.07961202,-0.0282382,-0.039194666,-1.6197844,-0.049784303,-0.010901647,0.0059963427,0.0006967257,0.0006967257,0.04874621,0.04570378,0.80831105,0.023311019,-0.13493606,-0.10401016,-1.5561397,0.013860345,0.031675786,0.05414076,0.026878936,0.026878936,0.1223018,0.074098274,0.75133044,-0.03366959,0.09581628,0.10621929,-1.5167923,0.053207755,0.0970326,0.06387258,-0.0011589695,-0.0011589695,-0.023367226,0.026029129,0.868763,0.083763,-0.045677725,-0.043757696,-1.6062796,-0.03627956
67,1.34,0.0,0.0,-0.14,0.0,0.0,0.0,0.0,0.0,-1.0,0.0,0.0,-0.2,0.113497086,-0.07961202,-0.049784303,0.0006967257,0.023311019,0.013860345,0.026878936,-0.03366959,0.053207755,-0.0011589695,0.083763,-0.03627956,-0.42810673,0.33419508,-0.06801894,0.34477198,0.3007141,-0.5730076,0.5932753,0.04254751,0.71674055,0.44958812,-0.09423557,0.014562177,-1.1157887,0.4780898,0.5170016,-0.13556287,-0.1577032,-0.76734257,-0.29357454,1.1102256,-0.35994002,0.30473018,-1.0848573,0.22313043,0.060763903,-0.07857559,-0.039194666,0.0059963427,0.04570378,-0.10401016,0.05414076,0.074098274,0.10621929,0.06387258,0.026029129,-0.043757696,-0.002793759,0.046093203,0.10246864,0.10246864,-0.058770306,-0.07555214,0.7130765,-0.071923554,-0.023487844,-0.03607408,-1.6200608,-0.05006075,-0.019882724,0.0021576472,0.00725962,0.00725962,0.047555204,0.04715516,0.81403315,0.029033124,-0.14413044,-0.11449648,-1.5693023,0.000697732,0.024084225,0.047933757,0.038057983,0.038057983,0.13721867,0.08971654,0.7546517,-0.030348301,0.087991014,0.10519637,-1.5031937,0.06680632,0.102594964,0.07543546,0.008627259,0.008627259,-0.036556188,0.0100736655,0.8644533,0.07945329,-0.04589889,-0.044117596,-1.6055479,-0.035547853
68,1.36,0.0,0.0,-0.14,0.0,0.0,0.0,0.0,0.0,-1.0,0.0,0.0,-0.2,0.10246864,-0.071923554,-0.05006075,0.00725962,0.029033124,0.000697732,0.038057983,-0.030348301,0.06680632,0.008627259,0.07945329,-0.035547853,-0.5514221,0.38442287,-0.013822444,0.32814473,0.2861049,-0.65813094,0.5589523,0.16606472,0.6799283,0.48931143,-0.21548566,0.03658721,-0.99504167,0.35414857,0.5192899,-0.2629651,-0.23034129,-0.59807,-0.50493383,1.1202729,-0.5672934,0.22079182,-1.0829204,0.19753052,0.046093203,-0.07555214,-0.03607408,0.0021576472,0.04715516,-0.11449648,0.047933757,0.08971654,0.10519637,0.07543546,0.0100736655,-0.044117596,-0.016883276,0.029889178,0.08919085,0.08919085,-0.049588427,-0.071884826,0.7215319,-0.0634681,-0.017347746,-0.03241501,-1.6192402,-0.049240112,-0.030139238,-0.003447324,0.013206905,0.013206905,0.044817787,0.048330475,0.81931335,0.03431332,-0.15186143,-0.12487615,-1.5838271,-0.0138270855,0.018081382,0.040009156,0.048100367,0.048100367,0.14929998,0.10609019,0.7604755,-0.02452451,0.07734161,0.10166663,-1.4907862,0.07921386,0.10212447,0.08726395,0.019044327,0.019044327,-0.046418115,-0.0072168726,0.8577011,0.0727011,-0.0456204,-0.044911485,-1.6044338,-0.034433722
69,1.3800000000000001,0.0,0.0,-0.14,0.0,0.0,0.0,0.0,0.0,-1.0,0.0,0.0,-0.2,0.08919085,-0.0634681,-0.049240112,0.013206905,0.03431332,-0.0138270855,0.048100367,-0.02452451,0.07921386,0.019044327,0.0727011,-0.034433722,-0.66388947,0.4227715,0.041033946,0.29736423,0.264011,-0.72624177,0.5021192,0.29119092,0.62037516,0.5208534,-0.3376102,0.0557053,-0.85599536,0.22902486,0.5080055,-0.3875712,-0.29437524,-0.41465583,-0.70059216,1.0955182,-0.7642758,0.13297565,-1.0521479,0.16379583,0.029889178,-0.071884826,-0.03241501,-0.003447324,0.048330475,-0.12487615,0.040009156,0.10609019,0.10166663,0.08726395,-0.0072168726,-0.044911485,-0.029108725,0.013138033,0.07393305,0.07393305,-0.038913462,-0.06639357,0.73053324,-0.054466784,-0.009769857,-0.0282382,-1.6173366,-0.04733658,-0.04095506,-0.010901647,0.018259779,0.018259779,0.04137635,0.04874621,0.82401145,0.03901142,-0.15786093,-0.13493606,-1.5993422,-0.029342175,0.0141185,0.031675786,0.056608234,0.056608234,0.1586708,0.1223018,0.7687498,-0.016250253,0.06310616,0.09581628,-1.4800009,0.0899992,0.094836734,0.0970326,0.029883645,0.029883645,-0.053141013,-0.023367226,0.8485862,0.063586175,-0.044385146,-0.045677725,-1.6030043,-0.033004284
70,1.4000000000000001,0.0,0.0,-0.14,0.0,0.0,0.0,0.0,0.0,-1.0,0.0,0.0,-0.2,0.07393305,-0.054466784,-0.04733658,0.018259779,0.03901142,-0.029342175,0.056608234,-0.016250253,0.0899992,0.029883645,0.063586175,-0.033004284,-0.7628899,0.450067,0.09517579,0.25264364,0.2349061,-0.7757552,0.42539328,0.41371205,0.5392673,0.5419659,-0.45574525,0.07147186,-0.69637966,0.115286134,0.483891,-0.5056914,-0.3516659,-0.22213635,-0.86502206,1.0315626,-0.94308984,0.027139496,-0.9764444,0.12691131,0.013138033,-0.06639357,-0.0282382,-0.010901647,0.04874621,-0.13493606,0.031675786,0.1223018,0.09581628,0.0970326,-0.023367226,-0.045677725,-0.038728453,-0.002793759,0.057027586,0.057027586,-0.028053466,-0.058770306,0.7398871,-0.045112908,-0.0018602535,-0.023487844,-1.6143893,-0.044389248,-0.051060673,-0.019882724,0.022157572,0.022157572,0.037707683,0.047555204,0.8279872,0.042987168,-0.16021174,-0.14413044,-1.6154487,-0.04544866,0.011954129,0.024084225,0.06326459,0.06326459,0.16441672,0.13721867,0.7793258,-0.005674243,0.046662703,0.087991014,-1.4712269,0.09877312,0.08076442,0.102594964,0.04086624,0.04086624,-0.05607228,-0.036556188,0.8373074,0.052307367,-0.04234654,-0.04589889,-1.6013246,-0.031324506
71,1.42,0.0,0.0,-0.14,0.0,0.0,0.0,0.0,0.0,-1.0,0.0,0.0,-0.2,0.057027586,-0.045112908,-0.044389248,0.022157572,0.042987168,-0.04544866,0.06326459,-0.005674243,0.09877312,0.04086624,0.052307367,-0.031324506,-0.8452733,0.46769428,0.14736527,0.19488965,0.1987867,-0.8053244,0.33281782,0.5288018,0.43869802,0.5491297,-0.5639409,0.08398599,-0.5121548,0.017796993,0.44864288,-0.6110278,-0.4067464,-0.023202991,-0.9859686,0.92413676,-1.095791,-0.107665,-0.84739745,0.09200778,-0.002793759,-0.058770306,-0.023487844,-0.019882724,0.047555204,-0.14413044,0.024084225,0.13721867,0.087991014,0.102594964,-0.036556188,-0.04589889,-0.04454276,-0.016883276,0.038872376,0.038872376,-0.018842466,-0.049588427,0.7494235,-0.035576522,0.005506873,-0.017347746,-1.6104465,-0.0404464,-0.059402574,-0.030139238,0.024669206,0.024669206,0.033240642,0.044817787,0.83110565,0.046105623,-0.1574646,-0.15186143,-1.6317253,-0.06172526,0.011029124,0.018081382,0.06785297,0.06785297,0.16586784,0.14929998,0.7919434,0.006943345,0.030035412,0.07734161,-1.4648149,0.10518515,0.061332162,0.10212447,0.05162598,0.05162598,-0.054742493,-0.046418115,0.824176,0.039175987,-0.03994665,-0.0456204,-1.5994563,-0.029456258
72,1.44,0.0,0.0,-0.14,0.0,0.0,0.0,0.0,0.0,-1.0,0.0,0.0,-0.2,0.038872376,-0.035576522,-0.0404464,0.024669206,0.046105623,-0.06172526,0.06785297,0.006943345,0.10518515,0.05162598,0.039175987,-0.029456258,-0.9077604,0.47681946,0.19714156,0.12558167,0.15592214,-0.8138294,0.2294187,0.6308805,0.32059938,0.5379868,-0.6565701,0.093409546,-0.30314404,-0.06589291,0.40978914,-0.6986121,-0.4571086,0.17962742,-1.0557058,0.7678661,-1.2245296,-0.27801332,-0.6698753,0.059631824,-0.016883276,-0.049588427,-0.017347746,-0.030139238,0.044817787,-0.15186143,0.018081382,0.14929998,0.07734161,0.10212447,-0.046418115,-0.0456204,-0.046579108,-0.029108725,0.019915273,0.019915273,-0.012557231,-0.038913462,0.75899893,-0.026001096,0.011943005,-0.009769857,-1.6055628,-0.035562754,-0.06520958,-0.04095506,0.025610562,0.025610562,0.026965428,0.04137635,0.8332548,0.048254788,-0.14891332,-0.15786093,-1.6477387,-0.07773864,0.009544447,0.0141185,0.07026652,0.07026652,0.16378297,0.1586708,0.80624664,0.021246612,0.014711095,0.06310616,-1.4610797,0.108920336,0.039779674,0.094836734,0.061713085,0.061713085,-0.04958985,-0.053141013,0.8095973,0.024597287,-0.037579183,-0.044385146,-1.5974491,-0.027449012
73,1.46,0.0,0.0,-0.14,0.0,0.0,0.0,0.0,0.0,-1.0,0.0,0.0,-0.2,0.019915273,-0.026001096,-0.035562754,0.025610562,0.048254788,-0.07773864,0.07026652,0.021246612,0.108920336,0.061713085,0.024597287,-0.027449012,-0.9478551,0.47877014,0.2441828,0.047067814,0.10745813,-0.80066633,0.120677814,0.7151637,0.18675801,0.5043553,-0.72893596,0.10036092,-0.077586606,-0.13467546,0.36875334,-0.7609434,-0.49479485,0.3812635,-1.0716552,0.5718386,-1.3312559,-0.48089314,-0.45421657,0.033922173,-0.029108725,-0.038913462,-0.009769857,-0.04095506,0.04137635,-0.15786093,0.0141185,0.1586708,0.06310616,0.094836734,-0.053141013,-0.044385146,-0.045543797,-0.038728453,0.0006490834,0.0006490834,-0.010146491,-0.028053466,0.76847875,-0.016521275,0.01724945,-0.0018602535,-1.5998151,-0.029815078,-0.06755008,-0.051060673,0.024868343,0.024868343,0.018457193,0.037707683,0.8343557,0.049355686,-0.13462365,-0.16021174,-1.663027,-0.093026996,0.005986087,0.011954129,0.07050214,0.07050214,0.15902652,0.16441672,0.8217855,0.036785483,0.0027049612,0.046662703,-1.4602702,0.109729886,0.018995237,0.08076442,0.07061325,0.07061325,-0.04090637,-0.05607228,0.79406327,0.009063244,-0.035867233,-0.04234654,-1.5953413,-0.025341272
74,1.48,0.0,0.0,-0.14,0.0,0.0,0.0,0.0,0.0,-1.0,0.0,0.0,-0.2,0.0006490834,-0.016521275,-0.029815078,0.024868343,0.049355686,-0.093026996,0.07050214,0.036785483,0.109729886,0.07061325,0.009063244,-0.025341272,-0.9633095,0.47399056,0.28738594,-0.037111014,0.055043712,-0.7644206,0.011780798,0.7769443,0.040477827,0.44500816,-0.7767026,0.10538411,0.16144177,-0.19708304,0.31846714,-0.7878233,-0.5155513,0.58894783,-1.0382916,0.3382935,-1.4026146,-0.7062007,-0.20523849,0.013996482,-0.038728453,-0.028053466,-0.0018602535,-0.051060673,0.037707683,-0.16021174,0.011954129,0.16441672,0.046662703,0.08076442,-0.05607228,-0.04234654,-0.040230215,-0.04454276,-0.018387252,-0.018387252,-0.012070917,-0.018842466,0.77771175,-0.007288277,0.021203987,0.005506873,-1.5933126,-0.023312569,-0.06565493,-0.059402574,0.022417005,0.022417005,0.006964978,0.033240642,0.834354,0.049353957,-0.11472417,-0.1574646,-1.6770936,-0.10709357,-0.0005464405,0.011029124,0.06864637,0.06864637,0.1526811,0.16586784,0.8380242,0.053024173,-0.00467447,0.030035412,-1.4625319,0.10746813,0.00067298533,0.061332162,0.0777901,0.0777901,-0.02892216,-0.054742493,0.77814,-0.006860018,-0.034942213,-0.03994665,-1.5931673,-0.023167253
75,1.5,0.0,0.0,-0.14,0.0,0.0,0.0,0.0,0.0,-1.0,0.0,0.0,-0.2,-0.018387252,-0.007288277,-0.023312569,0.022417005,0.049353957,-0.10709357,0.06864637,0.053024173,0.10746813,0.0777901,-0.006860018,-0.023167253,-0.9518168,0.46165112,0.32512617,-0.12256687,-8.5026026e-05,-0.703328,-0.09278836,0.81193453,-0.11308548,0.35884228,-0.7961626,0.108703695,0.41376233,-0.2649528,0.25449204,-0.7726093,-0.52369535,0.8054451,-0.9637148,0.0725884,-1.4226633,-0.9334053,0.06990194,-0.0032482564,-0.04454276,-0.018842466,0.005506873,-0.059402574,0.033240642,-0.1574646,0.011029124,0.16586784,0.030035412,0.061332162,-0.054742493,-0.03994665,-0.028773569,-0.046579108,-0.036628645,-0.036628645,-0.018862277,-0.012557231,0.7865154,0.0015153885,0.023393296,0.011943005,-1.5861981,-0.016198039,-0.059689146,-0.06520958,0.018327538,0.018327538,-0.007392414,0.026965428,0.8332045,0.04820448,-0.0899721,-0.14891332,-1.6894125,-0.11941242,-0.011264965,0.009544447,0.06483942,0.06483942,0.1449913,0.16378297,0.8543747,0.06937468,-0.00741815,0.014711095,-1.4678842,0.10211587,-0.013628442,0.039779674,0.08275529,0.08275529,-0.014227614,-0.04958985,0.762439,-0.022561014,-0.034939367,-0.037579183,-1.5909618,-0.020961761
76,1.52,0.0,0.0,-0.14,0.0,0.0,0.0,0.0,0.0,-1.0,0.0,0.0,-0.2,-0.036628645,0.0015153885,-0.016198039,0.018327538,0.04820448,-0.11941242,0.06483942,0.06937468,0.10211587,0.08275529,-0.022561014,-0.020961761,-0.9120696,0.440184,0.35572445,-0.2044734,-0.0574748,-0.6159426,-0.19034758,0.8175255,-0.2676113,0.24825975,-0.78505033,0.110272676,0.66946024,-0.34479636,0.17685121,-0.7126806,-0.52681124,1.0272629,-0.86590135,-0.208494,-1.3823591,-1.129977,0.3567824,-0.020382535,-0.046579108,-0.012557231,0.011943005,-0.06520958,0.026965428,-0.14891332,0.009544447,0.16378297,0.014711095,0.039779674,-0.04958985,-0.037579183,-0.009745076,-0.045543797,-0.05351455,-0.05351455,-0.030891933,-0.010146491,0.7946681,0.009668052,0.023402788,0.01724945,-1.578645,-0.0086449385,-0.05061106,-0.06755008,0.012775261,0.012775261,-0.022233319,0.018457193,0.83086526,0.045865238,-0.06254816,-0.13462365,-1.6994481,-0.12944806,-0.02612681,0.005986087,0.059243735,0.059243735,0.13533442,0.15902652,0.8702321,0.08523208,-0.005267134,0.0027049612,-1.4761932,0.09380686,-0.023679536,0.018995237,0.08512798,0.08512798,0.0018668324,-0.04090637,0.7475905,-0.037409544,-0.036839526,-0.035867233,-1.5887697,-0.018769622
77,1.54,0.0,0.0,-0.14,0.0,0.0,0.0,0.0,0.0,-1.0,0.0,0.0,-0.2,-0.05351455,0.009668052,-0.0086449385,0.012775261,0.045865238,-0.12944806,0.059243735,0.08523208,0.09380686,0.08512798,-0.037409544,-0.018769622,-0.8442953,0.40763298,0.37765458,-0.27761385,-0.11696249,-0.5017846,-0.2797844,0.79287094,-0.41545224,0.11863449,-0.74242526,0.10960409,0.9140301,-0.43967733,0.08748649,-0.6059979,-0.52770513,1.245071,-0.76011884,-0.48793668,-1.2715448,-1.269403,0.6425148,-0.041425813,-0.045543797,-0.010146491,0.01724945,-0.06755008,0.018457193,-0.13462365,0.005986087,0.15902652,0.0027049612,0.018995237,-0.04090637,-0.035867233,0.016523805,-0.040230215,-0.068487376,-0.068487376,-0.048205845,-0.012070917,0.8019106,0.016910553,0.019937254,0.021203987,-1.5708537,-0.0008536577,-0.04134982,-0.06565493,0.0060413107,0.0060413107,-0.03476418,0.006964978,0.8272867,0.042286694,-0.03572408,-0.11472417,-1.7066753,-0.13667524,-0.043731317,-0.0005464405,0.052023288,0.052023288,0.124347895,0.1526811,0.88501215,0.10001212,0.00088850583,-0.00467447,-1.4871634,0.08283663,-0.029133204,0.00067298533,0.08466871,0.08466871,0.01784575,-0.02892216,0.7342188,-0.05078125,-0.040543515,-0.034942213,-1.5866456,-0.01664555
78,1.56,0.0,0.0,-0.14,0.0,0.0,0.0,0.0,0.0,-1.0,0.0,0.0,-0.2,-0.068487376,0.016910553,-0.0008536577,0.0060413107,0.042286694,-0.13667524,0.052023288,0.10001212,0.08283663,0.08466871,-0.05078125,-0.01664555,-0.74864143,0.36212572,0.38956696,-0.33669752,-0.17892681,-0.36135784,-0.36102232,0.739001,-0.5485102,-0.022963598,-0.6685865,0.10620156,1.148277,-0.5481989,-0.011492992,-0.45355168,-0.5314043,1.4496895,-0.65623295,-0.7482456,-1.0885265,-1.3378338,0.91541564,-0.06630917,-0.040230215,-0.012070917,0.021203987,-0.06565493,0.006964978,-0.11472417,-0.0005464405,0.1526811,-0.00467447,0.00067298533,-0.02892216,-0.034942213,0.04820286,-0.028773569,-0.080980346,-0.080980346,-0.070057236,-0.018862277,0.80794805,0.022948027,0.012007199,0.023393296,-1.5630503,0.0069497824,-0.034882195,-0.059689146,-0.0015042904,-0.0015042904,-0.04334992,-0.007392414,0.82241565,0.037415624,-0.012129474,-0.0899721,-1.710607,-0.140607,-0.06261963,-0.011264965,0.04331888,0.04331888,0.11300068,0.1449913,0.8981726,0.11317259,0.008685196,-0.00741815,-1.5003545,0.069645524,-0.030203339,-0.013628442,0.08130495,0.08130495,0.033196196,-0.014227614,0.72291297,-0.06208706,-0.046216432,-0.034939367,-1.5846541,-0.01465404
79,1.58,0.0,0.0,-0.14,0.0,0.0,0.0,0.0,0.0,-1.0,0.0,0.0,-0.2,-0.080980346,0.022948027,0.0069497824,-0.0015042904,0.037415624,-0.140607,0.04331888,0.11317259,0.069645524,0.08130495,-0.06208706,-0.01465404,-0.62464845,0.30187276,0.39016917,-0.37728006,-0.2435531,-0.19658718,-0.43522042,0.65802455,-0.6595578,-0.16818811,-0.56528926,0.099572934,1.3778212,-0.6690028,-0.119133964,-0.2648045,-0.53601265,1.6282295,-0.56561154,-0.9798435,-0.8438948,-1.3258127,1.1622165,-0.09483613,-0.028773569,-0.018862277,0.023393296,-0.059689146,-0.007392414,-0.0899721,-0.011264965,0.1449913,-0.00741815,-0.013628442,-0.014227614,-0.034939367,0.084219664,-0.009745076,-0.09041321,-0.09041321,-0.09618076,-0.030891933,0.81245506,0.027455032,-0.00073833764,0.023402788,-1.555485,0.014515042,-0.03287242,-0.05061106,-0.009434251,-0.009434251,-0.048234947,-0.022233319,0.8162351,0.031235099,0.007276248,-0.06254816,-1.7108436,-0.14084351,-0.08210565,-0.02612681,0.03324546,0.03324546,0.10232615,0.13533442,0.9092189,0.12421888,0.016672788,-0.005267134,-1.5151991,0.054800987,-0.027966484,-0.023679536,0.07512875,0.07512875,0.04790981,0.0018668324,0.7141891,-0.070810914,-0.05344646,-0.036839526,-1.5828828,-0.0128827095
80,1.6,0.0,0.0,-0.14,0.0,0.0,0.0,0.0,0.0,-1.0,0.0,0.0,-0.2,-0.09041321,0.027455032,0.014515042,-0.009434251,0.031235099,-0.14084351,0.03324546,0.12421888,0.054800987,0.07512875,-0.070810914,-0.0128827095,-0.47164354,0.22534877,0.3782632,-0.39649802,-0.30902714,-0.011825144,-0.50367105,0.5523147,-0.7422265,-0.30881023,-0.43619204,0.088569164,1.6044725,-0.79909,-0.23415074,-0.05569146,-0.523115,1.7590234,-0.48910627,-1.1809845,-0.5478397,-1.2370912,1.3660052,-0.13287711,-0.009745076,-0.030891933,0.023402788,-0.05061106,-0.022233319,-0.06254816,-0.02612681,0.13533442,-0.005267134,-0.023679536,0.0018668324,-0.036839526,0.12309457,0.016523805,-0.096216835,-0.096216835,-0.12579983,-0.048205845,0.81508684,0.030086815,-0.018299647,0.019937254,-1.5484434,0.021556616,-0.034987424,-0.04134982,-0.017327415,-0.017327415,-0.05008625,-0.03476418,0.80880785,0.023807824,0.022271432,-0.03572408,-1.7071328,-0.13713276,-0.10104066,-0.043731317,0.021912154,0.021912154,0.093671925,0.124347895,0.9177275,0.13272744,0.0248631,0.00088850583,-1.5310408,0.038959265,-0.023138791,-0.029133204,0.0663911,0.0663911,0.061987497,0.01784575,0.70845294,-0.076547086,-0.060439,-0.040543515,-1.5814364,-0.011436343
81,1.62,0.0,0.0,-0.14,0.0,0.0,0.0,0.0,0.0,-1.0,0.0,0.0,-0.2,-0.096216835,0.030086815,0.021556616,-0.017327415,0.023807824,-0.13713276,0.021912154,0.13272744,0.038959265,0.0663911,-0.076547086,-0.011436343,-0.29018116,0.13158861,0.35207582,-0.39465818,-0.37136328,0.1855364,-0.5666653,0.42542708,-0.7920859,-0.43688226,-0.28680837,0.0723182,1.8167503,-0.93283015,-0.36144555,0.14376917,-0.4733569,1.8155626,-0.41711235,-1.3415692,-0.2201966,-1.0768821,1.5109236,-0.17752606,0.016523805,-0.048205845,0.019937254,-0.04134982,-0.03476418,-0.03572408,-0.043731317,0.124347895,0.00088850583,-0.029133204,0.01784575,-0.040543515,0.15887994,0.04820286,-0.097880095,-0.097880095,-0.15278456,-0.070057236,0.81550336,0.030503333,-0.03720709,0.012007199,-1.5422517,0.027748346,-0.039092097,-0.034882195,-0.024829559,-0.024829559,-0.04862956,-0.04334992,0.8002965,0.015296459,0.032500383,-0.012129474,-1.6994134,-0.12941337,-0.11556663,-0.06261963,0.00944241,0.00944241,0.08627381,0.11300068,0.9233713,0.13837129,0.031241355,0.008685196,-1.5471982,0.022801876,-0.01788225,-0.030203339,0.05548257,0.05548257,0.073984675,0.033196196,0.70598423,-0.07901579,-0.06468443,-0.046216432,-1.5804359,-0.01043582
82,1.6400000000000001,0.0,0.0,-0.14,0.0,0.0,0.0,0.0,0.0,-1.0,0.0,0.0,-0.2,-0.097880095,0.030503333,0.027748346,-0.024829559,0.015296459,-0.12941337,0.00944241,0.13837129,0.022801876,0.05548257,-0.07901579,-0.01043582,-0.08316289,0.020824462,0.30958724,-0.37510717,-0.42556754,0.38596836,-0.6234872,0.28219232,-0.8078683,-0.5454266,-0.12343565,0.050027248,1.9932859,-1.0589237,-0.50270927,0.30576897,-0.3787585,1.7805933,-0.34029204,-1.4510317,0.10858502,-0.8566345,1.5915401,-0.2277724,0.04820286,-0.070057236,0.012007199,-0.034882195,-0.04334992,-0.012129474,-0.06261963,0.11300068,0.008685196,-0.030203339,0.033196196,-0.046216432,0.18909396,0.084219664,-0.094980516,-0.094980516,-0.17484984,-0.09618076,0.813384,0.02838397,-0.055396177,-0.00073833764,-1.5372694,0.0327307,-0.043626305,-0.03287242,-0.03168801,-0.03168801,-0.043253172,-0.048234947,0.79094946,0.0059494376,0.03873105,0.007276248,-1.6878223,-0.11782229,-0.1231688,-0.08210565,-0.0040196925,-0.0040196925,0.07935805,0.10232615,0.9259423,0.14094228,0.034685124,0.016672788,-1.5630106,0.006989479,-0.013746757,-0.027966484,0.042896558,0.042896558,0.08311335,0.04790981,0.70693403,-0.07806599,-0.06555336,-0.05344646,-1.5800066,-0.010006547
83,1.6600000000000001,0.0,0.0,-0.14,0.0,0.0,0.0,0.0,0.0,-1.0,0.0,0.0,-0.2,-0.094980516,0.02838397,0.0327307,-0.03168801,0.0059494376,-0.11782229,-0.0040196925,0.14094228,0.006989479,0.042896558,-0.07806599,-0.010006547,0.14497913,-0.10596673,0.24911982,-0.34292245,-0.46735144,0.57955235,-0.6731052,0.12854958,-0.7906196,-0.6293006,0.047489285,0.021465974,2.120956,-1.1706065,-0.6541581,0.41549,-0.2473948,1.6535908,-0.25597757,-1.500742,0.41686097,-0.5954265,1.6085901,-0.27820048,0.084219664,-0.09618076,-0.00073833764,-0.03287242,-0.048234947,0.007276248,-0.08210565,0.10232615,0.016672788,-0.027966484,0.04790981,-0.05344646,0.21332744,0.12309457,-0.087217025,-0.087217025,-0.19005495,-0.12579983,0.80844957,0.02344954,-0.07143476,-0.018299647,-1.5338763,0.036123753,-0.04765624,-0.034987424,-0.037749317,-0.037749317,-0.034474526,-0.05008625,0.78107804,-0.0039219856,0.041400813,0.022271432,-1.6726842,-0.10268414,-0.12231979,-0.10104066,-0.018296711,-0.018296711,0.07199085,0.093671925,0.9253733,0.14037329,0.035828825,0.0248631,-1.5778582,-0.007858157,-0.0117501505,-0.023138791,0.029196937,0.029196937,0.090237066,0.061987497,0.71132624,-0.073673785,-0.063160606,-0.060439,-1.5802456,-0.010245562
